%
(Header)
(Generated by gcodetools from Inkscape.)
(Using default header. To add your own header create file "header" in the output dir.)
M3
(Header end.)
G21 (All units in mm)

(Start cutting path id: path5889)
(Change tool to Cylindrical cutter)

G00 Z5.000000
G00 X28.869902 Y224.120691

G01 Z-0.998000 F100.0(Penetrate)
G01 X28.869902 Y219.900449 Z-0.998000 F100.000000
G01 X5.925565 Y207.739261 Z-0.998000
G01 X28.869902 Y207.739261 Z-0.998000
G01 X28.869902 Y204.552548 Z-0.998000
G01 X3.221165 Y204.552548 Z-0.998000
G01 X3.221165 Y209.840770 Z-0.998000
G01 X24.167346 Y220.933977 Z-0.998000
G01 X3.221165 Y220.933977 Z-0.998000
G01 X3.221165 Y224.120691 Z-0.998000
G01 X28.869902 Y224.120691 Z-0.998000
G00 Z5.000000

(End cutting path id: path5889)


(Start cutting path id: path5889)
(Change tool to Cylindrical cutter)

G00 Z5.000000
G00 X28.869902 Y224.120691

G01 Z-1.000000 F100.0(Penetrate)
G01 X28.869902 Y219.900449 Z-1.000000 F100.000000
G01 X5.925565 Y207.739261 Z-1.000000
G01 X28.869902 Y207.739261 Z-1.000000
G01 X28.869902 Y204.552548 Z-1.000000
G01 X3.221165 Y204.552548 Z-1.000000
G01 X3.221165 Y209.840770 Z-1.000000
G01 X24.167346 Y220.933977 Z-1.000000
G01 X3.221165 Y220.933977 Z-1.000000
G01 X3.221165 Y224.120691 Z-1.000000
G01 X28.869902 Y224.120691 Z-1.000000
G00 Z5.000000

(End cutting path id: path5889)


(Start cutting path id: path5887)
(Change tool to Cylindrical cutter)

G00 Z5.000000
G00 X28.869902 Y200.659582

G01 Z-0.998000 F100.0(Penetrate)
G01 X28.869902 Y197.025006 Z-0.998000 F100.000000
G01 X21.721328 Y194.510090 Z-0.998000
G01 X21.721328 Y183.416880 Z-0.998000
G01 X28.869902 Y180.901960 Z-0.998000
G01 X28.869902 Y177.439640 Z-0.998000
G01 X3.221165 Y186.775850 Z-0.998000
G01 X3.221165 Y191.323370 Z-0.998000
G01 X28.869902 Y200.659582 Z-0.998000
G00 Z5.000000

(End cutting path id: path5887)


(Start cutting path id: path5887)
(Change tool to Cylindrical cutter)

G00 Z5.000000
G00 X28.869902 Y200.659582

G01 Z-1.000000 F100.0(Penetrate)
G01 X28.869902 Y197.025006 Z-1.000000 F100.000000
G01 X21.721328 Y194.510090 Z-1.000000
G01 X21.721328 Y183.416880 Z-1.000000
G01 X28.869902 Y180.901960 Z-1.000000
G01 X28.869902 Y177.439640 Z-1.000000
G01 X3.221165 Y186.775850 Z-1.000000
G01 X3.221165 Y191.323370 Z-1.000000
G01 X28.869902 Y200.659582 Z-1.000000
G00 Z5.000000

(End cutting path id: path5887)


(Start cutting path id: path5887)
(Change tool to Cylindrical cutter)

G00 Z5.000000
G00 X18.792997 Y193.459330

G01 Z-0.998000 F100.0(Penetrate)
G01 X6.201173 Y188.963480 Z-0.998000 F100.000000
G01 X18.792997 Y184.450410 Z-0.998000
G01 X18.792997 Y193.459330 Z-0.998000
G00 Z5.000000

(End cutting path id: path5887)


(Start cutting path id: path5887)
(Change tool to Cylindrical cutter)

G00 Z5.000000
G00 X18.792997 Y193.459330

G01 Z-1.000000 F100.0(Penetrate)
G01 X6.201173 Y188.963480 Z-1.000000 F100.000000
G01 X18.792997 Y184.450410 Z-1.000000
G01 X18.792997 Y193.459330 Z-1.000000
G00 Z5.000000

(End cutting path id: path5887)


(Start cutting path id: path5885)
(Change tool to Cylindrical cutter)

G00 Z5.000000
G00 X28.869902 Y173.512230

G01 Z-0.998000 F100.0(Penetrate)
G01 X28.869902 Y170.101590 Z-0.998000 F100.000000
G01 X6.769614 Y170.101590 Z-0.998000
G01 X21.807456 Y162.970240 Z-0.998000
G01 X21.807456 Y160.937630 Z-0.998000
G01 X6.769614 Y153.857960 Z-0.998000
G01 X28.869902 Y153.857960 Z-0.998000
G01 X28.869902 Y150.671250 Z-0.998000
G01 X3.221165 Y150.671250 Z-0.998000
G01 X3.221165 Y155.322130 Z-0.998000
G01 X17.501086 Y162.160640 Z-0.998000
G01 X3.221165 Y168.775220 Z-0.998000
G01 X3.221165 Y173.512230 Z-0.998000
G01 X28.869902 Y173.512230 Z-0.998000
G00 Z5.000000

(End cutting path id: path5885)


(Start cutting path id: path5885)
(Change tool to Cylindrical cutter)

G00 Z5.000000
G00 X28.869902 Y173.512230

G01 Z-1.000000 F100.0(Penetrate)
G01 X28.869902 Y170.101590 Z-1.000000 F100.000000
G01 X6.769614 Y170.101590 Z-1.000000
G01 X21.807456 Y162.970240 Z-1.000000
G01 X21.807456 Y160.937630 Z-1.000000
G01 X6.769614 Y153.857960 Z-1.000000
G01 X28.869902 Y153.857960 Z-1.000000
G01 X28.869902 Y150.671250 Z-1.000000
G01 X3.221165 Y150.671250 Z-1.000000
G01 X3.221165 Y155.322130 Z-1.000000
G01 X17.501086 Y162.160640 Z-1.000000
G01 X3.221165 Y168.775220 Z-1.000000
G01 X3.221165 Y173.512230 Z-1.000000
G01 X28.869902 Y173.512230 Z-1.000000
G00 Z5.000000

(End cutting path id: path5885)


(Start cutting path id: path5883)
(Change tool to Cylindrical cutter)

G00 Z5.000000
G00 X6.252849 Y147.191700

G01 Z-0.998000 F100.0(Penetrate)
G01 X6.252849 Y138.027750 Z-0.998000 F100.000000
G01 X28.869902 Y138.027750 Z-0.998000
G01 X28.869902 Y134.617100 Z-0.998000
G01 X6.252849 Y134.617100 Z-0.998000
G01 X6.252849 Y125.453150 Z-0.998000
G01 X3.221165 Y125.453150 Z-0.998000
G01 X3.221165 Y147.191700 Z-0.998000
G01 X6.252849 Y147.191700 Z-0.998000
G00 Z5.000000

(End cutting path id: path5883)


(Start cutting path id: path5883)
(Change tool to Cylindrical cutter)

G00 Z5.000000
G00 X6.252849 Y147.191700

G01 Z-1.000000 F100.0(Penetrate)
G01 X6.252849 Y138.027750 Z-1.000000 F100.000000
G01 X28.869902 Y138.027750 Z-1.000000
G01 X28.869902 Y134.617100 Z-1.000000
G01 X6.252849 Y134.617100 Z-1.000000
G01 X6.252849 Y125.453150 Z-1.000000
G01 X3.221165 Y125.453150 Z-1.000000
G01 X3.221165 Y147.191700 Z-1.000000
G01 X6.252849 Y147.191700 Z-1.000000
G00 Z5.000000

(End cutting path id: path5883)


(Start cutting path id: path5881)
(Change tool to Cylindrical cutter)

G00 Z5.000000
G00 X28.869902 Y125.005290

G01 Z-0.998000 F100.0(Penetrate)
G01 X28.869902 Y121.370710 Z-0.998000 F100.000000
G01 X21.721328 Y118.855790 Z-0.998000
G01 X21.721328 Y107.762580 Z-0.998000
G01 X28.869902 Y105.247660 Z-0.998000
G01 X28.869902 Y101.785340 Z-0.998000
G01 X3.221165 Y111.121550 Z-0.998000
G01 X3.221165 Y115.669080 Z-0.998000
G01 X28.869902 Y125.005290 Z-0.998000
G00 Z5.000000

(End cutting path id: path5881)


(Start cutting path id: path5881)
(Change tool to Cylindrical cutter)

G00 Z5.000000
G00 X28.869902 Y125.005290

G01 Z-1.000000 F100.0(Penetrate)
G01 X28.869902 Y121.370710 Z-1.000000 F100.000000
G01 X21.721328 Y118.855790 Z-1.000000
G01 X21.721328 Y107.762580 Z-1.000000
G01 X28.869902 Y105.247660 Z-1.000000
G01 X28.869902 Y101.785340 Z-1.000000
G01 X3.221165 Y111.121550 Z-1.000000
G01 X3.221165 Y115.669080 Z-1.000000
G01 X28.869902 Y125.005290 Z-1.000000
G00 Z5.000000

(End cutting path id: path5881)


(Start cutting path id: path5881)
(Change tool to Cylindrical cutter)

G00 Z5.000000
G00 X18.792997 Y117.805040

G01 Z-0.998000 F100.0(Penetrate)
G01 X6.201173 Y113.309190 Z-0.998000 F100.000000
G01 X18.792997 Y108.796110 Z-0.998000
G01 X18.792997 Y117.805040 Z-0.998000
G00 Z5.000000

(End cutting path id: path5881)


(Start cutting path id: path5881)
(Change tool to Cylindrical cutter)

G00 Z5.000000
G00 X18.792997 Y117.805040

G01 Z-1.000000 F100.0(Penetrate)
G01 X6.201173 Y113.309190 Z-1.000000 F100.000000
G01 X18.792997 Y108.796110 Z-1.000000
G01 X18.792997 Y117.805040 Z-1.000000
G00 Z5.000000

(End cutting path id: path5881)


(Start cutting path id: path5879)
(Change tool to Cylindrical cutter)

G00 Z5.000000
G00 X20.980633 Y99.942220

G01 Z-0.998000 F100.0(Penetrate)
G02 X22.846489 Y99.744550 Z-0.998000 I0.000000 J-8.904999 F100.000000
G02 X24.356826 Y99.218750 Z-0.998000 I-1.355515 J-6.325736
G02 X25.706669 Y98.355435 Z-0.998000 I-3.230697 J-6.538318
G02 X26.768393 Y97.272270 Z-0.998000 I-4.104383 J-5.085074
G02 X27.743919 Y95.743731 Z-0.998000 I-7.291625 J-5.729137
G02 X28.387588 Y94.085550 Z-0.998000 I-7.954860 J-4.041921
G02 X28.724846 Y92.343085 Z-0.998000 I-10.455490 J-2.927554
G02 X28.869902 Y89.693060 Z-0.998000 I-24.134089 J-2.650025
G01 X28.869902 Y80.598000 Z-0.998000
G01 X3.221165 Y80.598000 Z-0.998000
G01 X3.221165 Y88.194440 Z-0.998000
G02 X3.290042 Y90.997116 Z-0.998000 I57.056645 J0.000000
G02 X3.427871 Y92.397460 Z-0.998000 I14.355897 J-0.706027
G02 X3.745584 Y93.757071 Z-0.998000 I8.382056 J-1.241789
G02 X4.289145 Y95.067410 Z-0.998000 I8.324802 J-2.685419
G02 X5.183454 Y96.328616 Z-0.998000 I5.130988 J-2.690657
G02 X6.201173 Y97.117240 Z-0.998000 I2.937988 J-2.740478
G02 X7.401278 Y97.576135 Z-0.998000 I2.236127 J-4.049220
G02 X8.974475 Y97.754580 Z-0.998000 I1.573197 J-6.845562
G02 X10.718261 Y97.500000 Z-0.998000 I0.000000 J-6.099466
G02 X12.092286 Y96.824400 Z-0.998000 I-1.316363 J-4.412235
G02 X13.215923 Y95.766480 Z-0.998000 I-3.651708 J-5.004227
G02 X14.142118 Y94.343940 Z-0.998000 I-5.777232 J-4.774258
G01 X14.279922 Y94.343940 Z-0.998000
G02 X15.169176 Y96.735132 Z-0.998000 I8.169510 J-1.677189
G02 X16.570910 Y98.443600 Z-0.998000 I5.462759 J-3.052720
G02 X18.465066 Y99.526446 Z-0.998000 I3.736206 J-4.337426
G02 X20.980633 Y99.942220 Z-0.998000 I2.515567 J-7.402112
G01 X20.980633 Y99.942220 Z-0.998000
G00 Z5.000000

(End cutting path id: path5879)


(Start cutting path id: path5879)
(Change tool to Cylindrical cutter)

G00 Z5.000000
G00 X20.980633 Y99.942220

G01 Z-1.000000 F100.0(Penetrate)
G02 X22.846489 Y99.744550 Z-1.000000 I0.000000 J-8.904999 F100.000000
G02 X24.356826 Y99.218750 Z-1.000000 I-1.355515 J-6.325736
G02 X25.706669 Y98.355435 Z-1.000000 I-3.230697 J-6.538318
G02 X26.768393 Y97.272270 Z-1.000000 I-4.104383 J-5.085074
G02 X27.743919 Y95.743731 Z-1.000000 I-7.291625 J-5.729137
G02 X28.387588 Y94.085550 Z-1.000000 I-7.954860 J-4.041921
G02 X28.724846 Y92.343085 Z-1.000000 I-10.455490 J-2.927554
G02 X28.869902 Y89.693060 Z-1.000000 I-24.134089 J-2.650025
G01 X28.869902 Y80.598000 Z-1.000000
G01 X3.221165 Y80.598000 Z-1.000000
G01 X3.221165 Y88.194440 Z-1.000000
G02 X3.290042 Y90.997116 Z-1.000000 I57.056645 J0.000000
G02 X3.427871 Y92.397460 Z-1.000000 I14.355897 J-0.706027
G02 X3.745584 Y93.757071 Z-1.000000 I8.382056 J-1.241789
G02 X4.289145 Y95.067410 Z-1.000000 I8.324802 J-2.685419
G02 X5.183454 Y96.328616 Z-1.000000 I5.130988 J-2.690657
G02 X6.201173 Y97.117240 Z-1.000000 I2.937988 J-2.740478
G02 X7.401278 Y97.576135 Z-1.000000 I2.236127 J-4.049220
G02 X8.974475 Y97.754580 Z-1.000000 I1.573197 J-6.845562
G02 X10.718261 Y97.500000 Z-1.000000 I0.000000 J-6.099466
G02 X12.092286 Y96.824400 Z-1.000000 I-1.316363 J-4.412235
G02 X13.215923 Y95.766480 Z-1.000000 I-3.651708 J-5.004227
G02 X14.142118 Y94.343940 Z-1.000000 I-5.777232 J-4.774258
G01 X14.279922 Y94.343940 Z-1.000000
G02 X15.169176 Y96.735132 Z-1.000000 I8.169510 J-1.677189
G02 X16.570910 Y98.443600 Z-1.000000 I5.462759 J-3.052720
G02 X18.465066 Y99.526446 Z-1.000000 I3.736206 J-4.337426
G02 X20.980633 Y99.942220 Z-1.000000 I2.515567 J-7.402112
G01 X20.980633 Y99.942220 Z-1.000000
G00 Z5.000000

(End cutting path id: path5879)


(Start cutting path id: path5879)
(Change tool to Cylindrical cutter)

G00 Z5.000000
G00 X9.422337 Y94.206130

G01 Z-0.998000 F100.0(Penetrate)
G03 X8.512685 Y94.117027 Z-0.998000 I-0.000000 J-4.687878 F100.000000
G03 X7.854819 Y93.896070 Z-0.998000 I0.524413 J-2.651188
G03 X7.294237 Y93.503756 Z-0.998000 I0.952182 J-1.957254
G03 X6.821290 Y92.897000 Z-0.998000 I1.912376 J-1.978335
G03 X6.463149 Y92.053687 Z-0.998000 I3.322833 J-1.908855
G03 X6.252849 Y90.933290 Z-0.998000 I5.698402 J-1.649533
G03 X6.168171 Y89.777310 Z-0.998000 I18.609791 J-1.944301
G03 X6.132271 Y88.073860 Z-0.998000 I40.396118 J-1.703450
G01 X6.132271 Y84.008650 Z-0.998000
G01 X13.539226 Y84.008650 Z-0.998000
G01 X13.539226 Y88.418370 Z-0.998000
G03 X13.490682 Y90.016394 Z-0.998000 I-26.327212 J-0.000000
G03 X13.384197 Y90.967740 Z-0.998000 I-9.421494 J-0.572928
G03 X13.124775 Y91.880932 Z-0.998000 I-4.825216 J-0.877314
G03 X12.695178 Y92.724740 Z-0.998000 I-4.542225 J-1.781263
G03 X12.087277 Y93.424684 Z-0.998000 I-2.666985 J-1.702325
G03 X11.368816 Y93.861620 Z-0.998000 I-1.694050 J-1.976394
G03 X10.522668 Y94.109506 Z-0.998000 I-1.547268 J-3.713440
G03 X9.422337 Y94.206130 Z-0.998000 I-1.100331 J-6.216862
G01 X9.422337 Y94.206130 Z-0.998000
G00 Z5.000000

(End cutting path id: path5879)


(Start cutting path id: path5879)
(Change tool to Cylindrical cutter)

G00 Z5.000000
G00 X9.422337 Y94.206130

G01 Z-1.000000 F100.0(Penetrate)
G03 X8.512685 Y94.117027 Z-1.000000 I-0.000000 J-4.687878 F100.000000
G03 X7.854819 Y93.896070 Z-1.000000 I0.524413 J-2.651188
G03 X7.294237 Y93.503756 Z-1.000000 I0.952182 J-1.957254
G03 X6.821290 Y92.897000 Z-1.000000 I1.912376 J-1.978335
G03 X6.463149 Y92.053687 Z-1.000000 I3.322833 J-1.908855
G03 X6.252849 Y90.933290 Z-1.000000 I5.698402 J-1.649533
G03 X6.168171 Y89.777310 Z-1.000000 I18.609791 J-1.944301
G03 X6.132271 Y88.073860 Z-1.000000 I40.396118 J-1.703450
G01 X6.132271 Y84.008650 Z-1.000000
G01 X13.539226 Y84.008650 Z-1.000000
G01 X13.539226 Y88.418370 Z-1.000000
G03 X13.490682 Y90.016394 Z-1.000000 I-26.327212 J-0.000000
G03 X13.384197 Y90.967740 Z-1.000000 I-9.421494 J-0.572928
G03 X13.124775 Y91.880932 Z-1.000000 I-4.825216 J-0.877314
G03 X12.695178 Y92.724740 Z-1.000000 I-4.542225 J-1.781263
G03 X12.087277 Y93.424684 Z-1.000000 I-2.666985 J-1.702325
G03 X11.368816 Y93.861620 Z-1.000000 I-1.694050 J-1.976394
G03 X10.522668 Y94.109506 Z-1.000000 I-1.547268 J-3.713440
G03 X9.422337 Y94.206130 Z-1.000000 I-1.100331 J-6.216862
G01 X9.422337 Y94.206130 Z-1.000000
G00 Z5.000000

(End cutting path id: path5879)


(Start cutting path id: path5879)
(Change tool to Cylindrical cutter)

G00 Z5.000000
G00 X21.118437 Y96.393770

G01 Z-0.998000 F100.0(Penetrate)
G03 X19.602203 Y96.251882 Z-0.998000 I-0.000000 J-8.172279 F100.000000
G03 X18.655193 Y95.928680 Z-0.998000 I0.654645 J-3.467180
G03 X17.871308 Y95.333327 Z-0.998000 I1.259105 J-2.471565
G03 X17.104900 Y94.240580 Z-0.998000 I3.756284 J-3.449642
G03 X16.769621 Y93.385238 Z-0.998000 I3.829050 J-1.994304
G03 X16.553685 Y92.225200 Z-0.998000 I6.869553 J-1.878852
G03 X16.456477 Y91.051490 Z-0.998000 I16.966391 J-1.996053
G03 X16.415881 Y89.365770 Z-0.998000 I34.978657 J-1.685720
G01 X16.415881 Y84.008650 Z-0.998000
G01 X25.958796 Y84.008650 Z-0.998000
G01 X25.958796 Y88.521720 Z-0.998000
G03 X25.890685 Y90.755738 Z-0.998000 I-36.671709 J-0.000000
G03 X25.734865 Y92.190750 Z-0.998000 I-15.266811 J-0.931776
G03 X25.368356 Y93.570129 Z-0.998000 I-7.609737 J-1.283567
G03 X24.873591 Y94.533420 Z-0.998000 I-4.169968 J-1.533073
G03 X24.116641 Y95.401143 Z-0.998000 I-4.343339 J-3.024848
G03 X23.340523 Y95.945900 Z-0.998000 I-2.431976 J-2.639601
G03 X22.446847 Y96.261230 Z-0.998000 I-1.563075 J-3.005862
G03 X21.118437 Y96.393770 Z-0.998000 I-1.328410 J-6.590846
G01 X21.118437 Y96.393770 Z-0.998000
G00 Z5.000000

(End cutting path id: path5879)


(Start cutting path id: path5879)
(Change tool to Cylindrical cutter)

G00 Z5.000000
G00 X21.118437 Y96.393770

G01 Z-1.000000 F100.0(Penetrate)
G03 X19.602203 Y96.251882 Z-1.000000 I-0.000000 J-8.172279 F100.000000
G03 X18.655193 Y95.928680 Z-1.000000 I0.654645 J-3.467180
G03 X17.871308 Y95.333327 Z-1.000000 I1.259105 J-2.471565
G03 X17.104900 Y94.240580 Z-1.000000 I3.756284 J-3.449642
G03 X16.769621 Y93.385238 Z-1.000000 I3.829050 J-1.994304
G03 X16.553685 Y92.225200 Z-1.000000 I6.869553 J-1.878852
G03 X16.456477 Y91.051490 Z-1.000000 I16.966391 J-1.996053
G03 X16.415881 Y89.365770 Z-1.000000 I34.978657 J-1.685720
G01 X16.415881 Y84.008650 Z-1.000000
G01 X25.958796 Y84.008650 Z-1.000000
G01 X25.958796 Y88.521720 Z-1.000000
G03 X25.890685 Y90.755738 Z-1.000000 I-36.671709 J-0.000000
G03 X25.734865 Y92.190750 Z-1.000000 I-15.266811 J-0.931776
G03 X25.368356 Y93.570129 Z-1.000000 I-7.609737 J-1.283567
G03 X24.873591 Y94.533420 Z-1.000000 I-4.169968 J-1.533073
G03 X24.116641 Y95.401143 Z-1.000000 I-4.343339 J-3.024848
G03 X23.340523 Y95.945900 Z-1.000000 I-2.431976 J-2.639601
G03 X22.446847 Y96.261230 Z-1.000000 I-1.563075 J-3.005862
G03 X21.118437 Y96.393770 Z-1.000000 I-1.328410 J-6.590846
G01 X21.118437 Y96.393770 Z-1.000000
G00 Z5.000000

(End cutting path id: path5879)


(Start cutting path id: path5877)
(Change tool to Cylindrical cutter)

G00 Z5.000000
G00 X28.869902 Y61.271020

G01 Z-0.998000 F100.0(Penetrate)
G01 X28.869902 Y57.860370 Z-0.998000 F100.000000
G01 X6.769614 Y57.860370 Z-0.998000
G01 X21.807456 Y50.729030 Z-0.998000
G01 X21.807456 Y48.696420 Z-0.998000
G01 X6.769614 Y41.616750 Z-0.998000
G01 X28.869902 Y41.616750 Z-0.998000
G01 X28.869902 Y38.430040 Z-0.998000
G01 X3.221165 Y38.430040 Z-0.998000
G01 X3.221165 Y43.080910 Z-0.998000
G01 X17.501086 Y49.919430 Z-0.998000
G01 X3.221165 Y56.534010 Z-0.998000
G01 X3.221165 Y61.271020 Z-0.998000
G01 X28.869902 Y61.271020 Z-0.998000
G00 Z5.000000

(End cutting path id: path5877)


(Start cutting path id: path5877)
(Change tool to Cylindrical cutter)

G00 Z5.000000
G00 X28.869902 Y61.271020

G01 Z-1.000000 F100.0(Penetrate)
G01 X28.869902 Y57.860370 Z-1.000000 F100.000000
G01 X6.769614 Y57.860370 Z-1.000000
G01 X21.807456 Y50.729030 Z-1.000000
G01 X21.807456 Y48.696420 Z-1.000000
G01 X6.769614 Y41.616750 Z-1.000000
G01 X28.869902 Y41.616750 Z-1.000000
G01 X28.869902 Y38.430040 Z-1.000000
G01 X3.221165 Y38.430040 Z-1.000000
G01 X3.221165 Y43.080910 Z-1.000000
G01 X17.501086 Y49.919430 Z-1.000000
G01 X3.221165 Y56.534010 Z-1.000000
G01 X3.221165 Y61.271020 Z-1.000000
G01 X28.869902 Y61.271020 Z-1.000000
G00 Z5.000000

(End cutting path id: path5877)


(Start cutting path id: path5875)
(Change tool to Cylindrical cutter)

G00 Z5.000000
G00 X0.000001 Y29.111050

G01 Z-0.998000 F100.0(Penetrate)
G01 X6.442329 Y24.408500 Z-0.998000 F100.000000
G01 X6.442329 Y21.841900 Z-0.998000
G01 X0.000001 Y24.925260 Z-0.998000
G01 X0.000001 Y29.111050 Z-0.998000
G00 Z5.000000

(End cutting path id: path5875)


(Start cutting path id: path5875)
(Change tool to Cylindrical cutter)

G00 Z5.000000
G00 X0.000001 Y29.111050

G01 Z-1.000000 F100.0(Penetrate)
G01 X6.442329 Y24.408500 Z-1.000000 F100.000000
G01 X6.442329 Y21.841900 Z-1.000000
G01 X0.000001 Y24.925260 Z-1.000000
G01 X0.000001 Y29.111050 Z-1.000000
G00 Z5.000000

(End cutting path id: path5875)


(Start cutting path id: path5873)
(Change tool to Cylindrical cutter)

G00 Z5.000000
G00 X28.869902 Y10.128580

G01 Z-0.998000 F100.0(Penetrate)
G01 X28.869902 Y0.000000 Z-0.998000 F100.000000
G01 X26.251629 Y0.000000 Z-0.998000
G01 X26.251629 Y3.358960 Z-0.998000
G01 X5.839438 Y3.358960 Z-0.998000
G01 X5.839438 Y0.000000 Z-0.998000
G01 X3.221165 Y0.000000 Z-0.998000
G01 X3.221165 Y10.128580 Z-0.998000
G01 X5.839438 Y10.128580 Z-0.998000
G01 X5.839438 Y6.769610 Z-0.998000
G01 X26.251629 Y6.769610 Z-0.998000
G01 X26.251629 Y10.128580 Z-0.998000
G01 X28.869902 Y10.128580 Z-0.998000
G00 Z5.000000

(End cutting path id: path5873)


(Start cutting path id: path5873)
(Change tool to Cylindrical cutter)

G00 Z5.000000
G00 X28.869902 Y10.128580

G01 Z-1.000000 F100.0(Penetrate)
G01 X28.869902 Y0.000000 Z-1.000000 F100.000000
G01 X26.251629 Y0.000000 Z-1.000000
G01 X26.251629 Y3.358960 Z-1.000000
G01 X5.839438 Y3.358960 Z-1.000000
G01 X5.839438 Y0.000000 Z-1.000000
G01 X3.221165 Y0.000000 Z-1.000000
G01 X3.221165 Y10.128580 Z-1.000000
G01 X5.839438 Y10.128580 Z-1.000000
G01 X5.839438 Y6.769610 Z-1.000000
G01 X26.251629 Y6.769610 Z-1.000000
G01 X26.251629 Y10.128580 Z-1.000000
G01 X28.869902 Y10.128580 Z-1.000000
G00 Z5.000000

(End cutting path id: path5873)


(Footer)
M5
G00 X0.0000 Y0.0000
M2
(Using default footer. To add your own footer create file "footer" in the output dir.)
(end)
%