%
(Header)
(Generated by gcodetools from Inkscape.)
(Using default header. To add your own header create file "header" in the output dir.)
M3
(Header end.)
G21 (All units in mm)

(Start cutting path id: path3727)
(Change tool to Cylindrical cutter)

G00 Z5.000000
G00 X18.877131 Y88.250778

G01 Z-0.998000 F100.0(Penetrate)
G02 X19.766822 Y88.895643 Z-0.998000 I3.334459 J-3.664236 F100.000000
G02 X20.902847 Y89.400068 Z-0.998000 I3.128341 J-5.513953
G02 X22.120040 Y89.693893 Z-0.998000 I2.254640 J-6.671946
G02 X23.623094 Y89.805208 Z-0.998000 I1.503054 J-10.092014
G02 X25.125605 Y89.692028 Z-0.998000 I-0.000000 J-10.029790
G02 X26.351610 Y89.391798 Z-0.998000 I-1.054393 J-6.959017
G02 X27.488238 Y88.881383 Z-0.998000 I-2.076805 J-6.145542
G02 X28.352521 Y88.250778 Z-0.998000 I-2.369322 J-4.154882
G02 X29.083760 Y87.417786 Z-0.998000 I-3.352202 J-3.680169
G02 X29.609292 Y86.448308 Z-0.998000 I-4.041846 J-2.818174
G02 X29.915220 Y85.392073 Z-0.998000 I-4.836276 J-1.973200
G02 X30.030972 Y84.083588 Z-0.998000 I-7.337794 J-1.308485
G02 X29.915933 Y82.807792 Z-0.998000 I-7.131906 J-0.000000
G02 X29.601024 Y81.718878 Z-0.998000 I-5.494568 J0.999014
G02 X29.067628 Y80.732762 Z-0.998000 I-4.732986 J1.922782
G02 X28.352521 Y79.916408 Z-0.998000 I-3.935231 J2.725786
G02 X27.472484 Y79.276506 Z-0.998000 I-3.360704 J3.696779
G02 X26.343342 Y78.767118 Z-0.998000 I-3.215052 J5.620527
G02 X25.134915 Y78.479951 Z-0.998000 I-2.223548 J6.670727
G02 X23.623094 Y78.370248 Z-0.998000 I-1.511821 J10.362405
G02 X22.135948 Y78.479143 Z-0.998000 I0.000000 J10.209219
G02 X20.927652 Y78.767118 Z-0.998000 I1.031963 J7.008838
G02 X19.790425 Y79.270618 Z-0.998000 I2.015405 J6.088123
G02 X18.877131 Y79.924678 Z-0.998000 I2.571966 J4.556023
G02 X18.172789 Y80.726294 Z-0.998000 I3.022450 J3.365927
G02 X17.636897 Y81.727148 Z-0.998000 I4.218387 J2.902565
G02 X17.320200 Y82.831943 Z-0.998000 I5.420218 J2.151533
G02 X17.206949 Y84.083588 Z-0.998000 I6.859959 J1.251645
G02 X17.325894 Y85.382684 Z-0.998000 I7.153702 J-0.000000
G02 X17.645165 Y86.456578 Z-0.998000 I5.188562 J-0.958163
G02 X18.176807 Y87.444265 Z-0.998000 I4.824525 J-1.959970
G02 X18.877131 Y88.250778 Z-0.998000 I3.892817 J-2.672956
G01 X18.877131 Y88.250778 Z-0.998000
G00 Z5.000000

(End cutting path id: path3727)


(Start cutting path id: path3727)
(Change tool to Cylindrical cutter)

G00 Z5.000000
G00 X18.877131 Y88.250778

G01 Z-1.000000 F100.0(Penetrate)
G02 X19.766822 Y88.895643 Z-1.000000 I3.334459 J-3.664236 F100.000000
G02 X20.902847 Y89.400068 Z-1.000000 I3.128341 J-5.513953
G02 X22.120040 Y89.693893 Z-1.000000 I2.254640 J-6.671946
G02 X23.623094 Y89.805208 Z-1.000000 I1.503054 J-10.092014
G02 X25.125605 Y89.692028 Z-1.000000 I-0.000000 J-10.029790
G02 X26.351610 Y89.391798 Z-1.000000 I-1.054393 J-6.959017
G02 X27.488238 Y88.881383 Z-1.000000 I-2.076805 J-6.145542
G02 X28.352521 Y88.250778 Z-1.000000 I-2.369322 J-4.154882
G02 X29.083760 Y87.417786 Z-1.000000 I-3.352202 J-3.680169
G02 X29.609292 Y86.448308 Z-1.000000 I-4.041846 J-2.818174
G02 X29.915220 Y85.392073 Z-1.000000 I-4.836276 J-1.973200
G02 X30.030972 Y84.083588 Z-1.000000 I-7.337794 J-1.308485
G02 X29.915933 Y82.807792 Z-1.000000 I-7.131906 J-0.000000
G02 X29.601024 Y81.718878 Z-1.000000 I-5.494568 J0.999014
G02 X29.067628 Y80.732762 Z-1.000000 I-4.732986 J1.922782
G02 X28.352521 Y79.916408 Z-1.000000 I-3.935231 J2.725786
G02 X27.472484 Y79.276506 Z-1.000000 I-3.360704 J3.696779
G02 X26.343342 Y78.767118 Z-1.000000 I-3.215052 J5.620527
G02 X25.134915 Y78.479951 Z-1.000000 I-2.223548 J6.670727
G02 X23.623094 Y78.370248 Z-1.000000 I-1.511821 J10.362405
G02 X22.135948 Y78.479143 Z-1.000000 I0.000000 J10.209219
G02 X20.927652 Y78.767118 Z-1.000000 I1.031963 J7.008838
G02 X19.790425 Y79.270618 Z-1.000000 I2.015405 J6.088123
G02 X18.877131 Y79.924678 Z-1.000000 I2.571966 J4.556023
G02 X18.172789 Y80.726294 Z-1.000000 I3.022450 J3.365927
G02 X17.636897 Y81.727148 Z-1.000000 I4.218387 J2.902565
G02 X17.320200 Y82.831943 Z-1.000000 I5.420218 J2.151533
G02 X17.206949 Y84.083588 Z-1.000000 I6.859959 J1.251645
G02 X17.325894 Y85.382684 Z-1.000000 I7.153702 J-0.000000
G02 X17.645165 Y86.456578 Z-1.000000 I5.188562 J-0.958163
G02 X18.176807 Y87.444265 Z-1.000000 I4.824525 J-1.959970
G02 X18.877131 Y88.250778 Z-1.000000 I3.892817 J-2.672956
G01 X18.877131 Y88.250778 Z-1.000000
G00 Z5.000000

(End cutting path id: path3727)


(Start cutting path id: path3727)
(Change tool to Cylindrical cutter)

G00 Z5.000000
G00 X23.623094 Y88.101948

G01 Z-0.998000 F100.0(Penetrate)
G03 X21.342368 Y87.777030 Z-0.998000 I-0.000000 J-8.167105 F100.000000
G03 X19.927196 Y87.027078 Z-0.998000 I1.102330 J-3.790319
G03 X18.980071 Y85.782569 Z-0.998000 I2.162815 J-2.628652
G03 X18.620816 Y84.091858 Z-0.998000 I3.798749 J-1.690711
G03 X18.981576 Y82.385327 Z-0.998000 I4.216646 J-0.000000
G03 X19.927196 Y81.140108 Z-0.998000 I3.098463 J1.371312
G03 X21.340889 Y80.396227 Z-0.998000 I2.509939 J3.054708
G03 X23.623094 Y80.073498 Z-0.998000 I2.282205 J7.908042
G03 X25.924342 Y80.404758 Z-0.998000 I-0.000000 J8.158962
G03 X27.335529 Y81.164908 Z-0.998000 I-1.093807 J3.720588
G03 X28.266739 Y82.418141 Z-0.998000 I-2.255570 J2.648576
G03 X28.617104 Y84.091858 Z-0.998000 I-3.822550 J1.673717
G03 X28.266063 Y85.764472 Z-0.998000 I-4.160293 J-0.000000
G03 X27.335529 Y87.010548 Z-0.998000 I-3.154216 J-1.384993
G03 X25.924343 Y87.770691 Z-0.998000 I-2.504985 J-2.960455
G03 X23.623094 Y88.101948 Z-0.998000 I-2.301249 J-7.827780
G01 X23.623094 Y88.101948 Z-0.998000
G00 Z5.000000

(End cutting path id: path3727)


(Start cutting path id: path3727)
(Change tool to Cylindrical cutter)

G00 Z5.000000
G00 X23.623094 Y88.101948

G01 Z-1.000000 F100.0(Penetrate)
G03 X21.342368 Y87.777030 Z-1.000000 I-0.000000 J-8.167105 F100.000000
G03 X19.927196 Y87.027078 Z-1.000000 I1.102330 J-3.790319
G03 X18.980071 Y85.782569 Z-1.000000 I2.162815 J-2.628652
G03 X18.620816 Y84.091858 Z-1.000000 I3.798749 J-1.690711
G03 X18.981576 Y82.385327 Z-1.000000 I4.216646 J-0.000000
G03 X19.927196 Y81.140108 Z-1.000000 I3.098463 J1.371312
G03 X21.340889 Y80.396227 Z-1.000000 I2.509939 J3.054708
G03 X23.623094 Y80.073498 Z-1.000000 I2.282205 J7.908042
G03 X25.924342 Y80.404758 Z-1.000000 I-0.000000 J8.158962
G03 X27.335529 Y81.164908 Z-1.000000 I-1.093807 J3.720588
G03 X28.266739 Y82.418141 Z-1.000000 I-2.255570 J2.648576
G03 X28.617104 Y84.091858 Z-1.000000 I-3.822550 J1.673717
G03 X28.266063 Y85.764472 Z-1.000000 I-4.160293 J-0.000000
G03 X27.335529 Y87.010548 Z-1.000000 I-3.154216 J-1.384993
G03 X25.924343 Y87.770691 Z-1.000000 I-2.504985 J-2.960455
G03 X23.623094 Y88.101948 Z-1.000000 I-2.301249 J-7.827780
G01 X23.623094 Y88.101948 Z-1.000000
G00 Z5.000000

(End cutting path id: path3727)


(Start cutting path id: path3725)
(Change tool to Cylindrical cutter)

G00 Z5.000000
G00 X29.774656 Y75.749218

G01 Z-0.998000 F100.0(Penetrate)
G01 X29.774656 Y74.112108 Z-0.998000 F100.000000
G01 X19.166519 Y74.112108 Z-0.998000
G01 X26.384683 Y70.689068 Z-0.998000
G01 X26.384683 Y69.713408 Z-0.998000
G01 X19.166519 Y66.315168 Z-0.998000
G01 X29.774656 Y66.315168 Z-0.998000
G01 X29.774656 Y64.785548 Z-0.998000
G01 X17.463264 Y64.785548 Z-0.998000
G01 X17.463264 Y67.017968 Z-0.998000
G01 X24.317626 Y70.300458 Z-0.998000
G01 X17.463264 Y73.475458 Z-0.998000
G01 X17.463264 Y75.749218 Z-0.998000
G01 X29.774656 Y75.749218 Z-0.998000
G00 Z5.000000

(End cutting path id: path3725)


(Start cutting path id: path3725)
(Change tool to Cylindrical cutter)

G00 Z5.000000
G00 X29.774656 Y75.749218

G01 Z-1.000000 F100.0(Penetrate)
G01 X29.774656 Y74.112108 Z-1.000000 F100.000000
G01 X19.166519 Y74.112108 Z-1.000000
G01 X26.384683 Y70.689068 Z-1.000000
G01 X26.384683 Y69.713408 Z-1.000000
G01 X19.166519 Y66.315168 Z-1.000000
G01 X29.774656 Y66.315168 Z-1.000000
G01 X29.774656 Y64.785548 Z-1.000000
G01 X17.463264 Y64.785548 Z-1.000000
G01 X17.463264 Y67.017968 Z-1.000000
G01 X24.317626 Y70.300458 Z-1.000000
G01 X17.463264 Y73.475458 Z-1.000000
G01 X17.463264 Y75.749218 Z-1.000000
G01 X29.774656 Y75.749218 Z-1.000000
G00 Z5.000000

(End cutting path id: path3725)


(Start cutting path id: path3723)
(Change tool to Cylindrical cutter)

G00 Z5.000000
G00 X26.260659 Y62.156248

G01 Z-0.998000 F100.0(Penetrate)
G02 X26.961174 Y62.073909 Z-0.998000 I-0.000000 J-3.021064 F100.000000
G02 X27.682795 Y61.817248 Z-0.998000 I-0.825988 J-3.465097
G02 X28.331289 Y61.417329 Z-0.998000 I-1.441613 J-3.063418
G02 X28.873420 Y60.882938 Z-0.998000 I-2.086508 J-2.658912
G02 X29.334162 Y60.184129 Z-0.998000 I-3.563562 J-2.850839
G02 X29.700242 Y59.336778 Z-0.998000 I-4.893949 J-2.617080
G02 X29.912113 Y58.446178 Z-0.998000 I-4.625131 J-1.570807
G02 X29.997899 Y57.220118 Z-0.998000 I-8.718599 J-1.226060
G02 X29.929632 Y55.896762 Z-0.998000 I-12.860725 J-0.000000
G02 X29.749852 Y54.822328 Z-0.998000 I-8.645645 J0.894376
G02 X29.451069 Y53.781030 Z-0.998000 I-10.721998 J2.512978
G02 X29.013979 Y52.664318 Z-0.998000 I-12.772572 J4.355397
G01 X26.963459 Y52.664318 Z-0.998000
G01 X26.963459 Y52.780078 Z-0.998000
G03 X27.641545 Y53.770208 Z-0.998000 I-4.946906 J4.115122
G03 X28.162352 Y54.938088 Z-0.998000 I-6.386722 J3.548175
G03 X28.487721 Y56.177907 Z-0.998000 I-8.064318 J2.778940
G03 X28.584032 Y57.236648 Z-0.998000 I-5.771153 J1.058741
G03 X28.409469 Y58.704510 Z-0.998000 I-6.258760 J-0.000000
G03 X28.013524 Y59.601368 Z-0.998000 I-2.676173 J-0.645649
G03 X27.326813 Y60.235275 Z-0.998000 I-1.666493 J-1.116399
G03 X26.492170 Y60.452988 Z-0.998000 I-0.834643 J-1.491027
G03 X25.726919 Y60.327999 Z-0.998000 I-0.000000 J-2.405145
G03 X25.285008 Y60.047848 Z-0.998000 I0.348456 J-1.038264
G03 X24.972332 Y59.607920 Z-0.998000 I1.233376 J-1.207694
G03 X24.681428 Y58.832418 Z-0.998000 I3.641018 J-1.808122
G03 X24.535189 Y58.208349 Z-0.998000 I10.180031 J-2.714669
G03 X24.408576 Y57.484698 Z-0.998000 I13.564848 J-2.746265
G02 X24.290991 Y56.767142 Z-0.998000 I-25.506634 J3.811315
G02 X24.135724 Y55.955078 Z-0.998000 I-32.824612 J5.855220
G02 X23.608048 Y54.418858 Z-0.998000 I-6.536830 J1.386597
G02 X22.953368 Y53.524218 Z-0.998000 I-2.799097 J1.361464
G02 X22.023712 Y52.958010 Z-0.998000 I-1.841402 J1.977090
G02 X20.762287 Y52.738738 Z-0.998000 I-1.261425 J3.518721
G02 X19.383216 Y53.073761 Z-0.998000 I0.000000 J3.005882
G02 X18.232209 Y54.045118 Z-0.998000 I1.553178 J3.008053
G02 X17.520381 Y55.445894 Z-0.998000 I3.506401 J2.663088
G02 X17.240022 Y57.360678 Z-0.998000 I6.398573 J1.914784
G02 X17.307056 Y58.651210 Z-0.998000 I12.456139 J0.000000
G02 X17.488069 Y59.741928 Z-0.998000 I9.068931 J-0.944681
G02 X17.780299 Y60.810524 Z-0.998000 I12.914932 J-2.957602
G02 X18.099917 Y61.660158 Z-0.998000 I8.475147 J-2.703274
G01 X20.034683 Y61.660158 Z-0.998000
G01 X20.034683 Y61.544398 Z-0.998000
G03 X19.525466 Y60.792939 Z-0.998000 I3.236097 J-2.741160
G03 X19.050764 Y59.692318 Z-0.998000 I6.530304 J-3.469229
G03 X18.753425 Y58.534482 Z-0.998000 I6.779892 J-2.358214
G03 X18.653889 Y57.352408 Z-0.998000 I6.969312 J-1.182074
G03 X18.814362 Y56.087175 Z-0.998000 I5.068054 J0.000000
G03 X19.199592 Y55.235738 Z-0.998000 I2.635009 J0.679337
G03 X19.849746 Y54.640553 Z-0.998000 I1.612153 J1.108355
G03 X20.605191 Y54.441988 Z-0.998000 I0.755445 J1.337766
G03 X21.329415 Y54.557986 Z-0.998000 I0.000000 J2.318818
G03 X21.812352 Y54.838868 Z-0.998000 I-0.420195 J1.278077
G03 X22.151716 Y55.293808 Z-0.998000 I-0.988325 J1.091289
G03 X22.482079 Y56.236198 Z-0.998000 I-4.110106 J1.969935
G03 X22.589678 Y56.766940 Z-0.998000 I-17.246554 J3.772724
G03 X22.763199 Y57.741018 Z-0.998000 I-57.929251 J10.821939
G02 X22.945169 Y58.713141 Z-0.998000 I28.427044 J-4.818131
G02 X23.102196 Y59.394658 Z-0.998000 I14.124143 J-2.895456
G02 X23.607783 Y60.682833 Z-0.998000 I5.833330 J-1.546179
G02 X24.201870 Y61.461718 Z-0.998000 I2.669697 J-1.420276
G02 X25.018745 Y61.952412 Z-0.998000 I1.528876 J-1.619885
G02 X26.260659 Y62.156248 Z-0.998000 I1.241914 J-3.681395
G01 X26.260659 Y62.156248 Z-0.998000
G00 Z5.000000

(End cutting path id: path3723)


(Start cutting path id: path3723)
(Change tool to Cylindrical cutter)

G00 Z5.000000
G00 X26.260659 Y62.156248

G01 Z-1.000000 F100.0(Penetrate)
G02 X26.961174 Y62.073909 Z-1.000000 I-0.000000 J-3.021064 F100.000000
G02 X27.682795 Y61.817248 Z-1.000000 I-0.825988 J-3.465097
G02 X28.331289 Y61.417329 Z-1.000000 I-1.441613 J-3.063418
G02 X28.873420 Y60.882938 Z-1.000000 I-2.086508 J-2.658912
G02 X29.334162 Y60.184129 Z-1.000000 I-3.563562 J-2.850839
G02 X29.700242 Y59.336778 Z-1.000000 I-4.893949 J-2.617080
G02 X29.912113 Y58.446178 Z-1.000000 I-4.625131 J-1.570807
G02 X29.997899 Y57.220118 Z-1.000000 I-8.718599 J-1.226060
G02 X29.929632 Y55.896762 Z-1.000000 I-12.860725 J-0.000000
G02 X29.749852 Y54.822328 Z-1.000000 I-8.645645 J0.894376
G02 X29.451069 Y53.781030 Z-1.000000 I-10.721998 J2.512978
G02 X29.013979 Y52.664318 Z-1.000000 I-12.772572 J4.355397
G01 X26.963459 Y52.664318 Z-1.000000
G01 X26.963459 Y52.780078 Z-1.000000
G03 X27.641545 Y53.770208 Z-1.000000 I-4.946906 J4.115122
G03 X28.162352 Y54.938088 Z-1.000000 I-6.386722 J3.548175
G03 X28.487721 Y56.177907 Z-1.000000 I-8.064318 J2.778940
G03 X28.584032 Y57.236648 Z-1.000000 I-5.771153 J1.058741
G03 X28.409469 Y58.704510 Z-1.000000 I-6.258760 J-0.000000
G03 X28.013524 Y59.601368 Z-1.000000 I-2.676173 J-0.645649
G03 X27.326813 Y60.235275 Z-1.000000 I-1.666493 J-1.116399
G03 X26.492170 Y60.452988 Z-1.000000 I-0.834643 J-1.491027
G03 X25.726919 Y60.327999 Z-1.000000 I-0.000000 J-2.405145
G03 X25.285008 Y60.047848 Z-1.000000 I0.348456 J-1.038264
G03 X24.972332 Y59.607920 Z-1.000000 I1.233376 J-1.207694
G03 X24.681428 Y58.832418 Z-1.000000 I3.641018 J-1.808122
G03 X24.535189 Y58.208349 Z-1.000000 I10.180031 J-2.714669
G03 X24.408576 Y57.484698 Z-1.000000 I13.564848 J-2.746265
G02 X24.290991 Y56.767142 Z-1.000000 I-25.506634 J3.811315
G02 X24.135724 Y55.955078 Z-1.000000 I-32.824612 J5.855220
G02 X23.608048 Y54.418858 Z-1.000000 I-6.536830 J1.386597
G02 X22.953368 Y53.524218 Z-1.000000 I-2.799097 J1.361464
G02 X22.023712 Y52.958010 Z-1.000000 I-1.841402 J1.977090
G02 X20.762287 Y52.738738 Z-1.000000 I-1.261425 J3.518721
G02 X19.383216 Y53.073761 Z-1.000000 I0.000000 J3.005882
G02 X18.232209 Y54.045118 Z-1.000000 I1.553178 J3.008053
G02 X17.520381 Y55.445894 Z-1.000000 I3.506401 J2.663088
G02 X17.240022 Y57.360678 Z-1.000000 I6.398573 J1.914784
G02 X17.307056 Y58.651210 Z-1.000000 I12.456139 J0.000000
G02 X17.488069 Y59.741928 Z-1.000000 I9.068931 J-0.944681
G02 X17.780299 Y60.810524 Z-1.000000 I12.914932 J-2.957602
G02 X18.099917 Y61.660158 Z-1.000000 I8.475147 J-2.703274
G01 X20.034683 Y61.660158 Z-1.000000
G01 X20.034683 Y61.544398 Z-1.000000
G03 X19.525466 Y60.792939 Z-1.000000 I3.236097 J-2.741160
G03 X19.050764 Y59.692318 Z-1.000000 I6.530304 J-3.469229
G03 X18.753425 Y58.534482 Z-1.000000 I6.779892 J-2.358214
G03 X18.653889 Y57.352408 Z-1.000000 I6.969312 J-1.182074
G03 X18.814362 Y56.087175 Z-1.000000 I5.068054 J0.000000
G03 X19.199592 Y55.235738 Z-1.000000 I2.635009 J0.679337
G03 X19.849746 Y54.640553 Z-1.000000 I1.612153 J1.108355
G03 X20.605191 Y54.441988 Z-1.000000 I0.755445 J1.337766
G03 X21.329415 Y54.557986 Z-1.000000 I0.000000 J2.318818
G03 X21.812352 Y54.838868 Z-1.000000 I-0.420195 J1.278077
G03 X22.151716 Y55.293808 Z-1.000000 I-0.988325 J1.091289
G03 X22.482079 Y56.236198 Z-1.000000 I-4.110106 J1.969935
G03 X22.589678 Y56.766940 Z-1.000000 I-17.246554 J3.772724
G03 X22.763199 Y57.741018 Z-1.000000 I-57.929251 J10.821939
G02 X22.945169 Y58.713141 Z-1.000000 I28.427044 J-4.818131
G02 X23.102196 Y59.394658 Z-1.000000 I14.124143 J-2.895456
G02 X23.607783 Y60.682833 Z-1.000000 I5.833330 J-1.546179
G02 X24.201870 Y61.461718 Z-1.000000 I2.669697 J-1.420276
G02 X25.018745 Y61.952412 Z-1.000000 I1.528876 J-1.619885
G02 X26.260659 Y62.156248 Z-1.000000 I1.241914 J-3.681395
G01 X26.260659 Y62.156248 Z-1.000000
G00 Z5.000000

(End cutting path id: path3723)


(Start cutting path id: path3721)
(Change tool to Cylindrical cutter)

G00 Z5.000000
G00 X29.774656 Y51.341408

G01 Z-0.998000 F100.0(Penetrate)
G01 X29.774656 Y49.596808 Z-0.998000 F100.000000
G01 X26.343342 Y48.389648 Z-0.998000
G01 X26.343342 Y43.064908 Z-0.998000
G01 X29.774656 Y41.857748 Z-0.998000
G01 X29.774656 Y40.195838 Z-0.998000
G01 X17.463264 Y44.677218 Z-0.998000
G01 X17.463264 Y46.860028 Z-0.998000
G01 X29.774656 Y51.341408 Z-0.998000
G00 Z5.000000

(End cutting path id: path3721)


(Start cutting path id: path3721)
(Change tool to Cylindrical cutter)

G00 Z5.000000
G00 X29.774656 Y51.341408

G01 Z-1.000000 F100.0(Penetrate)
G01 X29.774656 Y49.596808 Z-1.000000 F100.000000
G01 X26.343342 Y48.389648 Z-1.000000
G01 X26.343342 Y43.064908 Z-1.000000
G01 X29.774656 Y41.857748 Z-1.000000
G01 X29.774656 Y40.195838 Z-1.000000
G01 X17.463264 Y44.677218 Z-1.000000
G01 X17.463264 Y46.860028 Z-1.000000
G01 X29.774656 Y51.341408 Z-1.000000
G00 Z5.000000

(End cutting path id: path3721)


(Start cutting path id: path3721)
(Change tool to Cylindrical cutter)

G00 Z5.000000
G00 X24.937743 Y47.885288

G01 Z-0.998000 F100.0(Penetrate)
G01 X18.893667 Y45.727278 Z-0.998000 F100.000000
G01 X24.937743 Y43.560998 Z-0.998000
G01 X24.937743 Y47.885288 Z-0.998000
G00 Z5.000000

(End cutting path id: path3721)


(Start cutting path id: path3721)
(Change tool to Cylindrical cutter)

G00 Z5.000000
G00 X24.937743 Y47.885288

G01 Z-1.000000 F100.0(Penetrate)
G01 X18.893667 Y45.727278 Z-1.000000 F100.000000
G01 X24.937743 Y43.560998 Z-1.000000
G01 X24.937743 Y47.885288 Z-1.000000
G00 Z5.000000

(End cutting path id: path3721)


(Start cutting path id: path3719)
(Change tool to Cylindrical cutter)

G00 Z5.000000
G00 X29.774656 Y40.047008

G01 Z-0.998000 F100.0(Penetrate)
G01 X29.774656 Y37.922068 Z-0.998000 F100.000000
G01 X24.879865 Y33.804488 Z-0.998000
G01 X24.879865 Y31.497658 Z-0.998000
G01 X29.774656 Y31.497658 Z-0.998000
G01 X29.774656 Y29.860548 Z-0.998000
G01 X17.463264 Y29.860548 Z-0.998000
G01 X17.463264 Y33.308398 Z-0.998000
G02 X17.507666 Y34.420211 Z-0.998000 I13.942069 J-0.000000
G02 X17.612092 Y35.168748 Z-0.998000 I6.411849 J-0.512948
G02 X17.815928 Y35.888153 Z-0.998000 I4.114108 J-0.777111
G02 X18.124722 Y36.508208 Z-0.998000 I3.355854 J-1.284332
G02 X18.611299 Y37.110473 Z-0.998000 I2.791693 J-1.757751
G02 X19.191324 Y37.549998 Z-0.998000 I2.036456 J-2.084957
G02 X19.858439 Y37.819952 Z-0.998000 I1.203129 J-2.013923
G02 X20.811897 Y37.930338 Z-0.998000 I0.953458 J-4.062546
G02 X22.081428 Y37.744009 Z-0.998000 I0.000000 J-4.418076
G02 X23.044318 Y37.260608 Z-0.998000 I-0.895098 J-2.983644
G02 X23.804919 Y36.490592 Z-0.998000 I-2.201141 J-2.934884
G02 X24.392040 Y35.416798 Z-0.998000 I-3.786737 J-2.767893
G01 X29.774656 Y40.047008 Z-0.998000
G00 Z5.000000

(End cutting path id: path3719)


(Start cutting path id: path3719)
(Change tool to Cylindrical cutter)

G00 Z5.000000
G00 X29.774656 Y40.047008

G01 Z-1.000000 F100.0(Penetrate)
G01 X29.774656 Y37.922068 Z-1.000000 F100.000000
G01 X24.879865 Y33.804488 Z-1.000000
G01 X24.879865 Y31.497658 Z-1.000000
G01 X29.774656 Y31.497658 Z-1.000000
G01 X29.774656 Y29.860548 Z-1.000000
G01 X17.463264 Y29.860548 Z-1.000000
G01 X17.463264 Y33.308398 Z-1.000000
G02 X17.507666 Y34.420211 Z-1.000000 I13.942069 J-0.000000
G02 X17.612092 Y35.168748 Z-1.000000 I6.411849 J-0.512948
G02 X17.815928 Y35.888153 Z-1.000000 I4.114108 J-0.777111
G02 X18.124722 Y36.508208 Z-1.000000 I3.355854 J-1.284332
G02 X18.611299 Y37.110473 Z-1.000000 I2.791693 J-1.757751
G02 X19.191324 Y37.549998 Z-1.000000 I2.036456 J-2.084957
G02 X19.858439 Y37.819952 Z-1.000000 I1.203129 J-2.013923
G02 X20.811897 Y37.930338 Z-1.000000 I0.953458 J-4.062546
G02 X22.081428 Y37.744009 Z-1.000000 I0.000000 J-4.418076
G02 X23.044318 Y37.260608 Z-1.000000 I-0.895098 J-2.983644
G02 X23.804919 Y36.490592 Z-1.000000 I-2.201141 J-2.934884
G02 X24.392040 Y35.416798 Z-1.000000 I-3.786737 J-2.767893
G01 X29.774656 Y40.047008 Z-1.000000
G00 Z5.000000

(End cutting path id: path3719)


(Start cutting path id: path3719)
(Change tool to Cylindrical cutter)

G00 Z5.000000
G00 X20.927652 Y36.218818

G01 Z-0.998000 F100.0(Penetrate)
G03 X20.410112 Y36.166682 Z-0.998000 I-0.000000 J-2.594821 F100.000000
G03 X19.993342 Y36.028648 Z-0.998000 I0.368696 J-1.811411
G03 X19.625091 Y35.793468 Z-0.998000 I0.574180 J-1.304964
G03 X19.298811 Y35.416798 Z-0.998000 I1.225880 J-1.391536
G03 X19.102717 Y35.043370 Z-0.998000 I1.595374 J-1.075963
G03 X18.968082 Y34.573438 Z-0.998000 I2.406364 J-0.943671
G03 X18.897238 Y34.082752 Z-0.998000 I4.244064 J-0.863202
G03 X18.868862 Y33.424158 Z-0.998000 I7.628587 J-0.658594
G01 X18.868862 Y31.497658 Z-0.998000
G01 X23.515606 Y31.497658 Z-0.998000
G01 X23.515606 Y33.151298 Z-0.998000
G03 X23.477989 Y33.924274 Z-0.998000 I-7.960660 J0.000000
G03 X23.383315 Y34.507288 Z-0.998000 I-4.615252 J-0.450266
G03 X23.178772 Y35.051894 Z-0.998000 I-2.341066 J-0.568541
G03 X22.870684 Y35.491208 Z-0.998000 I-1.817598 J-0.946985
G03 X22.492220 Y35.817220 Z-0.998000 I-1.681714 J-1.569599
G03 X22.076935 Y36.036918 Z-0.998000 I-1.152879 J-1.676891
G03 X21.611820 Y36.165010 Z-0.998000 I-0.803204 J-2.008023
G03 X20.927652 Y36.218818 Z-0.998000 I-0.684168 J-4.322717
G01 X20.927652 Y36.218818 Z-0.998000
G00 Z5.000000

(End cutting path id: path3719)


(Start cutting path id: path3719)
(Change tool to Cylindrical cutter)

G00 Z5.000000
G00 X20.927652 Y36.218818

G01 Z-1.000000 F100.0(Penetrate)
G03 X20.410112 Y36.166682 Z-1.000000 I-0.000000 J-2.594821 F100.000000
G03 X19.993342 Y36.028648 Z-1.000000 I0.368696 J-1.811411
G03 X19.625091 Y35.793468 Z-1.000000 I0.574180 J-1.304964
G03 X19.298811 Y35.416798 Z-1.000000 I1.225880 J-1.391536
G03 X19.102717 Y35.043370 Z-1.000000 I1.595374 J-1.075963
G03 X18.968082 Y34.573438 Z-1.000000 I2.406364 J-0.943671
G03 X18.897238 Y34.082752 Z-1.000000 I4.244064 J-0.863202
G03 X18.868862 Y33.424158 Z-1.000000 I7.628587 J-0.658594
G01 X18.868862 Y31.497658 Z-1.000000
G01 X23.515606 Y31.497658 Z-1.000000
G01 X23.515606 Y33.151298 Z-1.000000
G03 X23.477989 Y33.924274 Z-1.000000 I-7.960660 J0.000000
G03 X23.383315 Y34.507288 Z-1.000000 I-4.615252 J-0.450266
G03 X23.178772 Y35.051894 Z-1.000000 I-2.341066 J-0.568541
G03 X22.870684 Y35.491208 Z-1.000000 I-1.817598 J-0.946985
G03 X22.492220 Y35.817220 Z-1.000000 I-1.681714 J-1.569599
G03 X22.076935 Y36.036918 Z-1.000000 I-1.152879 J-1.676891
G03 X21.611820 Y36.165010 Z-1.000000 I-0.803204 J-2.008023
G03 X20.927652 Y36.218818 Z-1.000000 I-0.684168 J-4.322717
G01 X20.927652 Y36.218818 Z-1.000000
G00 Z5.000000

(End cutting path id: path3719)


(Start cutting path id: path3717)
(Change tool to Cylindrical cutter)

G00 Z5.000000
G00 X29.774656 Y27.256058

G01 Z-0.998000 F100.0(Penetrate)
G01 X29.774656 Y19.144918 Z-0.998000 F100.000000
G01 X17.463264 Y19.144918 Z-0.998000
G01 X17.463264 Y27.256058 Z-0.998000
G01 X18.918472 Y27.256058 Z-0.998000
G01 X18.918472 Y20.782028 Z-0.998000
G01 X22.291909 Y20.782028 Z-0.998000
G01 X22.291909 Y27.256058 Z-0.998000
G01 X23.747118 Y27.256058 Z-0.998000
G01 X23.747118 Y20.782028 Z-0.998000
G01 X28.319448 Y20.782028 Z-0.998000
G01 X28.319448 Y27.256058 Z-0.998000
G01 X29.774656 Y27.256058 Z-0.998000
G00 Z5.000000

(End cutting path id: path3717)


(Start cutting path id: path3717)
(Change tool to Cylindrical cutter)

G00 Z5.000000
G00 X29.774656 Y27.256058

G01 Z-1.000000 F100.0(Penetrate)
G01 X29.774656 Y19.144918 Z-1.000000 F100.000000
G01 X17.463264 Y19.144918 Z-1.000000
G01 X17.463264 Y27.256058 Z-1.000000
G01 X18.918472 Y27.256058 Z-1.000000
G01 X18.918472 Y20.782028 Z-1.000000
G01 X22.291909 Y20.782028 Z-1.000000
G01 X22.291909 Y27.256058 Z-1.000000
G01 X23.747118 Y27.256058 Z-1.000000
G01 X23.747118 Y20.782028 Z-1.000000
G01 X28.319448 Y20.782028 Z-1.000000
G01 X28.319448 Y27.256058 Z-1.000000
G01 X29.774656 Y27.256058 Z-1.000000
G00 Z5.000000

(End cutting path id: path3717)


(Footer)
M5
G00 X0.0000 Y0.0000
M2
(Using default footer. To add your own footer create file "footer" in the output dir.)
(end)
%