%
(Header)
(Generated by gcodetools from Inkscape.)
(Using default header. To add your own header create file "header" in the output dir.)
M3
(Header end.)
G21 (All units in mm)

(Start cutting path id: path6759)
(Change tool to Cylindrical cutter)

G00 Z5.000000
G00 X42.318359 Y157.912110

G01 Z-0.998000 F100.0(Penetrate)
G03 X42.119763 Y157.565372 Z-0.998000 I0.220272 J-0.356405 F100.000000
G03 X42.222659 Y153.738280 Z-0.998000 I38.326818 J-0.884463
G02 X42.333338 Y149.986377 Z-0.998000 I-39.542821 J-3.044077
G02 X42.152349 Y149.808590 Z-0.998000 I-0.180989 J0.003231
G02 X41.788071 Y149.860265 Z-0.998000 I0.000000 J1.309801
G02 X39.851567 Y150.474610 Z-0.998000 I11.137811 J38.467249
G03 X34.530996 Y151.511436 Z-0.998000 I-6.336179 J-18.344783
G03 X31.853521 Y150.894530 Z-0.998000 I-0.261220 J-4.985058
G02 X31.196185 Y150.604255 Z-0.998000 I-1.947327 J3.520358
G02 X29.156255 Y149.980470 Z-0.998000 I-11.533434 J34.069747
G03 X24.434789 Y147.860363 Z-0.998000 I4.425427 J-16.172793
G03 X23.636724 Y146.388670 Z-0.998000 I0.957925 J-1.471693
G03 X23.799349 Y146.041655 Z-0.998000 I0.451549 J-0.000000
G03 X25.023443 Y145.234380 Z-0.998000 I4.224001 J5.073269
G02 X26.496702 Y144.208353 Z-0.998000 I-2.996174 J-5.872902
G02 X26.550454 Y143.724918 Z-0.998000 I-0.251429 J-0.272662
G02 X26.002304 Y143.301803 Z-0.998000 I-0.936785 J0.646993
G02 X23.068364 Y142.402340 Z-0.998000 I-10.297222 J28.353471
G03 X20.511430 Y141.319361 Z-0.998000 I2.208755 J-8.774889
G03 X18.085943 Y139.316410 Z-0.998000 I6.128226 J-9.891071
G02 X15.879385 Y136.938344 Z-0.998000 I-388.969098 J358.703654
G02 X13.388677 Y134.285160 Z-0.998000 I-483.546983 J451.439727
G03 X11.090224 Y131.505196 Z-0.998000 I19.974194 J-18.854661
G03 X9.826177 Y129.347660 Z-0.998000 I10.666721 J-7.698425
G03 X7.857857 Y124.020093 Z-0.998000 I31.879988 J-14.805753
G03 X6.861333 Y118.763670 Z-0.998000 I30.105632 J-8.430163
G02 X6.592328 Y116.835361 Z-0.998000 I-26.238271 J2.677403
G02 X6.017583 Y114.001950 Z-0.998000 I-57.858530 J10.261349
G03 X5.416483 Y111.170586 Z-0.998000 I90.803388 J-20.757099
G03 X5.130864 Y109.482420 Z-0.998000 I32.245918 J-6.323889
G02 X4.024518 Y106.074361 Z-0.998000 I-10.342247 J1.473763
G02 X1.578130 Y102.759770 Z-0.998000 I-12.220237 J6.459253
G03 X0.158493 Y101.115682 Z-0.998000 I10.510608 J-10.510657
G03 X0.000000 Y100.636720 Z-0.998000 I0.644459 J-0.478962
G03 X0.593068 Y99.789233 Z-0.998000 I0.902058 J0.000000
G03 X3.257812 Y99.449220 Z-0.998000 I2.083077 J5.713396
G02 X4.120696 Y98.821044 Z-0.998000 I0.076965 J-0.801008
G02 X4.052734 Y95.833980 Z-0.998000 I-6.157954 J-1.354200
G03 X3.524405 Y91.345450 Z-0.998000 I15.127016 J-4.055907
G03 X4.371094 Y84.314450 Z-0.998000 I38.436866 J1.062172
G02 X5.026886 Y80.178836 Z-0.998000 I-37.367442 J-8.045226
G02 X5.472656 Y73.607420 Z-0.998000 I-94.344699 J-9.700679
G03 X5.719184 Y69.096032 Z-0.998000 I104.581155 J3.452484
G03 X6.047442 Y68.059886 Z-0.998000 I2.370589 J0.180947
G03 X6.797390 Y67.694543 Z-0.998000 I0.653760 J0.389597
G03 X8.726562 Y68.144530 Z-0.998000 I-1.224324 J9.609225
G01 X10.759766 Y68.845700 Z-0.998000
G01 X13.117188 Y65.773440 Z-0.998000
G02 X16.006909 Y61.070403 Z-0.998000 I-21.143586 J-16.230701
G02 X17.308594 Y57.035160 Z-0.998000 I-14.181603 J-6.802258
G01 X17.765625 Y54.482420 Z-0.998000
G01 X19.736328 Y54.625000 Z-0.998000
G03 X22.575645 Y55.282506 Z-0.998000 I-0.679465 J9.393434
G03 X27.431641 Y57.724610 Z-0.998000 I-12.239754 J30.387102
G01 X28.580078 Y58.427730 Z-0.998000
G01 X30.076172 Y56.771480 Z-0.998000
G03 X33.105211 Y53.603366 Z-0.998000 I58.539827 J52.937948
G03 X36.662109 Y50.255860 Z-0.998000 I68.755489 J69.492794
G01 X38.906250 Y48.248050 Z-0.998000
G01 X38.720703 Y46.197270 Z-0.998000
G02 X38.360805 Y44.192524 Z-0.998000 I-11.645802 J1.056011
G02 X37.585938 Y42.017580 Z-0.998000 I-14.406129 J3.906968
G02 X36.398700 Y40.108058 Z-0.998000 I-7.540033 J3.364146
G02 X35.162109 Y39.095700 Z-0.998000 I-3.223163 J2.675655
G03 X29.743264 Y34.202468 Z-0.998000 I7.271813 J-13.499997
G03 X27.294922 Y27.496090 Z-0.998000 I12.136249 J-8.230767
G03 X27.356157 Y25.411745 Z-0.998000 I7.789915 J-0.814216
G03 X27.966797 Y23.410160 Z-0.998000 I7.772851 J1.277388
G03 X29.026273 Y21.574879 Z-0.998000 I10.241031 J4.688524
G03 X30.248047 Y20.201170 Z-0.998000 I6.877729 J4.886859
G03 X37.649715 Y15.350228 Z-0.998000 I19.268102 J21.327391
G03 X43.953125 Y13.988280 Z-0.998000 I6.303410 J13.905842
G02 X44.683382 Y13.793331 Z-0.998000 I0.000000 J-1.465207
G02 X45.027344 Y13.371090 Z-0.998000 I-0.379753 J-0.660569
G03 X46.917634 Y8.894518 Z-0.998000 I28.371455 J9.342824
G03 X48.248047 Y7.199220 Z-0.998000 I5.209713 J2.718728
G03 X50.191436 Y5.958060 Z-0.998000 I5.005410 J5.695349
G03 X53.623047 Y4.826170 Z-0.998000 I7.525736 J17.048327
G02 X55.550611 Y4.343695 Z-0.998000 I-9.186734 J-40.794154
G02 X58.367188 Y3.517580 Z-0.998000 I-23.965317 J-86.922463
G03 X67.040786 Y2.357068 Z-0.998000 I7.746323 J24.902316
G03 X74.191406 Y4.080080 Z-0.998000 I-0.655316 J18.418895
G02 X76.530049 Y5.135513 Z-0.998000 I40.525825 J-86.678970
G02 X76.695312 Y5.169920 Z-0.998000 I0.165263 J-0.379690
G03 X78.069695 Y5.769535 Z-0.998000 I-0.000000 J1.874924
G03 X78.669922 Y7.298830 Z-0.998000 I-1.648100 J1.529295
G02 X78.763821 Y7.734254 Z-0.998000 I1.056517 J0.000000
G02 X79.728516 Y9.636720 Z-0.998000 I21.844039 J-9.880773
G03 X80.646280 Y11.563426 Z-0.998000 I-13.427529 J7.577983
G03 X80.990234 Y12.839840 Z-0.998000 I-5.499387 J2.166464
G02 X81.216288 Y14.160765 Z-0.998000 I36.124563 J-5.502296
G02 X81.509766 Y15.576170 Z-0.998000 I42.725528 J-8.120831
G03 X81.707522 Y17.000657 Z-0.998000 I-8.449356 J1.898963
G03 X81.835938 Y21.529300 Z-0.998000 I-85.467389 J4.689685
G01 X81.843738 Y26.072270 Z-0.998000
G01 X82.972644 Y25.845700 Z-0.998000
G03 X84.104632 Y25.648317 Z-0.998000 I4.548135 J22.738767
G03 X85.921863 Y25.406250 Z-0.998000 I8.753059 J58.768406
G01 X87.744129 Y25.191410 Z-0.998000
G01 X87.218738 Y24.136720 Z-0.998000
G03 X86.660084 Y21.232113 Z-0.998000 I4.913162 J-2.450994
G03 X87.787097 Y17.271480 Z-0.998000 I10.615544 J0.880027
G03 X92.550927 Y12.566181 Z-0.998000 I9.485225 J4.839021
G03 X101.554678 Y10.460940 Z-0.998000 I9.003751 J18.201121
G01 X103.583968 Y10.460940 Z-0.998000
G01 X104.230458 Y8.296880 Z-0.998000
G03 X105.970305 Y5.053907 Z-0.998000 I8.812826 J2.639860
G03 X108.806628 Y2.792970 Z-0.998000 I6.882298 J5.724237
G03 X110.669888 Y2.163742 Z-0.998000 I3.111970 J6.141777
G03 X114.880848 Y1.673830 Z-0.998000 I5.780852 J31.346091
G02 X119.074264 Y1.236173 Z-0.998000 I-1.898690 J-38.500804
G02 X119.820298 Y0.882810 Z-0.998000 I-0.233086 J-1.456310
G03 X120.517418 Y0.383294 Z-0.998000 I2.736021 J3.082162
G03 X121.179678 Y0.107420 Z-0.998000 I1.448701 J2.544891
G03 X121.896828 Y0.004609 Z-0.998000 I0.753223 J2.701440
G03 X126.753898 Y0.037120 Z-0.998000 I1.597435 J124.181914
G03 X131.546417 Y0.478030 Z-0.998000 I-0.964546 J36.751060
G03 X133.562488 Y1.115240 Z-0.998000 I-1.116056 J7.039031
G03 X136.970610 Y4.367945 Z-0.998000 I-3.425033 J7.000519
G03 X139.541008 Y12.015630 Z-0.998000 I-20.039231 J10.991014
G03 X139.648366 Y13.752375 Z-0.998000 I-10.129235 J1.497833
G03 X139.337878 Y20.708990 Z-0.998000 I-163.679706 J-3.820115
G02 X139.205398 Y27.652537 Z-0.998000 I74.069440 J4.886248
G02 X139.640608 Y31.638680 Z-0.998000 I24.760055 J-0.686490
G02 X140.521214 Y35.563128 Z-0.998000 I63.807116 J-12.256647
G02 X140.933578 Y36.667980 Z-0.998000 I5.421616 J-1.394129
G03 X141.802642 Y40.386900 Z-0.998000 I-7.395561 J3.689253
G03 X140.910178 Y43.199230 Z-0.998000 I-4.933137 J-0.017709
G03 X140.245151 Y43.863343 Z-0.998000 I-2.209949 J-1.547964
G03 X138.277358 Y45.039070 Z-0.998000 I-9.239810 J-13.229904
G02 X136.333168 Y46.227833 Z-0.998000 I6.321698 J12.523191
G02 X135.750018 Y46.882820 Z-0.998000 I1.220795 J1.673990
G02 X135.502977 Y47.732038 Z-0.998000 I1.680846 J0.949506
G02 X135.250018 Y56.498060 Z-0.998000 I189.383565 J9.851660
G03 X135.167280 Y65.316028 Z-0.998000 I-1200.690084 J-6.856560
G03 X135.125018 Y66.023450 Z-0.998000 I-7.603520 J-0.099268
G03 X134.047834 Y71.353926 Z-0.998000 I-29.048155 J-3.095984
G03 X132.626968 Y74.314460 Z-0.998000 I-10.192784 J-3.070651
G02 X132.076612 Y75.226936 Z-0.998000 I7.371790 J5.068476
G02 X131.451188 Y76.558600 Z-0.998000 I14.789924 J7.758873
G01 X130.882828 Y77.921890 Z-0.998000
G01 X132.748068 Y79.816420 Z-0.998000
G03 X137.876896 Y87.123640 Z-0.998000 I-19.318550 J19.012934
G03 X139.347678 Y93.601570 Z-0.998000 I-13.528075 J6.477414
G03 X138.398639 Y99.901652 Z-0.998000 I-21.390697 J-0.000755
G03 X135.515638 Y106.033210 Z-0.998000 I-23.114752 J-7.124779
G02 X135.185601 Y106.950509 Z-0.998000 I1.753299 J1.148844
G02 X135.029318 Y110.416030 Z-0.998000 I26.289559 J2.921856
G03 X134.283765 Y115.012905 Z-0.998000 I-12.909349 J0.265170
G03 X132.064468 Y118.742200 Z-0.998000 I-10.565564 J-3.762552
G03 X130.410354 Y120.068018 Z-0.998000 I-4.842356 J-4.346648
G03 X127.478538 Y121.318370 Z-0.998000 I-7.182388 J-12.778787
G03 X124.318365 Y122.081179 Z-0.998000 I-8.224908 J-27.146839
G03 X120.296898 Y122.623060 Z-0.998000 I-7.951551 J-43.817692
G02 X116.402272 Y123.301060 Z-0.998000 I2.079243 J23.468706
G02 X115.447288 Y123.892590 Z-0.998000 I0.484697 J1.849152
G02 X114.798092 Y124.854844 Z-0.998000 I3.520003 J3.074932
G02 X114.652358 Y125.464850 Z-0.998000 I1.203797 J0.610006
G03 X114.537498 Y126.065296 Z-0.998000 I-1.626884 J0.000000
G03 X114.300798 Y126.347670 Z-0.998000 I-0.544944 J-0.216405
G02 X114.065140 Y126.631235 Z-0.998000 I0.304604 J0.492848
G02 X113.947288 Y127.261730 Z-0.998000 I1.627616 J0.630495
G03 X113.791698 Y127.851001 Z-0.998000 I-1.193678 J0.000000
G03 X113.441428 Y128.152350 Z-0.998000 I-0.595674 J-0.338134
G03 X111.724685 Y127.930483 Z-0.998000 I-0.652840 J-1.701277
G03 X109.468768 Y125.294930 Z-0.998000 I4.271019 J-5.939064
G03 X109.110446 Y124.585208 Z-0.998000 I349.209662 J-176.752935
G03 X108.044938 Y122.468760 Z-0.998000 I8267.032609 J-4163.295496
G03 X106.495172 Y117.936782 Z-0.998000 I15.689499 J-7.896189
G03 X106.369158 Y113.878920 Z-0.998000 I12.376374 J-2.415227
G02 X106.583947 Y112.237177 Z-0.998000 I-1477.020462 J-194.072835
G02 X106.744158 Y111.001960 Z-0.998000 I-1118.377878 J-145.685064
G03 X107.844233 Y107.248339 Z-0.998000 I12.430131 J1.604892
G03 X110.666038 Y102.708990 Z-0.998000 I21.163724 J10.009315
G03 X112.964569 Y100.697594 Z-0.998000 I6.634000 J5.262005
G03 X116.818378 Y99.042980 Z-0.998000 I8.158851 J13.687697
G03 X121.812683 Y98.383807 Z-0.998000 I4.796982 J17.095358
G03 X127.046898 Y99.156260 Z-0.998000 I-0.217786 J19.595734
G02 X129.966951 Y99.902030 Z-0.998000 I13.152463 J-45.408699
G02 X130.160178 Y99.845710 Z-0.998000 I0.045285 J-0.204262
G02 X130.252546 Y99.648771 Z-0.998000 I-0.226241 J-0.226241
G02 X130.414078 Y97.068370 Z-0.998000 I-44.103944 J-4.056153
G02 X130.071364 Y94.591471 Z-0.998000 I-7.349520 J-0.245251
G02 X128.908218 Y92.337900 Z-0.998000 I-7.220062 J2.299570
G02 X125.667954 Y89.252610 Z-0.998000 I-10.867552 J8.169273
G02 X122.337908 Y87.886730 Z-0.998000 I-4.927290 J7.270539
G02 X121.060299 Y87.893764 Z-0.998000 I-0.620357 J3.354330
G02 X119.337908 Y88.474620 Z-0.998000 I1.336760 J6.807938
G03 X117.582634 Y89.026963 Z-0.998000 I-2.683304 J-5.461999
G03 X113.144548 Y89.429700 Z-0.998000 I-5.431706 J-35.201604
G03 X106.222325 Y88.656934 Z-0.998000 I-0.700850 J-25.112042
G03 X94.720721 Y84.720710 Z-0.998000 I18.957404 J-74.165222
G02 X93.652213 Y84.288661 Z-0.998000 I-9.178763 J21.162856
G02 X92.429706 Y83.861340 Z-0.998000 I-9.901077 J26.363267
G02 X86.705718 Y82.667426 Z-0.998000 I-8.385620 J25.884996
G02 X86.078143 Y83.236340 Z-0.998000 I-0.055919 J0.568914
G02 X86.099884 Y83.440059 Z-0.998000 I0.965338 J0.000000
G02 X86.642596 Y85.845710 Z-0.998000 I130.266668 J-28.123983
G03 X87.083317 Y89.769423 Z-0.998000 I-16.149417 J3.800550
G03 X86.580096 Y94.093760 Z-0.998000 I-20.115066 J-0.149332
G02 X86.754228 Y94.777156 Z-0.998000 I0.753505 J0.171886
G02 X87.740252 Y95.408210 Z-0.998000 I1.597711 J-1.410568
G03 X89.045731 Y95.942743 Z-0.998000 I-2.078752 J6.938341
G03 X90.822284 Y97.037120 Z-0.998000 I-7.397331 J13.997591
G01 X92.539080 Y98.257820 Z-0.998000
G01 X90.896502 Y99.855480 Z-0.998000
G02 X89.408420 Y101.516828 Z-0.998000 I11.238437 J11.563469
G02 X89.251971 Y101.972670 Z-0.998000 I0.585863 J0.455842
G03 X89.153853 Y102.468309 Z-0.998000 I-1.300914 J-0.000000
G03 X88.531268 Y103.718760 Z-0.998000 I-9.091690 J-3.746436
G02 X87.080385 Y107.056391 Z-0.998000 I12.775424 J7.537701
G02 X85.906268 Y112.613290 Z-0.998000 I34.577054 J10.208274
G03 X84.550829 Y119.454783 Z-0.998000 I-52.265651 J-6.799870
G03 X82.966815 Y123.578130 Z-0.998000 I-20.359443 J-5.455301
G03 X82.160453 Y124.973305 Z-0.998000 I-13.723329 J-7.000992
G03 X81.345721 Y126.072280 Z-0.998000 I-9.321683 J-6.059194
G02 X80.616502 Y127.200732 Z-0.998000 I4.096894 J3.447301
G02 X80.126971 Y128.609390 Z-0.998000 I5.936883 J2.852552
G03 X78.891542 Y131.328818 Z-0.998000 I-7.144002 J-1.605161
G03 X75.982440 Y134.273450 Z-0.998000 I-11.363784 J-8.317353
G02 X73.961521 Y135.895334 Z-0.998000 I24.069627 J32.061522
G02 X72.671893 Y137.109390 Z-0.998000 I12.370025 J14.432012
G03 X71.375315 Y138.312066 Z-0.998000 I-11.777713 J-11.397050
G03 X69.779315 Y139.515630 Z-0.998000 I-13.394767 J-16.102301
G02 X68.176486 Y140.696389 Z-0.998000 I15.362024 J22.531553
G02 X67.894549 Y141.013680 Z-0.998000 I0.767404 J0.965802
G02 X67.918848 Y141.350576 Z-0.998000 I0.245341 J0.151629
G02 X70.382830 Y143.980480 Z-0.998000 I25.002928 J-20.956262
G03 X72.812910 Y146.614181 Z-0.998000 I-19.695956 J20.611142
G03 X72.837909 Y147.001960 Z-0.998000 I-0.260276 J0.211475
G03 X70.962769 Y148.540562 Z-0.998000 I-3.182895 J-1.967145
G03 X65.527362 Y149.728530 Z-0.998000 I-6.876496 J-18.434071
G03 X60.317083 Y149.431823 Z-0.998000 I-1.472120 J-20.044600
G03 X57.335956 Y148.177740 Z-0.998000 I1.435243 J-7.582081
G02 X55.810169 Y147.629105 Z-0.998000 I-1.777167 J2.546436
G02 X55.386737 Y148.019540 Z-0.998000 I-0.031711 J0.390435
G03 X55.309604 Y148.316211 Z-0.998000 I-0.609101 J-0.000000
G03 X54.945330 Y148.812510 Z-0.998000 I-2.165869 J-1.207873
G02 X52.776615 Y151.415307 Z-0.998000 I19.561008 J18.503626
G02 X52.564471 Y152.064460 Z-0.998000 I0.887118 J0.649153
G03 X52.153148 Y152.975971 Z-0.998000 I-1.215636 J-0.000000
G03 X47.433612 Y156.593760 Z-0.998000 I-28.537625 J-32.341059
G03 X43.922697 Y158.155735 Z-0.998000 I-6.404741 J-9.669396
G03 X42.318377 Y157.912120 Z-0.998000 I-0.516347 J-2.004020
G01 X42.318359 Y157.912110 Z-0.998000
G00 Z5.000000

(End cutting path id: path6759)


(Start cutting path id: path6759)
(Change tool to Cylindrical cutter)

G00 Z5.000000
G00 X42.318359 Y157.912110

G01 Z-1.000000 F100.0(Penetrate)
G03 X42.119763 Y157.565372 Z-1.000000 I0.220272 J-0.356405 F100.000000
G03 X42.222659 Y153.738280 Z-1.000000 I38.326818 J-0.884463
G02 X42.333338 Y149.986377 Z-1.000000 I-39.542821 J-3.044077
G02 X42.152349 Y149.808590 Z-1.000000 I-0.180989 J0.003231
G02 X41.788071 Y149.860265 Z-1.000000 I0.000000 J1.309801
G02 X39.851567 Y150.474610 Z-1.000000 I11.137811 J38.467249
G03 X34.530996 Y151.511436 Z-1.000000 I-6.336179 J-18.344783
G03 X31.853521 Y150.894530 Z-1.000000 I-0.261220 J-4.985058
G02 X31.196185 Y150.604255 Z-1.000000 I-1.947327 J3.520358
G02 X29.156255 Y149.980470 Z-1.000000 I-11.533434 J34.069747
G03 X24.434789 Y147.860363 Z-1.000000 I4.425427 J-16.172793
G03 X23.636724 Y146.388670 Z-1.000000 I0.957925 J-1.471693
G03 X23.799349 Y146.041655 Z-1.000000 I0.451549 J-0.000000
G03 X25.023443 Y145.234380 Z-1.000000 I4.224001 J5.073269
G02 X26.496702 Y144.208353 Z-1.000000 I-2.996174 J-5.872902
G02 X26.550454 Y143.724918 Z-1.000000 I-0.251429 J-0.272662
G02 X26.002304 Y143.301803 Z-1.000000 I-0.936785 J0.646993
G02 X23.068364 Y142.402340 Z-1.000000 I-10.297222 J28.353471
G03 X20.511430 Y141.319361 Z-1.000000 I2.208755 J-8.774889
G03 X18.085943 Y139.316410 Z-1.000000 I6.128226 J-9.891071
G02 X15.879385 Y136.938344 Z-1.000000 I-388.969098 J358.703654
G02 X13.388677 Y134.285160 Z-1.000000 I-483.546983 J451.439727
G03 X11.090224 Y131.505196 Z-1.000000 I19.974194 J-18.854661
G03 X9.826177 Y129.347660 Z-1.000000 I10.666721 J-7.698425
G03 X7.857857 Y124.020093 Z-1.000000 I31.879988 J-14.805753
G03 X6.861333 Y118.763670 Z-1.000000 I30.105632 J-8.430163
G02 X6.592328 Y116.835361 Z-1.000000 I-26.238271 J2.677403
G02 X6.017583 Y114.001950 Z-1.000000 I-57.858530 J10.261349
G03 X5.416483 Y111.170586 Z-1.000000 I90.803388 J-20.757099
G03 X5.130864 Y109.482420 Z-1.000000 I32.245918 J-6.323889
G02 X4.024518 Y106.074361 Z-1.000000 I-10.342247 J1.473763
G02 X1.578130 Y102.759770 Z-1.000000 I-12.220237 J6.459253
G03 X0.158493 Y101.115682 Z-1.000000 I10.510608 J-10.510657
G03 X0.000000 Y100.636720 Z-1.000000 I0.644459 J-0.478962
G03 X0.593068 Y99.789233 Z-1.000000 I0.902058 J0.000000
G03 X3.257812 Y99.449220 Z-1.000000 I2.083077 J5.713396
G02 X4.120696 Y98.821044 Z-1.000000 I0.076965 J-0.801008
G02 X4.052734 Y95.833980 Z-1.000000 I-6.157954 J-1.354200
G03 X3.524405 Y91.345450 Z-1.000000 I15.127016 J-4.055907
G03 X4.371094 Y84.314450 Z-1.000000 I38.436866 J1.062172
G02 X5.026886 Y80.178836 Z-1.000000 I-37.367442 J-8.045226
G02 X5.472656 Y73.607420 Z-1.000000 I-94.344699 J-9.700679
G03 X5.719184 Y69.096032 Z-1.000000 I104.581155 J3.452484
G03 X6.047442 Y68.059886 Z-1.000000 I2.370589 J0.180947
G03 X6.797390 Y67.694543 Z-1.000000 I0.653760 J0.389597
G03 X8.726562 Y68.144530 Z-1.000000 I-1.224324 J9.609225
G01 X10.759766 Y68.845700 Z-1.000000
G01 X13.117188 Y65.773440 Z-1.000000
G02 X16.006909 Y61.070403 Z-1.000000 I-21.143586 J-16.230701
G02 X17.308594 Y57.035160 Z-1.000000 I-14.181603 J-6.802258
G01 X17.765625 Y54.482420 Z-1.000000
G01 X19.736328 Y54.625000 Z-1.000000
G03 X22.575645 Y55.282506 Z-1.000000 I-0.679465 J9.393434
G03 X27.431641 Y57.724610 Z-1.000000 I-12.239754 J30.387102
G01 X28.580078 Y58.427730 Z-1.000000
G01 X30.076172 Y56.771480 Z-1.000000
G03 X33.105211 Y53.603366 Z-1.000000 I58.539827 J52.937948
G03 X36.662109 Y50.255860 Z-1.000000 I68.755489 J69.492794
G01 X38.906250 Y48.248050 Z-1.000000
G01 X38.720703 Y46.197270 Z-1.000000
G02 X38.360805 Y44.192524 Z-1.000000 I-11.645802 J1.056011
G02 X37.585938 Y42.017580 Z-1.000000 I-14.406129 J3.906968
G02 X36.398700 Y40.108058 Z-1.000000 I-7.540033 J3.364146
G02 X35.162109 Y39.095700 Z-1.000000 I-3.223163 J2.675655
G03 X29.743264 Y34.202468 Z-1.000000 I7.271813 J-13.499997
G03 X27.294922 Y27.496090 Z-1.000000 I12.136249 J-8.230767
G03 X27.356157 Y25.411745 Z-1.000000 I7.789915 J-0.814216
G03 X27.966797 Y23.410160 Z-1.000000 I7.772851 J1.277388
G03 X29.026273 Y21.574879 Z-1.000000 I10.241031 J4.688524
G03 X30.248047 Y20.201170 Z-1.000000 I6.877729 J4.886859
G03 X37.649715 Y15.350228 Z-1.000000 I19.268102 J21.327391
G03 X43.953125 Y13.988280 Z-1.000000 I6.303410 J13.905842
G02 X44.683382 Y13.793331 Z-1.000000 I0.000000 J-1.465207
G02 X45.027344 Y13.371090 Z-1.000000 I-0.379753 J-0.660569
G03 X46.917634 Y8.894518 Z-1.000000 I28.371455 J9.342824
G03 X48.248047 Y7.199220 Z-1.000000 I5.209713 J2.718728
G03 X50.191436 Y5.958060 Z-1.000000 I5.005410 J5.695349
G03 X53.623047 Y4.826170 Z-1.000000 I7.525736 J17.048327
G02 X55.550611 Y4.343695 Z-1.000000 I-9.186734 J-40.794154
G02 X58.367188 Y3.517580 Z-1.000000 I-23.965317 J-86.922463
G03 X67.040786 Y2.357068 Z-1.000000 I7.746323 J24.902316
G03 X74.191406 Y4.080080 Z-1.000000 I-0.655316 J18.418895
G02 X76.530049 Y5.135513 Z-1.000000 I40.525825 J-86.678970
G02 X76.695312 Y5.169920 Z-1.000000 I0.165263 J-0.379690
G03 X78.069695 Y5.769535 Z-1.000000 I-0.000000 J1.874924
G03 X78.669922 Y7.298830 Z-1.000000 I-1.648100 J1.529295
G02 X78.763821 Y7.734254 Z-1.000000 I1.056517 J0.000000
G02 X79.728516 Y9.636720 Z-1.000000 I21.844039 J-9.880773
G03 X80.646280 Y11.563426 Z-1.000000 I-13.427529 J7.577983
G03 X80.990234 Y12.839840 Z-1.000000 I-5.499387 J2.166464
G02 X81.216288 Y14.160765 Z-1.000000 I36.124563 J-5.502296
G02 X81.509766 Y15.576170 Z-1.000000 I42.725528 J-8.120831
G03 X81.707522 Y17.000657 Z-1.000000 I-8.449356 J1.898963
G03 X81.835938 Y21.529300 Z-1.000000 I-85.467389 J4.689685
G01 X81.843738 Y26.072270 Z-1.000000
G01 X82.972644 Y25.845700 Z-1.000000
G03 X84.104632 Y25.648317 Z-1.000000 I4.548135 J22.738767
G03 X85.921863 Y25.406250 Z-1.000000 I8.753059 J58.768406
G01 X87.744129 Y25.191410 Z-1.000000
G01 X87.218738 Y24.136720 Z-1.000000
G03 X86.660084 Y21.232113 Z-1.000000 I4.913162 J-2.450994
G03 X87.787097 Y17.271480 Z-1.000000 I10.615544 J0.880027
G03 X92.550927 Y12.566181 Z-1.000000 I9.485225 J4.839021
G03 X101.554678 Y10.460940 Z-1.000000 I9.003751 J18.201121
G01 X103.583968 Y10.460940 Z-1.000000
G01 X104.230458 Y8.296880 Z-1.000000
G03 X105.970305 Y5.053907 Z-1.000000 I8.812826 J2.639860
G03 X108.806628 Y2.792970 Z-1.000000 I6.882298 J5.724237
G03 X110.669888 Y2.163742 Z-1.000000 I3.111970 J6.141777
G03 X114.880848 Y1.673830 Z-1.000000 I5.780852 J31.346091
G02 X119.074264 Y1.236173 Z-1.000000 I-1.898690 J-38.500804
G02 X119.820298 Y0.882810 Z-1.000000 I-0.233086 J-1.456310
G03 X120.517418 Y0.383294 Z-1.000000 I2.736021 J3.082162
G03 X121.179678 Y0.107420 Z-1.000000 I1.448701 J2.544891
G03 X121.896828 Y0.004609 Z-1.000000 I0.753223 J2.701440
G03 X126.753898 Y0.037120 Z-1.000000 I1.597435 J124.181914
G03 X131.546417 Y0.478030 Z-1.000000 I-0.964546 J36.751060
G03 X133.562488 Y1.115240 Z-1.000000 I-1.116056 J7.039031
G03 X136.970610 Y4.367945 Z-1.000000 I-3.425033 J7.000519
G03 X139.541008 Y12.015630 Z-1.000000 I-20.039231 J10.991014
G03 X139.648366 Y13.752375 Z-1.000000 I-10.129235 J1.497833
G03 X139.337878 Y20.708990 Z-1.000000 I-163.679706 J-3.820115
G02 X139.205398 Y27.652537 Z-1.000000 I74.069440 J4.886248
G02 X139.640608 Y31.638680 Z-1.000000 I24.760055 J-0.686490
G02 X140.521214 Y35.563128 Z-1.000000 I63.807116 J-12.256647
G02 X140.933578 Y36.667980 Z-1.000000 I5.421616 J-1.394129
G03 X141.802642 Y40.386900 Z-1.000000 I-7.395561 J3.689253
G03 X140.910178 Y43.199230 Z-1.000000 I-4.933137 J-0.017709
G03 X140.245151 Y43.863343 Z-1.000000 I-2.209949 J-1.547964
G03 X138.277358 Y45.039070 Z-1.000000 I-9.239810 J-13.229904
G02 X136.333168 Y46.227833 Z-1.000000 I6.321698 J12.523191
G02 X135.750018 Y46.882820 Z-1.000000 I1.220795 J1.673990
G02 X135.502977 Y47.732038 Z-1.000000 I1.680846 J0.949506
G02 X135.250018 Y56.498060 Z-1.000000 I189.383565 J9.851660
G03 X135.167280 Y65.316028 Z-1.000000 I-1200.690084 J-6.856560
G03 X135.125018 Y66.023450 Z-1.000000 I-7.603520 J-0.099268
G03 X134.047834 Y71.353926 Z-1.000000 I-29.048155 J-3.095984
G03 X132.626968 Y74.314460 Z-1.000000 I-10.192784 J-3.070651
G02 X132.076612 Y75.226936 Z-1.000000 I7.371790 J5.068476
G02 X131.451188 Y76.558600 Z-1.000000 I14.789924 J7.758873
G01 X130.882828 Y77.921890 Z-1.000000
G01 X132.748068 Y79.816420 Z-1.000000
G03 X137.876896 Y87.123640 Z-1.000000 I-19.318550 J19.012934
G03 X139.347678 Y93.601570 Z-1.000000 I-13.528075 J6.477414
G03 X138.398639 Y99.901652 Z-1.000000 I-21.390697 J-0.000755
G03 X135.515638 Y106.033210 Z-1.000000 I-23.114752 J-7.124779
G02 X135.185601 Y106.950509 Z-1.000000 I1.753299 J1.148844
G02 X135.029318 Y110.416030 Z-1.000000 I26.289559 J2.921856
G03 X134.283765 Y115.012905 Z-1.000000 I-12.909349 J0.265170
G03 X132.064468 Y118.742200 Z-1.000000 I-10.565564 J-3.762552
G03 X130.410354 Y120.068018 Z-1.000000 I-4.842356 J-4.346648
G03 X127.478538 Y121.318370 Z-1.000000 I-7.182388 J-12.778787
G03 X124.318365 Y122.081179 Z-1.000000 I-8.224908 J-27.146839
G03 X120.296898 Y122.623060 Z-1.000000 I-7.951551 J-43.817692
G02 X116.402272 Y123.301060 Z-1.000000 I2.079243 J23.468706
G02 X115.447288 Y123.892590 Z-1.000000 I0.484697 J1.849152
G02 X114.798092 Y124.854844 Z-1.000000 I3.520003 J3.074932
G02 X114.652358 Y125.464850 Z-1.000000 I1.203797 J0.610006
G03 X114.537498 Y126.065296 Z-1.000000 I-1.626884 J0.000000
G03 X114.300798 Y126.347670 Z-1.000000 I-0.544944 J-0.216405
G02 X114.065140 Y126.631235 Z-1.000000 I0.304604 J0.492848
G02 X113.947288 Y127.261730 Z-1.000000 I1.627616 J0.630495
G03 X113.791698 Y127.851001 Z-1.000000 I-1.193678 J0.000000
G03 X113.441428 Y128.152350 Z-1.000000 I-0.595674 J-0.338134
G03 X111.724685 Y127.930483 Z-1.000000 I-0.652840 J-1.701277
G03 X109.468768 Y125.294930 Z-1.000000 I4.271019 J-5.939064
G03 X109.110446 Y124.585208 Z-1.000000 I349.209662 J-176.752935
G03 X108.044938 Y122.468760 Z-1.000000 I8267.032609 J-4163.295496
G03 X106.495172 Y117.936782 Z-1.000000 I15.689499 J-7.896189
G03 X106.369158 Y113.878920 Z-1.000000 I12.376374 J-2.415227
G02 X106.583947 Y112.237177 Z-1.000000 I-1477.020462 J-194.072835
G02 X106.744158 Y111.001960 Z-1.000000 I-1118.377878 J-145.685064
G03 X107.844233 Y107.248339 Z-1.000000 I12.430131 J1.604892
G03 X110.666038 Y102.708990 Z-1.000000 I21.163724 J10.009315
G03 X112.964569 Y100.697594 Z-1.000000 I6.634000 J5.262005
G03 X116.818378 Y99.042980 Z-1.000000 I8.158851 J13.687697
G03 X121.812683 Y98.383807 Z-1.000000 I4.796982 J17.095358
G03 X127.046898 Y99.156260 Z-1.000000 I-0.217786 J19.595734
G02 X129.966951 Y99.902030 Z-1.000000 I13.152463 J-45.408699
G02 X130.160178 Y99.845710 Z-1.000000 I0.045285 J-0.204262
G02 X130.252546 Y99.648771 Z-1.000000 I-0.226241 J-0.226241
G02 X130.414078 Y97.068370 Z-1.000000 I-44.103944 J-4.056153
G02 X130.071364 Y94.591471 Z-1.000000 I-7.349520 J-0.245251
G02 X128.908218 Y92.337900 Z-1.000000 I-7.220062 J2.299570
G02 X125.667954 Y89.252610 Z-1.000000 I-10.867552 J8.169273
G02 X122.337908 Y87.886730 Z-1.000000 I-4.927290 J7.270539
G02 X121.060299 Y87.893764 Z-1.000000 I-0.620357 J3.354330
G02 X119.337908 Y88.474620 Z-1.000000 I1.336760 J6.807938
G03 X117.582634 Y89.026963 Z-1.000000 I-2.683304 J-5.461999
G03 X113.144548 Y89.429700 Z-1.000000 I-5.431706 J-35.201604
G03 X106.222325 Y88.656934 Z-1.000000 I-0.700850 J-25.112042
G03 X94.720721 Y84.720710 Z-1.000000 I18.957404 J-74.165222
G02 X93.652213 Y84.288661 Z-1.000000 I-9.178763 J21.162856
G02 X92.429706 Y83.861340 Z-1.000000 I-9.901077 J26.363267
G02 X86.705718 Y82.667426 Z-1.000000 I-8.385620 J25.884996
G02 X86.078143 Y83.236340 Z-1.000000 I-0.055919 J0.568914
G02 X86.099884 Y83.440059 Z-1.000000 I0.965338 J0.000000
G02 X86.642596 Y85.845710 Z-1.000000 I130.266668 J-28.123983
G03 X87.083317 Y89.769423 Z-1.000000 I-16.149417 J3.800550
G03 X86.580096 Y94.093760 Z-1.000000 I-20.115066 J-0.149332
G02 X86.754228 Y94.777156 Z-1.000000 I0.753505 J0.171886
G02 X87.740252 Y95.408210 Z-1.000000 I1.597711 J-1.410568
G03 X89.045731 Y95.942743 Z-1.000000 I-2.078752 J6.938341
G03 X90.822284 Y97.037120 Z-1.000000 I-7.397331 J13.997591
G01 X92.539080 Y98.257820 Z-1.000000
G01 X90.896502 Y99.855480 Z-1.000000
G02 X89.408420 Y101.516828 Z-1.000000 I11.238437 J11.563469
G02 X89.251971 Y101.972670 Z-1.000000 I0.585863 J0.455842
G03 X89.153853 Y102.468309 Z-1.000000 I-1.300914 J-0.000000
G03 X88.531268 Y103.718760 Z-1.000000 I-9.091690 J-3.746436
G02 X87.080385 Y107.056391 Z-1.000000 I12.775424 J7.537701
G02 X85.906268 Y112.613290 Z-1.000000 I34.577054 J10.208274
G03 X84.550829 Y119.454783 Z-1.000000 I-52.265651 J-6.799870
G03 X82.966815 Y123.578130 Z-1.000000 I-20.359443 J-5.455301
G03 X82.160453 Y124.973305 Z-1.000000 I-13.723329 J-7.000992
G03 X81.345721 Y126.072280 Z-1.000000 I-9.321683 J-6.059194
G02 X80.616502 Y127.200732 Z-1.000000 I4.096894 J3.447301
G02 X80.126971 Y128.609390 Z-1.000000 I5.936883 J2.852552
G03 X78.891542 Y131.328818 Z-1.000000 I-7.144002 J-1.605161
G03 X75.982440 Y134.273450 Z-1.000000 I-11.363784 J-8.317353
G02 X73.961521 Y135.895334 Z-1.000000 I24.069627 J32.061522
G02 X72.671893 Y137.109390 Z-1.000000 I12.370025 J14.432012
G03 X71.375315 Y138.312066 Z-1.000000 I-11.777713 J-11.397050
G03 X69.779315 Y139.515630 Z-1.000000 I-13.394767 J-16.102301
G02 X68.176486 Y140.696389 Z-1.000000 I15.362024 J22.531553
G02 X67.894549 Y141.013680 Z-1.000000 I0.767404 J0.965802
G02 X67.918848 Y141.350576 Z-1.000000 I0.245341 J0.151629
G02 X70.382830 Y143.980480 Z-1.000000 I25.002928 J-20.956262
G03 X72.812910 Y146.614181 Z-1.000000 I-19.695956 J20.611142
G03 X72.837909 Y147.001960 Z-1.000000 I-0.260276 J0.211475
G03 X70.962769 Y148.540562 Z-1.000000 I-3.182895 J-1.967145
G03 X65.527362 Y149.728530 Z-1.000000 I-6.876496 J-18.434071
G03 X60.317083 Y149.431823 Z-1.000000 I-1.472120 J-20.044600
G03 X57.335956 Y148.177740 Z-1.000000 I1.435243 J-7.582081
G02 X55.810169 Y147.629105 Z-1.000000 I-1.777167 J2.546436
G02 X55.386737 Y148.019540 Z-1.000000 I-0.031711 J0.390435
G03 X55.309604 Y148.316211 Z-1.000000 I-0.609101 J-0.000000
G03 X54.945330 Y148.812510 Z-1.000000 I-2.165869 J-1.207873
G02 X52.776615 Y151.415307 Z-1.000000 I19.561008 J18.503626
G02 X52.564471 Y152.064460 Z-1.000000 I0.887118 J0.649153
G03 X52.153148 Y152.975971 Z-1.000000 I-1.215636 J-0.000000
G03 X47.433612 Y156.593760 Z-1.000000 I-28.537625 J-32.341059
G03 X43.922697 Y158.155735 Z-1.000000 I-6.404741 J-9.669396
G03 X42.318377 Y157.912120 Z-1.000000 I-0.516347 J-2.004020
G01 X42.318359 Y157.912110 Z-1.000000
G00 Z5.000000

(End cutting path id: path6759)


(Start cutting path id: path6759)
(Change tool to Cylindrical cutter)

G00 Z5.000000
G00 X45.595703 Y154.394530

G01 Z-0.998000 F100.0(Penetrate)
G02 X48.023346 Y153.428385 Z-0.998000 I-0.000000 J-3.533056 F100.000000
G02 X51.892578 Y148.439450 Z-0.998000 I-14.176048 J-14.989297
G03 X52.613155 Y147.170846 Z-0.998000 I60.681804 J33.628784
G03 X53.457031 Y145.751950 Z-0.998000 I75.371342 J43.866064
G02 X54.290590 Y144.327894 Z-0.998000 I-42.895701 J-26.064620
G02 X54.421875 Y144.039060 Z-0.998000 I-1.599456 J-0.901262
G03 X54.606887 Y143.955191 Z-0.998000 I0.132820 J0.046996
G03 X56.314453 Y144.792970 Z-0.998000 I-4.601803 J11.538494
G02 X58.539432 Y145.932299 Z-0.998000 I10.675251 J-18.105316
G02 X60.324219 Y146.552730 Z-0.998000 I4.801277 J-10.934426
G02 X66.397734 Y147.320847 Z-0.998000 I5.983257 J-22.913966
G02 X68.312500 Y146.523430 Z-0.998000 I-0.010376 J-2.722503
G02 X68.344451 Y146.061786 Z-0.998000 I-0.249172 J-0.249173
G02 X64.822266 Y141.906240 Z-0.998000 I-38.897264 J29.398347
G03 X63.961597 Y140.841572 Z-0.998000 I6.281067 J-5.957774
G03 X63.857422 Y140.496080 Z-0.998000 I0.491252 J-0.336578
G03 X64.796936 Y138.771524 Z-0.998000 I2.108693 J0.030592
G03 X69.851562 Y136.503900 Z-0.998000 I9.297515 J13.957242
G02 X70.227177 Y135.803955 Z-0.998000 I-0.137116 J-0.524337
G02 X69.273438 Y134.816400 Z-0.998000 I-1.531164 J0.524415
G03 X65.065985 Y131.945462 Z-0.998000 I3.919144 J-10.262181
G03 X63.496094 Y128.464830 Z-0.998000 I4.568076 J-4.154723
G03 X63.878153 Y126.961075 Z-0.998000 I2.199595 J-0.241561
G03 X65.748047 Y125.222650 Z-0.998000 I4.918686 J3.415797
G02 X67.791441 Y123.677473 Z-0.998000 I-5.768713 J-9.752455
G02 X69.365234 Y121.779290 Z-0.998000 I-7.230971 J-7.596746
G03 X72.938843 Y118.435996 Z-0.998000 I8.493640 J5.497214
G03 X75.453125 Y118.390610 Z-0.998000 I1.299707 J2.335366
G03 X78.414556 Y120.582429 Z-0.998000 I-5.084638 J9.966553
G03 X79.021484 Y122.083970 Z-0.998000 I-1.553944 J1.501541
G02 X79.130231 Y122.507153 Z-0.998000 I0.877773 J0.000000
G02 X79.501953 Y122.957020 Z-0.998000 I1.371364 J-0.754641
G02 X79.880670 Y122.923599 Z-0.998000 I0.172491 J-0.207841
G02 X80.882812 Y121.324210 Z-0.998000 I-5.080748 J-4.297142
G02 X82.472796 Y117.094226 Z-0.998000 I-35.650629 J-15.814328
G02 X83.109375 Y114.169910 Z-0.998000 I-16.399622 J-5.101390
G03 X83.687057 Y110.314803 Z-0.998000 I89.355081 J11.418887
G03 X84.472656 Y106.240220 Z-0.998000 I101.800401 J17.514579
G03 X85.784096 Y102.413145 Z-0.998000 I16.580914 J3.543616
G03 X87.589844 Y99.783190 Z-0.998000 I9.489425 J4.580617
G02 X87.990615 Y99.014260 Z-0.998000 I-1.171817 J-1.099665
G02 X87.832031 Y98.632800 Z-0.998000 I-0.357315 J-0.075148
G02 X87.103094 Y98.310392 Z-0.998000 I-1.369211 J2.110436
G02 X84.589844 Y97.779290 Z-0.998000 I-6.662109 J25.313946
G03 X83.346538 Y97.469242 Z-0.998000 I1.193152 J-7.432481
G03 X83.093750 Y97.267570 Z-0.998000 I0.155267 J-0.453886
G03 X83.035798 Y96.952337 Z-0.998000 I0.375320 J-0.231942
G03 X83.441406 Y95.455070 Z-0.998000 I10.215541 J1.963807
G02 X83.886914 Y93.921238 Z-0.998000 I-13.334047 J-4.704549
G02 X84.351562 Y91.505850 Z-0.998000 I-33.190528 J-7.637241
G02 X84.450929 Y89.080629 Z-0.998000 I-10.637831 J-1.650502
G02 X83.941406 Y85.835930 Z-0.998000 I-19.584881 J1.413104
G02 X82.978869 Y82.666809 Z-0.998000 I-29.068694 J7.098116
G02 X81.666016 Y79.605460 Z-0.998000 I-28.517715 J10.417580
G03 X79.150232 Y73.158007 Z-0.998000 I35.289681 J-17.484522
G03 X78.728516 Y69.546870 Z-0.998000 I10.448587 J-3.050400
G02 X78.784033 Y67.316804 Z-0.998000 I-41.813503 J-2.156666
G02 X78.724616 Y67.257800 Z-0.998000 I-0.059109 J0.000104
G02 X77.813231 Y67.573883 Z-0.998000 I0.010028 J1.500885
G02 X75.789069 Y69.542960 Z-0.998000 I7.852287 J10.096891
G03 X75.208836 Y70.100931 Z-0.998000 I-2.676697 J-2.202813
G03 X75.082038 Y70.080070 Z-0.998000 I-0.053520 J-0.070479
G03 X74.973393 Y69.897429 Z-0.998000 I1.502978 J-1.017687
G03 X73.576179 Y67.173820 Z-0.998000 I334.771421 J-173.458284
G02 X72.043840 Y64.546176 Z-0.998000 I-23.388469 J11.878614
G02 X70.755866 Y62.925770 Z-0.998000 I-10.082094 J6.691644
G03 X69.050466 Y61.038511 Z-0.998000 I41.253256 J-38.992204
G03 X63.755866 Y54.822260 Z-0.998000 I446.872845 J-385.980242
G03 X63.225499 Y54.026047 Z-0.998000 I3.307791 J-2.778108
G03 X62.902351 Y53.169910 Z-0.998000 I3.520473 J-1.817853
G02 X62.625463 Y52.282384 Z-0.998000 I-7.883660 J1.972570
G02 X61.914069 Y50.539050 Z-0.998000 I-31.704335 J11.920620
G01 X61.152351 Y48.812490 Z-0.998000
G01 X59.591804 Y50.783190 Z-0.998000
G02 X58.049574 Y52.767118 Z-0.998000 I112.911740 J89.364683
G02 X57.384773 Y53.673820 Z-0.998000 I23.043742 J17.592920
G03 X56.691915 Y54.254421 Z-0.998000 I-1.437505 J-1.011730
G03 X56.261726 Y54.199210 Z-0.998000 I-0.171555 J-0.366849
G03 X55.919826 Y53.747167 Z-0.998000 I0.792129 J-0.954439
G03 X55.824226 Y53.210930 Z-0.998000 I1.044956 J-0.462935
G02 X55.487578 Y50.518084 Z-0.998000 I-7.226249 J-0.464071
G02 X53.236335 Y45.208970 Z-0.998000 I-31.151861 J10.077578
G03 X52.333495 Y43.432727 Z-0.998000 I46.349442 J-24.676370
G03 X52.210945 Y43.093740 Z-0.998000 I1.556596 J-0.754381
G02 X52.072879 Y42.765894 Z-0.998000 I-1.110868 J0.274826
G02 X51.500007 Y41.947260 Z-0.998000 I-7.596447 J4.706156
G02 X50.854055 Y41.203505 Z-0.998000 I-7.964392 J6.264700
G02 X50.750007 Y41.166010 Z-0.998000 I-0.089754 J0.085952
G02 X50.644979 Y41.219837 Z-0.998000 I0.019354 J0.167142
G02 X47.857429 Y44.341790 Z-0.998000 I154.631270 J140.873653
G03 X45.027180 Y47.359322 Z-0.998000 I-45.111406 J-39.475516
G03 X44.681648 Y47.501940 Z-0.998000 I-0.345532 J-0.347263
G02 X44.323187 Y47.621806 Z-0.998000 I0.000000 J0.595925
G02 X43.269538 Y48.564440 Z-0.998000 I5.041430 J6.695350
G03 X40.461096 Y51.164700 Z-0.998000 I-20.677969 J-19.516713
G03 X38.320319 Y52.564440 Z-0.998000 I-8.010927 J-9.915062
G02 X37.415211 Y53.178574 Z-0.998000 I2.146859 J4.138069
G02 X34.166023 Y56.160150 Z-0.998000 I50.257987 J58.030104
G02 X31.214972 Y59.400719 Z-0.998000 I25.085701 J25.808479
G02 X30.144538 Y61.158190 Z-0.998000 I6.150832 J4.951052
G01 X29.298835 Y63.072260 Z-0.998000
G01 X27.878913 Y61.931630 Z-0.998000
G03 X26.534097 Y60.753562 Z-0.998000 I13.193250 J-16.417286
G03 X26.458991 Y60.578110 Z-0.998000 I0.167380 J-0.175452
G02 X25.762770 Y59.426513 Z-0.998000 I-1.300521 J0.000000
G02 X21.431648 Y57.939440 Z-0.998000 I-7.002826 J13.345074
G02 X20.403080 Y58.241742 Z-0.998000 I-0.212313 J1.178592
G02 X20.060554 Y59.216790 Z-0.998000 I0.758299 J0.814071
G03 X19.874140 Y60.389072 Z-0.998000 I-1.968580 J0.287923
G03 X17.490241 Y64.396470 Z-0.998000 I-27.499605 J-13.646056
G02 X16.298589 Y66.215248 Z-0.998000 I27.253908 J19.156365
G02 X16.228523 Y66.464830 Z-0.998000 I0.409486 J0.249582
G03 X16.150696 Y66.706023 Z-0.998000 I-0.412656 J0.000000
G03 X15.363288 Y67.667960 Z-0.998000 I-8.178041 J-5.891023
G02 X12.412765 Y71.465110 Z-0.998000 I20.270477 J18.795800
G02 X11.994148 Y72.884760 Z-0.998000 I2.197910 J1.419650
G03 X11.597921 Y73.179015 Z-0.998000 I-0.307376 J0.000000
G03 X10.281257 Y72.367180 Z-0.998000 I0.871984 J-2.887842
G02 X9.415716 Y71.573915 Z-0.998000 I-6.094555 J5.781013
G02 X9.181648 Y71.492180 Z-0.998000 I-0.234068 J0.294287
G02 X9.029745 Y71.618906 Z-0.998000 I0.000000 J0.154403
G02 X8.716804 Y74.048820 Z-0.998000 I23.122309 J4.212959
G03 X8.472245 Y76.598334 Z-0.998000 I-64.843701 J-4.933551
G03 X8.337898 Y77.312490 Z-0.998000 I-5.114841 J-0.592495
G02 X6.748328 Y84.975146 Z-0.998000 I72.772232 J19.092338
G02 X6.318366 Y90.449210 Z-0.998000 I36.641523 J5.631937
G02 X6.885009 Y96.561240 Z-0.998000 I31.786357 J0.135388
G02 X8.318366 Y100.896470 Z-0.998000 I17.275206 J-3.307133
G03 X8.172759 Y102.385054 Z-0.998000 I-1.295024 J0.624739
G03 X6.906257 Y102.775380 Z-0.998000 I-0.902418 J-0.678214
G01 X5.289070 Y102.224600 Z-0.998000
G01 X5.515632 Y103.173820 Z-0.998000
G02 X5.803423 Y104.101425 Z-0.998000 I7.249413 J-1.740695
G02 X6.351570 Y105.357410 Z-0.998000 I14.068449 J-5.392255
G03 X7.451015 Y108.300866 Z-0.998000 I-14.188828 J6.976902
G03 X8.818366 Y114.707020 Z-0.998000 I-66.471168 J17.536833
G02 X10.486203 Y123.685593 Z-0.998000 I214.209795 J-35.146878
G02 X11.199226 Y126.171870 Z-0.998000 I16.992482 J-3.527778
G03 X11.378508 Y126.706326 Z-0.998000 I-8.753273 J3.233553
G03 X11.480476 Y127.101550 Z-0.998000 I-4.772545 J1.442092
G02 X12.441837 Y129.253327 Z-0.998000 I5.563156 J-1.194838
G02 X14.904304 Y131.810540 Z-0.998000 I10.454542 J-7.602972
G01 X15.830085 Y132.537100 Z-0.998000
G01 X16.066413 Y130.960930 Z-0.998000
G03 X17.238253 Y127.931774 Z-0.998000 I7.350320 J1.102254
G03 X19.332038 Y126.078110 Z-0.998000 I4.576947 J3.060501
G02 X20.272143 Y125.575587 Z-0.998000 I-10.445092 J-20.670986
G02 X21.074226 Y125.095690 Z-0.998000 I-9.093388 J-16.108606
G03 X21.801806 Y125.106113 Z-0.998000 I0.355814 J0.561966
G03 X24.628913 Y127.492180 Z-0.998000 I-9.599987 J14.242315
G02 X27.553750 Y130.161293 Z-0.998000 I20.721328 J-19.769520
G02 X29.404304 Y131.279290 Z-0.998000 I5.300664 J-6.683321
G03 X31.406854 Y133.018177 Z-0.998000 I-1.822861 J4.121796
G03 X31.865241 Y135.230460 Z-0.998000 I-2.775054 J1.728624
G03 X30.662867 Y138.387058 Z-0.998000 I-7.812693 J-1.168623
G03 X28.279304 Y140.710930 Z-0.998000 I-6.420318 J-4.200901
G02 X27.705413 Y141.384455 Z-0.998000 I0.760523 J1.229280
G02 X27.869148 Y141.695300 Z-0.998000 I0.210497 J0.087668
G03 X31.954400 Y143.062859 Z-0.998000 I-3.800521 J18.138770
G03 X32.455085 Y143.851550 Z-0.998000 I-0.370840 J0.788691
G03 X32.339742 Y144.095324 Z-0.998000 I-0.315276 J0.000000
G03 X30.492195 Y145.460930 Z-0.998000 I-14.461806 J-17.632983
G01 X28.527351 Y146.763660 Z-0.998000
G01 X30.226569 Y147.228510 Z-0.998000
G02 X35.019486 Y148.144010 Z-0.998000 I8.243999 J-30.155873
G02 X37.357429 Y148.019520 Z-0.998000 I0.792402 J-7.134286
G02 X40.799977 Y146.986111 Z-0.998000 I-5.190879 J-23.542841
G02 X42.613288 Y146.003900 Z-0.998000 I-2.844513 J-7.416334
G03 X43.766183 Y145.459904 Z-0.998000 I2.024023 J2.795861
G03 X44.271491 Y145.572260 Z-0.998000 I0.143129 J0.548750
G03 X45.128556 Y147.017280 Z-0.998000 I-1.596382 J1.923520
G03 X45.417976 Y151.453110 Z-0.998000 I-17.161801 J3.347095
G02 X45.414940 Y154.224304 Z-0.998000 I22.606027 J1.410363
G02 X45.595710 Y154.394520 Z-0.998000 I0.180770 J-0.010880
G01 X45.595703 Y154.394530 Z-0.998000
G00 Z5.000000

(End cutting path id: path6759)


(Start cutting path id: path6759)
(Change tool to Cylindrical cutter)

G00 Z5.000000
G00 X45.595703 Y154.394530

G01 Z-1.000000 F100.0(Penetrate)
G02 X48.023346 Y153.428385 Z-1.000000 I-0.000000 J-3.533056 F100.000000
G02 X51.892578 Y148.439450 Z-1.000000 I-14.176048 J-14.989297
G03 X52.613155 Y147.170846 Z-1.000000 I60.681804 J33.628784
G03 X53.457031 Y145.751950 Z-1.000000 I75.371342 J43.866064
G02 X54.290590 Y144.327894 Z-1.000000 I-42.895701 J-26.064620
G02 X54.421875 Y144.039060 Z-1.000000 I-1.599456 J-0.901262
G03 X54.606887 Y143.955191 Z-1.000000 I0.132820 J0.046996
G03 X56.314453 Y144.792970 Z-1.000000 I-4.601803 J11.538494
G02 X58.539432 Y145.932299 Z-1.000000 I10.675251 J-18.105316
G02 X60.324219 Y146.552730 Z-1.000000 I4.801277 J-10.934426
G02 X66.397734 Y147.320847 Z-1.000000 I5.983257 J-22.913966
G02 X68.312500 Y146.523430 Z-1.000000 I-0.010376 J-2.722503
G02 X68.344451 Y146.061786 Z-1.000000 I-0.249172 J-0.249173
G02 X64.822266 Y141.906240 Z-1.000000 I-38.897264 J29.398347
G03 X63.961597 Y140.841572 Z-1.000000 I6.281067 J-5.957774
G03 X63.857422 Y140.496080 Z-1.000000 I0.491252 J-0.336578
G03 X64.796936 Y138.771524 Z-1.000000 I2.108693 J0.030592
G03 X69.851562 Y136.503900 Z-1.000000 I9.297515 J13.957242
G02 X70.227177 Y135.803955 Z-1.000000 I-0.137116 J-0.524337
G02 X69.273438 Y134.816400 Z-1.000000 I-1.531164 J0.524415
G03 X65.065985 Y131.945462 Z-1.000000 I3.919144 J-10.262181
G03 X63.496094 Y128.464830 Z-1.000000 I4.568076 J-4.154723
G03 X63.878153 Y126.961075 Z-1.000000 I2.199595 J-0.241561
G03 X65.748047 Y125.222650 Z-1.000000 I4.918686 J3.415797
G02 X67.791441 Y123.677473 Z-1.000000 I-5.768713 J-9.752455
G02 X69.365234 Y121.779290 Z-1.000000 I-7.230971 J-7.596746
G03 X72.938843 Y118.435996 Z-1.000000 I8.493640 J5.497214
G03 X75.453125 Y118.390610 Z-1.000000 I1.299707 J2.335366
G03 X78.414556 Y120.582429 Z-1.000000 I-5.084638 J9.966553
G03 X79.021484 Y122.083970 Z-1.000000 I-1.553944 J1.501541
G02 X79.130231 Y122.507153 Z-1.000000 I0.877773 J0.000000
G02 X79.501953 Y122.957020 Z-1.000000 I1.371364 J-0.754641
G02 X79.880670 Y122.923599 Z-1.000000 I0.172491 J-0.207841
G02 X80.882812 Y121.324210 Z-1.000000 I-5.080748 J-4.297142
G02 X82.472796 Y117.094226 Z-1.000000 I-35.650629 J-15.814328
G02 X83.109375 Y114.169910 Z-1.000000 I-16.399622 J-5.101390
G03 X83.687057 Y110.314803 Z-1.000000 I89.355081 J11.418887
G03 X84.472656 Y106.240220 Z-1.000000 I101.800401 J17.514579
G03 X85.784096 Y102.413145 Z-1.000000 I16.580914 J3.543616
G03 X87.589844 Y99.783190 Z-1.000000 I9.489425 J4.580617
G02 X87.990615 Y99.014260 Z-1.000000 I-1.171817 J-1.099665
G02 X87.832031 Y98.632800 Z-1.000000 I-0.357315 J-0.075148
G02 X87.103094 Y98.310392 Z-1.000000 I-1.369211 J2.110436
G02 X84.589844 Y97.779290 Z-1.000000 I-6.662109 J25.313946
G03 X83.346538 Y97.469242 Z-1.000000 I1.193152 J-7.432481
G03 X83.093750 Y97.267570 Z-1.000000 I0.155267 J-0.453886
G03 X83.035798 Y96.952337 Z-1.000000 I0.375320 J-0.231942
G03 X83.441406 Y95.455070 Z-1.000000 I10.215541 J1.963807
G02 X83.886914 Y93.921238 Z-1.000000 I-13.334047 J-4.704549
G02 X84.351562 Y91.505850 Z-1.000000 I-33.190528 J-7.637241
G02 X84.450929 Y89.080629 Z-1.000000 I-10.637831 J-1.650502
G02 X83.941406 Y85.835930 Z-1.000000 I-19.584881 J1.413104
G02 X82.978869 Y82.666809 Z-1.000000 I-29.068694 J7.098116
G02 X81.666016 Y79.605460 Z-1.000000 I-28.517715 J10.417580
G03 X79.150232 Y73.158007 Z-1.000000 I35.289681 J-17.484522
G03 X78.728516 Y69.546870 Z-1.000000 I10.448587 J-3.050400
G02 X78.784033 Y67.316804 Z-1.000000 I-41.813503 J-2.156666
G02 X78.724616 Y67.257800 Z-1.000000 I-0.059109 J0.000104
G02 X77.813231 Y67.573883 Z-1.000000 I0.010028 J1.500885
G02 X75.789069 Y69.542960 Z-1.000000 I7.852287 J10.096891
G03 X75.208836 Y70.100931 Z-1.000000 I-2.676697 J-2.202813
G03 X75.082038 Y70.080070 Z-1.000000 I-0.053520 J-0.070479
G03 X74.973393 Y69.897429 Z-1.000000 I1.502978 J-1.017687
G03 X73.576179 Y67.173820 Z-1.000000 I334.771421 J-173.458284
G02 X72.043840 Y64.546176 Z-1.000000 I-23.388469 J11.878614
G02 X70.755866 Y62.925770 Z-1.000000 I-10.082094 J6.691644
G03 X69.050466 Y61.038511 Z-1.000000 I41.253256 J-38.992204
G03 X63.755866 Y54.822260 Z-1.000000 I446.872845 J-385.980242
G03 X63.225499 Y54.026047 Z-1.000000 I3.307791 J-2.778108
G03 X62.902351 Y53.169910 Z-1.000000 I3.520473 J-1.817853
G02 X62.625463 Y52.282384 Z-1.000000 I-7.883660 J1.972570
G02 X61.914069 Y50.539050 Z-1.000000 I-31.704335 J11.920620
G01 X61.152351 Y48.812490 Z-1.000000
G01 X59.591804 Y50.783190 Z-1.000000
G02 X58.049574 Y52.767118 Z-1.000000 I112.911740 J89.364683
G02 X57.384773 Y53.673820 Z-1.000000 I23.043742 J17.592920
G03 X56.691915 Y54.254421 Z-1.000000 I-1.437505 J-1.011730
G03 X56.261726 Y54.199210 Z-1.000000 I-0.171555 J-0.366849
G03 X55.919826 Y53.747167 Z-1.000000 I0.792129 J-0.954439
G03 X55.824226 Y53.210930 Z-1.000000 I1.044956 J-0.462935
G02 X55.487578 Y50.518084 Z-1.000000 I-7.226249 J-0.464071
G02 X53.236335 Y45.208970 Z-1.000000 I-31.151861 J10.077578
G03 X52.333495 Y43.432727 Z-1.000000 I46.349442 J-24.676370
G03 X52.210945 Y43.093740 Z-1.000000 I1.556596 J-0.754381
G02 X52.072879 Y42.765894 Z-1.000000 I-1.110868 J0.274826
G02 X51.500007 Y41.947260 Z-1.000000 I-7.596447 J4.706156
G02 X50.854055 Y41.203505 Z-1.000000 I-7.964392 J6.264700
G02 X50.750007 Y41.166010 Z-1.000000 I-0.089754 J0.085952
G02 X50.644979 Y41.219837 Z-1.000000 I0.019354 J0.167142
G02 X47.857429 Y44.341790 Z-1.000000 I154.631270 J140.873653
G03 X45.027180 Y47.359322 Z-1.000000 I-45.111406 J-39.475516
G03 X44.681648 Y47.501940 Z-1.000000 I-0.345532 J-0.347263
G02 X44.323187 Y47.621806 Z-1.000000 I0.000000 J0.595925
G02 X43.269538 Y48.564440 Z-1.000000 I5.041430 J6.695350
G03 X40.461096 Y51.164700 Z-1.000000 I-20.677969 J-19.516713
G03 X38.320319 Y52.564440 Z-1.000000 I-8.010927 J-9.915062
G02 X37.415211 Y53.178574 Z-1.000000 I2.146859 J4.138069
G02 X34.166023 Y56.160150 Z-1.000000 I50.257987 J58.030104
G02 X31.214972 Y59.400719 Z-1.000000 I25.085701 J25.808479
G02 X30.144538 Y61.158190 Z-1.000000 I6.150832 J4.951052
G01 X29.298835 Y63.072260 Z-1.000000
G01 X27.878913 Y61.931630 Z-1.000000
G03 X26.534097 Y60.753562 Z-1.000000 I13.193250 J-16.417286
G03 X26.458991 Y60.578110 Z-1.000000 I0.167380 J-0.175452
G02 X25.762770 Y59.426513 Z-1.000000 I-1.300521 J0.000000
G02 X21.431648 Y57.939440 Z-1.000000 I-7.002826 J13.345074
G02 X20.403080 Y58.241742 Z-1.000000 I-0.212313 J1.178592
G02 X20.060554 Y59.216790 Z-1.000000 I0.758299 J0.814071
G03 X19.874140 Y60.389072 Z-1.000000 I-1.968580 J0.287923
G03 X17.490241 Y64.396470 Z-1.000000 I-27.499605 J-13.646056
G02 X16.298589 Y66.215248 Z-1.000000 I27.253908 J19.156365
G02 X16.228523 Y66.464830 Z-1.000000 I0.409486 J0.249582
G03 X16.150696 Y66.706023 Z-1.000000 I-0.412656 J0.000000
G03 X15.363288 Y67.667960 Z-1.000000 I-8.178041 J-5.891023
G02 X12.412765 Y71.465110 Z-1.000000 I20.270477 J18.795800
G02 X11.994148 Y72.884760 Z-1.000000 I2.197910 J1.419650
G03 X11.597921 Y73.179015 Z-1.000000 I-0.307376 J0.000000
G03 X10.281257 Y72.367180 Z-1.000000 I0.871984 J-2.887842
G02 X9.415716 Y71.573915 Z-1.000000 I-6.094555 J5.781013
G02 X9.181648 Y71.492180 Z-1.000000 I-0.234068 J0.294287
G02 X9.029745 Y71.618906 Z-1.000000 I0.000000 J0.154403
G02 X8.716804 Y74.048820 Z-1.000000 I23.122309 J4.212959
G03 X8.472245 Y76.598334 Z-1.000000 I-64.843701 J-4.933551
G03 X8.337898 Y77.312490 Z-1.000000 I-5.114841 J-0.592495
G02 X6.748328 Y84.975146 Z-1.000000 I72.772232 J19.092338
G02 X6.318366 Y90.449210 Z-1.000000 I36.641523 J5.631937
G02 X6.885009 Y96.561240 Z-1.000000 I31.786357 J0.135388
G02 X8.318366 Y100.896470 Z-1.000000 I17.275206 J-3.307133
G03 X8.172759 Y102.385054 Z-1.000000 I-1.295024 J0.624739
G03 X6.906257 Y102.775380 Z-1.000000 I-0.902418 J-0.678214
G01 X5.289070 Y102.224600 Z-1.000000
G01 X5.515632 Y103.173820 Z-1.000000
G02 X5.803423 Y104.101425 Z-1.000000 I7.249413 J-1.740695
G02 X6.351570 Y105.357410 Z-1.000000 I14.068449 J-5.392255
G03 X7.451015 Y108.300866 Z-1.000000 I-14.188828 J6.976902
G03 X8.818366 Y114.707020 Z-1.000000 I-66.471168 J17.536833
G02 X10.486203 Y123.685593 Z-1.000000 I214.209795 J-35.146878
G02 X11.199226 Y126.171870 Z-1.000000 I16.992482 J-3.527778
G03 X11.378508 Y126.706326 Z-1.000000 I-8.753273 J3.233553
G03 X11.480476 Y127.101550 Z-1.000000 I-4.772545 J1.442092
G02 X12.441837 Y129.253327 Z-1.000000 I5.563156 J-1.194838
G02 X14.904304 Y131.810540 Z-1.000000 I10.454542 J-7.602972
G01 X15.830085 Y132.537100 Z-1.000000
G01 X16.066413 Y130.960930 Z-1.000000
G03 X17.238253 Y127.931774 Z-1.000000 I7.350320 J1.102254
G03 X19.332038 Y126.078110 Z-1.000000 I4.576947 J3.060501
G02 X20.272143 Y125.575587 Z-1.000000 I-10.445092 J-20.670986
G02 X21.074226 Y125.095690 Z-1.000000 I-9.093388 J-16.108606
G03 X21.801806 Y125.106113 Z-1.000000 I0.355814 J0.561966
G03 X24.628913 Y127.492180 Z-1.000000 I-9.599987 J14.242315
G02 X27.553750 Y130.161293 Z-1.000000 I20.721328 J-19.769520
G02 X29.404304 Y131.279290 Z-1.000000 I5.300664 J-6.683321
G03 X31.406854 Y133.018177 Z-1.000000 I-1.822861 J4.121796
G03 X31.865241 Y135.230460 Z-1.000000 I-2.775054 J1.728624
G03 X30.662867 Y138.387058 Z-1.000000 I-7.812693 J-1.168623
G03 X28.279304 Y140.710930 Z-1.000000 I-6.420318 J-4.200901
G02 X27.705413 Y141.384455 Z-1.000000 I0.760523 J1.229280
G02 X27.869148 Y141.695300 Z-1.000000 I0.210497 J0.087668
G03 X31.954400 Y143.062859 Z-1.000000 I-3.800521 J18.138770
G03 X32.455085 Y143.851550 Z-1.000000 I-0.370840 J0.788691
G03 X32.339742 Y144.095324 Z-1.000000 I-0.315276 J0.000000
G03 X30.492195 Y145.460930 Z-1.000000 I-14.461806 J-17.632983
G01 X28.527351 Y146.763660 Z-1.000000
G01 X30.226569 Y147.228510 Z-1.000000
G02 X35.019486 Y148.144010 Z-1.000000 I8.243999 J-30.155873
G02 X37.357429 Y148.019520 Z-1.000000 I0.792402 J-7.134286
G02 X40.799977 Y146.986111 Z-1.000000 I-5.190879 J-23.542841
G02 X42.613288 Y146.003900 Z-1.000000 I-2.844513 J-7.416334
G03 X43.766183 Y145.459904 Z-1.000000 I2.024023 J2.795861
G03 X44.271491 Y145.572260 Z-1.000000 I0.143129 J0.548750
G03 X45.128556 Y147.017280 Z-1.000000 I-1.596382 J1.923520
G03 X45.417976 Y151.453110 Z-1.000000 I-17.161801 J3.347095
G02 X45.414940 Y154.224304 Z-1.000000 I22.606027 J1.410363
G02 X45.595710 Y154.394520 Z-1.000000 I0.180770 J-0.010880
G01 X45.595703 Y154.394530 Z-1.000000
G00 Z5.000000

(End cutting path id: path6759)


(Start cutting path id: path6759)
(Change tool to Cylindrical cutter)

G00 Z5.000000
G00 X23.453125 Y139.804690

G01 Z-0.998000 F100.0(Penetrate)
G02 X25.247199 Y139.746353 Z-0.998000 I0.759101 J-4.271172 F100.000000
G02 X27.064453 Y138.904300 Z-0.998000 I-1.245562 J-5.070031
G02 X29.416661 Y136.434027 Z-0.998000 I-5.499052 J-7.591258
G02 X29.976562 Y134.439450 Z-0.998000 I-2.895728 J-1.888739
G02 X29.840200 Y134.184207 Z-0.998000 I-0.325551 J0.009877
G02 X27.289062 Y132.521480 Z-0.998000 I-20.972666 J29.390079
G03 X24.741326 Y130.776882 Z-0.998000 I12.126503 J-20.441628
G03 X22.945312 Y129.113280 Z-0.998000 I9.258901 J-11.797133
G01 X21.275391 Y127.292970 Z-0.998000
G01 X20.367188 Y128.054690 Z-0.998000
G02 X18.580751 Y130.552512 Z-0.998000 I3.967498 J4.725285
G02 X18.064453 Y134.001950 Z-0.998000 I7.426416 J2.874914
G02 X18.555404 Y135.912506 Z-0.998000 I5.515541 J-0.398957
G02 X19.716797 Y137.597660 Z-0.998000 I5.414038 J-2.488520
G02 X21.728917 Y139.168579 Z-0.998000 I6.926754 J-6.798092
G02 X23.453125 Y139.804690 Z-0.998000 I2.634621 J-4.486432
G01 X23.453125 Y139.804690 Z-0.998000
G00 Z5.000000

(End cutting path id: path6759)


(Start cutting path id: path6759)
(Change tool to Cylindrical cutter)

G00 Z5.000000
G00 X23.453125 Y139.804690

G01 Z-1.000000 F100.0(Penetrate)
G02 X25.247199 Y139.746353 Z-1.000000 I0.759101 J-4.271172 F100.000000
G02 X27.064453 Y138.904300 Z-1.000000 I-1.245562 J-5.070031
G02 X29.416661 Y136.434027 Z-1.000000 I-5.499052 J-7.591258
G02 X29.976562 Y134.439450 Z-1.000000 I-2.895728 J-1.888739
G02 X29.840200 Y134.184207 Z-1.000000 I-0.325551 J0.009877
G02 X27.289062 Y132.521480 Z-1.000000 I-20.972666 J29.390079
G03 X24.741326 Y130.776882 Z-1.000000 I12.126503 J-20.441628
G03 X22.945312 Y129.113280 Z-1.000000 I9.258901 J-11.797133
G01 X21.275391 Y127.292970 Z-1.000000
G01 X20.367188 Y128.054690 Z-1.000000
G02 X18.580751 Y130.552512 Z-1.000000 I3.967498 J4.725285
G02 X18.064453 Y134.001950 Z-1.000000 I7.426416 J2.874914
G02 X18.555404 Y135.912506 Z-1.000000 I5.515541 J-0.398957
G02 X19.716797 Y137.597660 Z-1.000000 I5.414038 J-2.488520
G02 X21.728917 Y139.168579 Z-1.000000 I6.926754 J-6.798092
G02 X23.453125 Y139.804690 Z-1.000000 I2.634621 J-4.486432
G01 X23.453125 Y139.804690 Z-1.000000
G00 Z5.000000

(End cutting path id: path6759)


(Start cutting path id: path6759)
(Change tool to Cylindrical cutter)

G00 Z5.000000
G00 X72.775391 Y132.931640

G01 Z-0.998000 F100.0(Penetrate)
G02 X73.973220 Y132.615593 Z-0.998000 I-0.858276 J-5.680825 F100.000000
G02 X75.101562 Y132.019530 Z-0.998000 I-1.907286 J-4.976477
G02 X77.260560 Y129.504704 Z-0.998000 I-3.736857 J-5.392292
G02 X77.873047 Y126.337890 Z-0.998000 I-5.575045 J-2.720896
G02 X76.701442 Y122.570992 Z-0.998000 I-8.644369 J0.622979
G02 X74.566406 Y120.707030 Z-0.998000 I-3.861702 J2.268558
G02 X73.286530 Y120.196483 Z-0.998000 I-16.378608 J39.199563
G02 X73.173828 Y120.175780 Z-0.998000 I-0.112702 J0.296409
G02 X73.051585 Y120.238003 Z-0.998000 I0.000000 J0.151191
G02 X70.626953 Y123.675780 Z-0.998000 I114.347246 J83.221955
G03 X69.173452 Y125.438899 Z-0.998000 I-10.490708 J-7.167766
G03 X67.664062 Y126.673830 Z-0.998000 I-6.580397 J-6.502980
G02 X66.428286 Y128.228510 Z-0.998000 I1.735156 J2.647716
G02 X66.505859 Y129.822270 Z-0.998000 I1.917428 J0.705441
G02 X69.132635 Y132.409547 Z-0.998000 I4.934007 J-2.382256
G02 X72.775391 Y132.931640 Z-0.998000 I2.688853 J-5.791507
G01 X72.775391 Y132.931640 Z-0.998000
G00 Z5.000000

(End cutting path id: path6759)


(Start cutting path id: path6759)
(Change tool to Cylindrical cutter)

G00 Z5.000000
G00 X72.775391 Y132.931640

G01 Z-1.000000 F100.0(Penetrate)
G02 X73.973220 Y132.615593 Z-1.000000 I-0.858276 J-5.680825 F100.000000
G02 X75.101562 Y132.019530 Z-1.000000 I-1.907286 J-4.976477
G02 X77.260560 Y129.504704 Z-1.000000 I-3.736857 J-5.392292
G02 X77.873047 Y126.337890 Z-1.000000 I-5.575045 J-2.720896
G02 X76.701442 Y122.570992 Z-1.000000 I-8.644369 J0.622979
G02 X74.566406 Y120.707030 Z-1.000000 I-3.861702 J2.268558
G02 X73.286530 Y120.196483 Z-1.000000 I-16.378608 J39.199563
G02 X73.173828 Y120.175780 Z-1.000000 I-0.112702 J0.296409
G02 X73.051585 Y120.238003 Z-1.000000 I0.000000 J0.151191
G02 X70.626953 Y123.675780 Z-1.000000 I114.347246 J83.221955
G03 X69.173452 Y125.438899 Z-1.000000 I-10.490708 J-7.167766
G03 X67.664062 Y126.673830 Z-1.000000 I-6.580397 J-6.502980
G02 X66.428286 Y128.228510 Z-1.000000 I1.735156 J2.647716
G02 X66.505859 Y129.822270 Z-1.000000 I1.917428 J0.705441
G02 X69.132635 Y132.409547 Z-1.000000 I4.934007 J-2.382256
G02 X72.775391 Y132.931640 Z-1.000000 I2.688853 J-5.791507
G01 X72.775391 Y132.931640 Z-1.000000
G00 Z5.000000

(End cutting path id: path6759)


(Start cutting path id: path6759)
(Change tool to Cylindrical cutter)

G00 Z5.000000
G00 X35.800781 Y130.302730

G01 Z-0.998000 F100.0(Penetrate)
G03 X34.856027 Y129.803398 Z-0.998000 I0.147593 J-1.422670 F100.000000
G03 X34.041016 Y128.027340 Z-0.998000 I2.782229 J-2.351759
G02 X33.760892 Y126.724091 Z-0.998000 I-12.416982 J1.987214
G02 X33.531250 Y126.146480 Z-0.998000 I-2.644790 J0.717038
G03 X33.237599 Y125.590079 Z-0.998000 I43.020942 J-23.060776
G03 X32.250000 Y123.677730 Z-0.998000 I387.715903 J-201.440293
G02 X28.112748 Y118.113680 Z-0.998000 I-18.762810 J9.631241
G02 X24.410156 Y116.132810 Z-0.998000 I-5.361022 J5.569859
G01 X23.416016 Y115.914060 Z-0.998000
G01 X23.412116 Y111.958980 Z-0.998000
G02 X23.238756 Y108.021406 Z-0.998000 I-45.746956 J0.041504
G02 X22.820319 Y105.181640 Z-0.998000 I-24.163208 J2.109715
G03 X22.283794 Y102.351279 Z-0.998000 I77.636464 J-16.182854
G03 X22.037116 Y100.595700 Z-0.998000 I29.545651 J-5.046604
G02 X21.819932 Y98.834709 Z-0.998000 I-69.504800 J7.678177
G02 X21.507819 Y96.714840 Z-0.998000 I-98.441507 J13.410851
G03 X21.750776 Y86.748718 Z-0.998000 I27.299324 J-4.320511
G03 X25.263679 Y78.722660 Z-0.998000 I20.878864 J4.356606
G03 X28.362970 Y74.845256 Z-0.998000 I36.828197 J26.260195
G03 X29.511726 Y73.966800 Z-0.998000 I2.874012 J2.568000
G02 X30.485352 Y73.418740 Z-0.998000 I-5.149477 J-10.286866
G02 X31.220710 Y72.892580 Z-0.998000 I-4.027569 J-6.405856
G03 X33.643059 Y71.471739 Z-0.998000 I5.900132 J7.283642
G03 X38.628913 Y69.933590 Z-0.998000 I11.982175 J29.989979
G03 X45.205792 Y69.415663 Z-0.998000 I5.128993 J23.113229
G03 X52.210945 Y70.765620 Z-0.998000 I-1.693358 J27.637550
G03 X55.503205 Y71.998635 Z-0.998000 I-14.242073 J43.039408
G03 X56.802741 Y72.691410 Z-0.998000 I-3.078680 J7.340370
G02 X58.071263 Y73.445207 Z-0.998000 I8.781388 J-13.333438
G02 X58.757819 Y73.734380 Z-0.998000 I1.922567 J-3.604970
G03 X61.493990 Y75.759879 Z-0.998000 I-1.589450 J5.007974
G03 X65.361335 Y83.310550 Z-0.998000 I-26.878760 J18.532649
G03 X66.522885 Y89.238434 Z-0.998000 I-19.088374 J6.818048
G03 X66.457038 Y108.226560 Z-0.998000 I-200.186530 J8.799973
G02 X66.445978 Y112.669245 Z-0.998000 I45.876651 J2.335569
G02 X66.826179 Y116.250000 Z-0.998000 I30.045758 J-1.379670
G03 X67.297797 Y119.795166 Z-0.998000 I-52.778841 J8.825191
G03 X67.212898 Y120.162110 Z-0.998000 I-0.584812 J0.057987
G03 X66.940779 Y120.249739 Z-0.998000 I-0.187482 J-0.115870
G03 X64.808601 Y119.162110 Z-0.998000 I5.932326 J-14.263446
G02 X60.238853 Y117.090046 Z-0.998000 I-10.628305 J17.364641
G02 X56.343757 Y116.523440 Z-0.998000 I-3.728994 J11.963139
G02 X53.988512 Y116.649059 Z-0.998000 I0.391983 J29.491523
G02 X53.736335 Y116.767580 Z-0.998000 I0.038257 J0.408937
G02 X53.652769 Y117.013552 Z-0.998000 I0.207760 J0.207765
G02 X53.972663 Y118.578120 Z-0.998000 I11.116400 J-1.457889
G03 X54.417554 Y124.329835 Z-0.998000 I-14.277318 J3.997403
G03 X52.796882 Y128.447270 Z-0.998000 I-8.663385 J-1.032337
G03 X52.278791 Y128.592622 Z-0.998000 I-0.351555 J-0.257064
G03 X50.865241 Y127.648440 Z-0.998000 I1.664608 J-4.022328
G03 X48.465058 Y124.386446 Z-0.998000 I9.515624 J-9.515646
G03 X47.388679 Y121.023440 Z-0.998000 I9.053535 J-4.751474
G02 X47.022837 Y119.521726 Z-0.998000 I-7.465122 J1.023205
G02 X46.755866 Y119.248050 Z-0.998000 I-0.430840 J0.153232
G02 X45.429616 Y119.390209 Z-0.998000 I-0.524291 J1.366308
G02 X40.287116 Y123.486330 Z-0.998000 I19.469820 J29.719659
G02 X37.798467 Y126.475216 Z-0.998000 I12.139690 J12.638432
G02 X36.886726 Y128.640620 Z-0.998000 I5.342223 J3.523983
G03 X36.634792 Y129.498380 Z-0.998000 I-6.091222 J-1.323187
G03 X36.369148 Y130.025390 Z-0.998000 I-2.531003 J-0.945318
G03 X36.103503 Y130.253619 Z-0.998000 I-0.522779 J-0.339770
G03 X35.800788 Y130.302730 Z-0.998000 I-0.242104 J-0.534799
G01 X35.800781 Y130.302730 Z-0.998000
G00 Z5.000000

(End cutting path id: path6759)


(Start cutting path id: path6759)
(Change tool to Cylindrical cutter)

G00 Z5.000000
G00 X35.800781 Y130.302730

G01 Z-1.000000 F100.0(Penetrate)
G03 X34.856027 Y129.803398 Z-1.000000 I0.147593 J-1.422670 F100.000000
G03 X34.041016 Y128.027340 Z-1.000000 I2.782229 J-2.351759
G02 X33.760892 Y126.724091 Z-1.000000 I-12.416982 J1.987214
G02 X33.531250 Y126.146480 Z-1.000000 I-2.644790 J0.717038
G03 X33.237599 Y125.590079 Z-1.000000 I43.020942 J-23.060776
G03 X32.250000 Y123.677730 Z-1.000000 I387.715903 J-201.440293
G02 X28.112748 Y118.113680 Z-1.000000 I-18.762810 J9.631241
G02 X24.410156 Y116.132810 Z-1.000000 I-5.361022 J5.569859
G01 X23.416016 Y115.914060 Z-1.000000
G01 X23.412116 Y111.958980 Z-1.000000
G02 X23.238756 Y108.021406 Z-1.000000 I-45.746956 J0.041504
G02 X22.820319 Y105.181640 Z-1.000000 I-24.163208 J2.109715
G03 X22.283794 Y102.351279 Z-1.000000 I77.636464 J-16.182854
G03 X22.037116 Y100.595700 Z-1.000000 I29.545651 J-5.046604
G02 X21.819932 Y98.834709 Z-1.000000 I-69.504800 J7.678177
G02 X21.507819 Y96.714840 Z-1.000000 I-98.441507 J13.410851
G03 X21.750776 Y86.748718 Z-1.000000 I27.299324 J-4.320511
G03 X25.263679 Y78.722660 Z-1.000000 I20.878864 J4.356606
G03 X28.362970 Y74.845256 Z-1.000000 I36.828197 J26.260195
G03 X29.511726 Y73.966800 Z-1.000000 I2.874012 J2.568000
G02 X30.485352 Y73.418740 Z-1.000000 I-5.149477 J-10.286866
G02 X31.220710 Y72.892580 Z-1.000000 I-4.027569 J-6.405856
G03 X33.643059 Y71.471739 Z-1.000000 I5.900132 J7.283642
G03 X38.628913 Y69.933590 Z-1.000000 I11.982175 J29.989979
G03 X45.205792 Y69.415663 Z-1.000000 I5.128993 J23.113229
G03 X52.210945 Y70.765620 Z-1.000000 I-1.693358 J27.637550
G03 X55.503205 Y71.998635 Z-1.000000 I-14.242073 J43.039408
G03 X56.802741 Y72.691410 Z-1.000000 I-3.078680 J7.340370
G02 X58.071263 Y73.445207 Z-1.000000 I8.781388 J-13.333438
G02 X58.757819 Y73.734380 Z-1.000000 I1.922567 J-3.604970
G03 X61.493990 Y75.759879 Z-1.000000 I-1.589450 J5.007974
G03 X65.361335 Y83.310550 Z-1.000000 I-26.878760 J18.532649
G03 X66.522885 Y89.238434 Z-1.000000 I-19.088374 J6.818048
G03 X66.457038 Y108.226560 Z-1.000000 I-200.186530 J8.799973
G02 X66.445978 Y112.669245 Z-1.000000 I45.876651 J2.335569
G02 X66.826179 Y116.250000 Z-1.000000 I30.045758 J-1.379670
G03 X67.297797 Y119.795166 Z-1.000000 I-52.778841 J8.825191
G03 X67.212898 Y120.162110 Z-1.000000 I-0.584812 J0.057987
G03 X66.940779 Y120.249739 Z-1.000000 I-0.187482 J-0.115870
G03 X64.808601 Y119.162110 Z-1.000000 I5.932326 J-14.263446
G02 X60.238853 Y117.090046 Z-1.000000 I-10.628305 J17.364641
G02 X56.343757 Y116.523440 Z-1.000000 I-3.728994 J11.963139
G02 X53.988512 Y116.649059 Z-1.000000 I0.391983 J29.491523
G02 X53.736335 Y116.767580 Z-1.000000 I0.038257 J0.408937
G02 X53.652769 Y117.013552 Z-1.000000 I0.207760 J0.207765
G02 X53.972663 Y118.578120 Z-1.000000 I11.116400 J-1.457889
G03 X54.417554 Y124.329835 Z-1.000000 I-14.277318 J3.997403
G03 X52.796882 Y128.447270 Z-1.000000 I-8.663385 J-1.032337
G03 X52.278791 Y128.592622 Z-1.000000 I-0.351555 J-0.257064
G03 X50.865241 Y127.648440 Z-1.000000 I1.664608 J-4.022328
G03 X48.465058 Y124.386446 Z-1.000000 I9.515624 J-9.515646
G03 X47.388679 Y121.023440 Z-1.000000 I9.053535 J-4.751474
G02 X47.022837 Y119.521726 Z-1.000000 I-7.465122 J1.023205
G02 X46.755866 Y119.248050 Z-1.000000 I-0.430840 J0.153232
G02 X45.429616 Y119.390209 Z-1.000000 I-0.524291 J1.366308
G02 X40.287116 Y123.486330 Z-1.000000 I19.469820 J29.719659
G02 X37.798467 Y126.475216 Z-1.000000 I12.139690 J12.638432
G02 X36.886726 Y128.640620 Z-1.000000 I5.342223 J3.523983
G03 X36.634792 Y129.498380 Z-1.000000 I-6.091222 J-1.323187
G03 X36.369148 Y130.025390 Z-1.000000 I-2.531003 J-0.945318
G03 X36.103503 Y130.253619 Z-1.000000 I-0.522779 J-0.339770
G03 X35.800788 Y130.302730 Z-1.000000 I-0.242104 J-0.534799
G01 X35.800781 Y130.302730 Z-1.000000
G00 Z5.000000

(End cutting path id: path6759)


(Start cutting path id: path6759)
(Change tool to Cylindrical cutter)

G00 Z5.000000
G00 X51.812500 Y124.535160

G01 Z-0.998000 F100.0(Penetrate)
G01 X52.054688 Y123.570310 Z-0.998000 F100.000000
G02 X52.174528 Y121.232335 Z-0.998000 I-5.868351 J-1.472858
G02 X51.140625 Y117.238280 Z-0.998000 I-18.627922 J2.691186
G03 X51.373543 Y115.680109 Z-0.998000 I1.504378 J-0.571617
G03 X53.269531 Y114.494140 Z-0.998000 I2.562743 J1.988487
G03 X59.153820 Y114.056588 Z-0.998000 I4.579702 J21.803455
G03 X62.775391 Y115.050780 Z-0.998000 I-0.529130 J9.020777
G02 X63.823468 Y115.566243 Z-0.998000 I13.301845 J-25.723022
G02 X63.923828 Y115.587890 Z-0.998000 I0.097584 J-0.208953
G02 X63.977338 Y115.534484 Z-0.998000 I-0.000784 J-0.054296
G02 X64.140625 Y102.447270 Z-0.998000 I-1669.527558 J-27.375019
G02 X63.901690 Y89.347547 Z-0.998000 I-244.509284 J-2.092272
G02 X63.388672 Y85.769530 Z-0.998000 I-18.570206 J0.836821
G02 X61.520114 Y81.105004 Z-0.998000 I-17.338603 J4.239131
G02 X58.500000 Y77.277340 Z-0.998000 I-14.546042 J8.371855
G02 X54.669918 Y74.617515 Z-0.998000 I-10.713254 J11.339294
G02 X50.093750 Y73.142580 Z-0.998000 I-7.332045 J14.912046
G02 X42.699583 Y72.604028 Z-0.998000 I-6.556052 J38.983522
G02 X36.679688 Y73.427730 Z-0.998000 I0.562382 J26.519640
G02 X33.531819 Y74.690995 Z-0.998000 I3.225064 J12.590028
G02 X29.558594 Y77.435550 Z-0.998000 I12.887213 J22.904747
G02 X27.109897 Y80.273718 Z-0.998000 I7.435114 J8.890240
G02 X24.833984 Y85.150390 Z-0.998000 I20.390447 J12.485512
G02 X23.803436 Y90.736350 Z-0.998000 I19.100748 J6.411920
G02 X24.279297 Y98.656250 Z-0.998000 I39.305029 J1.612633
G03 X24.940306 Y103.073505 Z-0.998000 I-176.488385 J28.668247
G03 X25.626953 Y108.490230 Z-0.998000 I-271.617002 J37.183202
G01 X26.259766 Y113.914060 Z-0.998000
G01 X27.587891 Y114.751950 Z-0.998000
G02 X28.933605 Y115.521978 Z-0.998000 I9.545867 J-15.121606
G02 X29.205078 Y115.587890 Z-0.998000 I0.271473 J-0.526106
G03 X29.803354 Y115.854968 Z-0.998000 I-0.000000 J0.803632
G03 X32.458053 Y119.049739 Z-0.998000 I-40.988195 J36.759540
G03 X34.857443 Y122.408638 Z-0.998000 I-46.336684 J35.636504
G03 X35.242188 Y123.437500 Z-0.998000 I-2.033593 J1.346836
G03 X35.267213 Y123.702655 Z-0.998000 I-3.614081 J0.474857
G03 X35.277348 Y124.054690 Z-0.998000 I-6.109107 J0.352035
G02 X35.734926 Y124.376346 Z-0.998000 I0.341843 J0.000000
G02 X36.601566 Y123.578120 Z-0.998000 I-0.513462 J-1.427042
G03 X38.089400 Y121.635276 Z-0.998000 I4.968601 J2.263850
G03 X43.029008 Y117.958964 Z-0.998000 I38.175641 J46.137319
G03 X48.010591 Y115.108856 Z-0.998000 I23.200361 J34.772326
G03 X48.708988 Y115.500000 Z-0.998000 I0.212716 J0.439266
G02 X49.580232 Y119.956335 Z-0.998000 I23.990635 J-2.376996
G02 X50.955082 Y123.097660 Z-0.998000 I13.170600 J-3.892796
G01 X51.812500 Y124.535160 Z-0.998000
G00 Z5.000000

(End cutting path id: path6759)


(Start cutting path id: path6759)
(Change tool to Cylindrical cutter)

G00 Z5.000000
G00 X51.812500 Y124.535160

G01 Z-1.000000 F100.0(Penetrate)
G01 X52.054688 Y123.570310 Z-1.000000 F100.000000
G02 X52.174528 Y121.232335 Z-1.000000 I-5.868351 J-1.472858
G02 X51.140625 Y117.238280 Z-1.000000 I-18.627922 J2.691186
G03 X51.373543 Y115.680109 Z-1.000000 I1.504378 J-0.571617
G03 X53.269531 Y114.494140 Z-1.000000 I2.562743 J1.988487
G03 X59.153820 Y114.056588 Z-1.000000 I4.579702 J21.803455
G03 X62.775391 Y115.050780 Z-1.000000 I-0.529130 J9.020777
G02 X63.823468 Y115.566243 Z-1.000000 I13.301845 J-25.723022
G02 X63.923828 Y115.587890 Z-1.000000 I0.097584 J-0.208953
G02 X63.977338 Y115.534484 Z-1.000000 I-0.000784 J-0.054296
G02 X64.140625 Y102.447270 Z-1.000000 I-1669.527558 J-27.375019
G02 X63.901690 Y89.347547 Z-1.000000 I-244.509284 J-2.092272
G02 X63.388672 Y85.769530 Z-1.000000 I-18.570206 J0.836821
G02 X61.520114 Y81.105004 Z-1.000000 I-17.338603 J4.239131
G02 X58.500000 Y77.277340 Z-1.000000 I-14.546042 J8.371855
G02 X54.669918 Y74.617515 Z-1.000000 I-10.713254 J11.339294
G02 X50.093750 Y73.142580 Z-1.000000 I-7.332045 J14.912046
G02 X42.699583 Y72.604028 Z-1.000000 I-6.556052 J38.983522
G02 X36.679688 Y73.427730 Z-1.000000 I0.562382 J26.519640
G02 X33.531819 Y74.690995 Z-1.000000 I3.225064 J12.590028
G02 X29.558594 Y77.435550 Z-1.000000 I12.887213 J22.904747
G02 X27.109897 Y80.273718 Z-1.000000 I7.435114 J8.890240
G02 X24.833984 Y85.150390 Z-1.000000 I20.390447 J12.485512
G02 X23.803436 Y90.736350 Z-1.000000 I19.100748 J6.411920
G02 X24.279297 Y98.656250 Z-1.000000 I39.305029 J1.612633
G03 X24.940306 Y103.073505 Z-1.000000 I-176.488385 J28.668247
G03 X25.626953 Y108.490230 Z-1.000000 I-271.617002 J37.183202
G01 X26.259766 Y113.914060 Z-1.000000
G01 X27.587891 Y114.751950 Z-1.000000
G02 X28.933605 Y115.521978 Z-1.000000 I9.545867 J-15.121606
G02 X29.205078 Y115.587890 Z-1.000000 I0.271473 J-0.526106
G03 X29.803354 Y115.854968 Z-1.000000 I-0.000000 J0.803632
G03 X32.458053 Y119.049739 Z-1.000000 I-40.988195 J36.759540
G03 X34.857443 Y122.408638 Z-1.000000 I-46.336684 J35.636504
G03 X35.242188 Y123.437500 Z-1.000000 I-2.033593 J1.346836
G03 X35.267213 Y123.702655 Z-1.000000 I-3.614081 J0.474857
G03 X35.277348 Y124.054690 Z-1.000000 I-6.109107 J0.352035
G02 X35.734926 Y124.376346 Z-1.000000 I0.341843 J0.000000
G02 X36.601566 Y123.578120 Z-1.000000 I-0.513462 J-1.427042
G03 X38.089400 Y121.635276 Z-1.000000 I4.968601 J2.263850
G03 X43.029008 Y117.958964 Z-1.000000 I38.175641 J46.137319
G03 X48.010591 Y115.108856 Z-1.000000 I23.200361 J34.772326
G03 X48.708988 Y115.500000 Z-1.000000 I0.212716 J0.439266
G02 X49.580232 Y119.956335 Z-1.000000 I23.990635 J-2.376996
G02 X50.955082 Y123.097660 Z-1.000000 I13.170600 J-3.892796
G01 X51.812500 Y124.535160 Z-1.000000
G00 Z5.000000

(End cutting path id: path6759)


(Start cutting path id: path6759)
(Change tool to Cylindrical cutter)

G00 Z5.000000
G00 X111.841800 Y123.703120

G01 Z-0.998000 F100.0(Penetrate)
G02 X111.988933 Y123.630543 Z-0.998000 I0.000356 J-0.184705 F100.000000
G02 X112.679690 Y122.605470 Z-0.998000 I-8.273910 J-6.320743
G03 X114.816069 Y120.849344 Z-0.998000 I3.479526 J2.055399
G03 X121.455080 Y119.513670 Z-0.998000 I8.049389 J22.842203
G02 X125.679225 Y118.925088 Z-0.998000 I-1.550340 J-26.578754
G02 X127.802730 Y118.103520 Z-0.998000 I-1.646564 J-7.410963
G02 X130.790836 Y115.329452 Z-0.998000 I-4.467810 J-7.808894
G02 X132.281250 Y111.472660 Z-0.998000 I-7.673346 J-5.181652
G02 X132.618560 Y109.061441 Z-0.998000 I-262.280579 J-37.920155
G02 X132.636720 Y108.845700 Z-0.998000 I-2.128533 J-0.287802
G02 X132.547705 Y108.692928 Z-0.998000 I-0.166040 J-0.005573
G02 X131.083980 Y108.033200 Z-0.998000 I-6.350265 J12.135574
G03 X129.363316 Y106.743782 Z-0.998000 I1.396221 J-3.655964
G03 X128.521480 Y104.658200 Z-0.998000 I3.410075 J-2.589156
G02 X128.159249 Y102.949917 Z-0.998000 I-9.535421 J1.129383
G02 X127.917970 Y102.710940 Z-0.998000 I-0.344558 J0.106587
G03 X127.529779 Y102.594485 Z-0.998000 I57.015444 J-190.760326
G02 X125.087890 Y101.859380 Z-0.998000 I-6231.665059 J20695.841179
G02 X119.118719 Y101.584414 Z-0.998000 I-3.531406 J11.733314
G02 X113.574220 Y104.197270 Z-0.998000 I2.563958 J12.629900
G02 X110.846882 Y108.147487 Z-0.998000 I5.352117 J6.611871
G02 X109.576170 Y116.330080 Z-0.998000 I24.060855 J7.926484
G02 X109.938540 Y119.981308 Z-0.998000 I20.682424 J-0.209052
G02 X110.632810 Y121.884770 Z-0.998000 I6.170192 J-1.172176
G02 X111.698259 Y123.625981 Z-0.998000 I23.820402 J-13.379147
G02 X111.841800 Y123.703120 Z-0.998000 I0.143874 J-0.095603
G01 X111.841800 Y123.703120 Z-0.998000
G00 Z5.000000

(End cutting path id: path6759)


(Start cutting path id: path6759)
(Change tool to Cylindrical cutter)

G00 Z5.000000
G00 X111.841800 Y123.703120

G01 Z-1.000000 F100.0(Penetrate)
G02 X111.988933 Y123.630543 Z-1.000000 I0.000356 J-0.184705 F100.000000
G02 X112.679690 Y122.605470 Z-1.000000 I-8.273910 J-6.320743
G03 X114.816069 Y120.849344 Z-1.000000 I3.479526 J2.055399
G03 X121.455080 Y119.513670 Z-1.000000 I8.049389 J22.842203
G02 X125.679225 Y118.925088 Z-1.000000 I-1.550340 J-26.578754
G02 X127.802730 Y118.103520 Z-1.000000 I-1.646564 J-7.410963
G02 X130.790836 Y115.329452 Z-1.000000 I-4.467810 J-7.808894
G02 X132.281250 Y111.472660 Z-1.000000 I-7.673346 J-5.181652
G02 X132.618560 Y109.061441 Z-1.000000 I-262.280579 J-37.920155
G02 X132.636720 Y108.845700 Z-1.000000 I-2.128533 J-0.287802
G02 X132.547705 Y108.692928 Z-1.000000 I-0.166040 J-0.005573
G02 X131.083980 Y108.033200 Z-1.000000 I-6.350265 J12.135574
G03 X129.363316 Y106.743782 Z-1.000000 I1.396221 J-3.655964
G03 X128.521480 Y104.658200 Z-1.000000 I3.410075 J-2.589156
G02 X128.159249 Y102.949917 Z-1.000000 I-9.535421 J1.129383
G02 X127.917970 Y102.710940 Z-1.000000 I-0.344558 J0.106587
G03 X127.529779 Y102.594485 Z-1.000000 I57.015444 J-190.760326
G02 X125.087890 Y101.859380 Z-1.000000 I-6231.665059 J20695.841179
G02 X119.118719 Y101.584414 Z-1.000000 I-3.531406 J11.733314
G02 X113.574220 Y104.197270 Z-1.000000 I2.563958 J12.629900
G02 X110.846882 Y108.147487 Z-1.000000 I5.352117 J6.611871
G02 X109.576170 Y116.330080 Z-1.000000 I24.060855 J7.926484
G02 X109.938540 Y119.981308 Z-1.000000 I20.682424 J-0.209052
G02 X110.632810 Y121.884770 Z-1.000000 I6.170192 J-1.172176
G02 X111.698259 Y123.625981 Z-1.000000 I23.820402 J-13.379147
G02 X111.841800 Y123.703120 Z-1.000000 I0.143874 J-0.095603
G01 X111.841800 Y123.703120 Z-1.000000
G00 Z5.000000

(End cutting path id: path6759)


(Start cutting path id: path6759)
(Change tool to Cylindrical cutter)

G00 Z5.000000
G00 X131.941410 Y105.886720

G01 Z-0.998000 F100.0(Penetrate)
G01 X132.843750 Y104.828120 Z-0.998000 F100.000000
G02 X135.368544 Y99.942935 Z-0.998000 I-9.215598 J-7.857901
G02 X136.042970 Y92.193360 Z-0.998000 I-23.493879 J-5.948747
G02 X134.986355 Y88.157094 Z-0.998000 I-11.515192 J0.858017
G02 X132.203120 Y83.988280 Z-0.998000 I-15.092831 J7.062967
G03 X130.603863 Y82.123259 Z-0.998000 I29.458623 J-26.878984
G03 X130.527340 Y81.906250 Z-0.998000 I0.269443 J-0.217009
G02 X130.448248 Y81.696730 Z-0.998000 I-0.317063 J0.000000
G02 X129.734380 Y81.007810 Z-0.998000 I-4.585744 J4.037490
G02 X128.922309 Y80.682842 Z-0.998000 I-0.920923 J1.124181
G02 X128.123050 Y80.886720 Z-0.998000 I-0.096824 J1.289022
G03 X126.742418 Y80.531845 Z-0.998000 I-0.526757 J-0.813760
G03 X126.972660 Y78.746090 Z-0.998000 I1.362234 J-0.732084
G02 X129.908795 Y74.682625 Z-0.998000 I-14.851276 J-13.823588
G02 X130.527340 Y72.269530 Z-0.998000 I-4.397763 J-2.413095
G03 X130.608725 Y71.627728 Z-0.998000 I2.571322 J0.000000
G03 X131.460940 Y68.642580 Z-0.998000 I58.218512 J15.006294
G02 X132.050863 Y65.616483 Z-0.998000 I-13.232820 J-4.150222
G02 X132.462890 Y56.322270 Z-0.998000 I-125.869266 J-10.236227
G03 X132.720671 Y47.008815 Z-0.998000 I230.594046 J1.722166
G03 X132.964840 Y45.857420 Z-0.998000 I3.664802 J0.175584
G03 X133.866292 Y44.632120 Z-0.998000 I2.715318 J1.053408
G03 X137.333980 Y42.378910 Z-0.998000 I13.422763 J16.862629
G02 X138.499322 Y41.544610 Z-0.998000 I-2.352060 J-4.516353
G02 X138.865230 Y40.916020 Z-0.998000 I-0.905516 J-0.947903
G02 X138.879961 Y40.158415 Z-0.998000 I-1.635527 J-0.410747
G02 X138.156250 Y37.541020 Z-0.998000 I-21.242971 J4.464941
G03 X137.347822 Y34.910103 Z-0.998000 I38.007765 J-13.118680
G03 X137.078120 Y33.544920 Z-0.998000 I9.764653 J-2.638316
G02 X136.894604 Y32.158454 Z-0.998000 I-128.296271 J16.276217
G02 X136.544920 Y29.687500 Z-0.998000 I-345.304396 J47.606517
G03 X136.110064 Y23.823265 Z-0.998000 I41.520373 J-6.027138
G03 X136.503920 Y18.863280 Z-0.998000 I29.963337 J-0.116341
G02 X136.663480 Y10.428658 Z-0.998000 I-29.118528 J-4.769663
G02 X134.886730 Y5.951170 Z-0.998000 I-9.539311 J1.194108
G02 X133.401690 Y4.677527 Z-0.998000 I-3.451434 J2.521714
G02 X129.660170 Y3.244140 Z-0.998000 I-8.233237 J15.891053
G02 X125.428434 Y2.656690 Z-0.998000 I-4.642170 J17.904673
G02 X122.210950 Y3.078120 Z-0.998000 I-0.237105 J10.682739
G02 X121.157923 Y3.467776 Z-0.998000 I2.185152 J7.522975
G02 X118.861340 Y4.597660 Z-0.998000 I17.022911 J37.499420
G01 X116.593760 Y5.802730 Z-0.998000
G01 X116.416030 Y8.216800 Z-0.998000
G03 X116.011329 Y10.426610 Z-0.998000 I-10.373756 J-0.757867
G03 X115.664070 Y10.740230 Z-0.998000 I-0.431170 J-0.128354
G03 X114.312084 Y9.827180 Z-0.998000 I-0.215960 J-1.137712
G03 X114.662120 Y5.671880 Z-0.998000 I7.419840 J-1.467357
G02 X114.951485 Y4.735124 Z-0.998000 I-7.189657 J-2.733964
G02 X114.916030 Y4.609380 Z-0.998000 I-0.129955 J-0.031228
G02 X113.232178 Y4.180692 Z-0.998000 I-1.202684 J1.202684
G02 X108.832040 Y6.404300 Z-0.998000 I3.871732 J13.126855
G02 X107.015277 Y8.823184 Z-0.998000 I3.336210 J4.397448
G02 X106.185560 Y13.298830 Z-0.998000 I11.656373 J4.475646
G02 X107.114830 Y18.016297 Z-0.998000 I12.438813 J-0.000000
G02 X109.109390 Y20.433590 Z-0.998000 I4.892326 J-2.005239
G02 X110.079682 Y20.929093 Z-0.998000 I2.772403 J-4.231149
G02 X112.382820 Y21.681640 Z-0.998000 I8.913330 J-23.378254
G03 X114.813548 Y23.245995 Z-0.998000 I-1.273781 J4.649865
G03 X115.699230 Y25.664060 Z-0.998000 I-2.938595 J2.447575
G03 X115.496604 Y27.190398 Z-0.998000 I-5.513441 J0.044692
G03 X115.093760 Y27.837890 Z-0.998000 I-1.308559 J-0.365070
G03 X113.222312 Y28.889730 Z-0.998000 I-3.313079 J-3.703900
G03 X109.777350 Y29.449220 Z-0.998000 I-3.808203 J-12.562734
G02 X106.659831 Y30.033693 Z-0.998000 I0.279306 J10.096291
G02 X105.111340 Y31.117190 Z-0.998000 I1.202197 J3.366401
G03 X104.639951 Y31.524606 Z-0.998000 I-1.456496 J-1.208787
G03 X104.275400 Y31.626950 Z-0.998000 I-0.364551 J-0.598095
G02 X103.203707 Y32.078739 Z-0.998000 I-0.000000 J1.496982
G02 X100.314460 Y35.685550 Z-0.998000 I16.993593 J16.573392
G02 X98.659833 Y39.324063 Z-0.998000 I11.123011 J7.253711
G02 X97.947276 Y44.054690 Z-0.998000 I18.283300 J5.172924
G03 X97.553000 Y45.916855 Z-0.998000 I-5.162338 J-0.120198
G03 X97.027354 Y46.267580 Z-0.998000 I-0.525646 J-0.218542
G03 X96.362997 Y45.996227 Z-0.998000 I-0.000000 J-0.948954
G03 X95.818369 Y45.082030 Z-0.998000 I1.460023 J-1.489129
G03 X95.685512 Y41.614792 Z-0.998000 I6.987198 J-2.003899
G03 X97.667979 Y36.082030 Z-0.998000 I20.430277 J4.198904
G03 X99.628811 Y32.617755 Z-0.998000 I59.419218 J31.345105
G03 X100.365240 Y31.628910 Z-0.998000 I5.533096 J3.352054
G02 X100.885736 Y30.927455 Z-0.998000 I-3.337167 J-3.020094
G02 X100.863290 Y30.800780 Z-0.998000 I-0.083941 J-0.050452
G02 X99.653047 Y30.118296 Z-0.998000 I-2.648797 J3.282788
G02 X96.943369 Y29.378910 Z-0.998000 I-5.873201 J16.189066
G03 X96.131380 Y29.225979 Z-0.998000 I55.203614 J-295.336031
G03 X93.181651 Y28.664060 Z-0.998000 I395.768070 J-2085.562512
G02 X87.250810 Y28.077406 Z-0.998000 I-6.202976 J32.437091
G02 X82.726572 Y28.578160 Z-0.998000 I-0.158670 J19.254723
G01 X80.962901 Y28.988320 Z-0.998000
G01 X80.962901 Y32.160200 Z-0.998000
G02 X81.031033 Y35.328997 Z-0.998000 I73.723569 J0.000000
G02 X81.248057 Y38.771520 Z-0.998000 I86.318201 J-3.713573
G03 X81.183176 Y41.887278 Z-0.998000 I-14.995487 J1.246296
G03 X80.816416 Y42.210980 Z-0.998000 I-0.366760 J-0.045922
G03 X79.219390 Y40.898117 Z-0.998000 I0.000000 J-1.627779
G03 X78.521494 Y30.572310 Z-0.998000 I40.018820 J-7.891261
G02 X78.396467 Y14.377885 Z-0.998000 I-119.942978 J-7.171690
G02 X76.994151 Y10.285200 Z-0.998000 I-8.553237 J0.644090
G02 X73.288335 Y7.118239 Z-0.998000 I-7.388818 J4.894358
G02 X66.712901 Y5.587930 Z-0.998000 I-7.064393 J15.462471
G02 X60.146590 Y6.054887 Z-0.998000 I-0.950529 J33.034664
G02 X57.589854 Y7.162150 Z-0.998000 I1.004355 J5.824576
G02 X56.008648 Y9.261705 Z-0.998000 I2.878379 J3.812942
G02 X55.462901 Y12.699260 Z-0.998000 I7.816162 J3.002994
G02 X55.693972 Y15.199509 Z-0.998000 I31.168931 J-1.619810
G02 X55.880869 Y15.841840 Z-0.998000 I2.207660 J-0.293999
G03 X55.813118 Y16.232837 Z-0.998000 I-0.316306 J0.146560
G03 X55.273448 Y16.459020 Z-0.998000 I-0.539670 J-0.530732
G03 X54.002891 Y15.924395 Z-0.998000 I-0.000000 J-1.777077
G03 X52.931651 Y14.064490 Z-0.998000 I3.081379 J-3.013216
G03 X52.577744 Y11.173297 Z-0.998000 I9.446766 J-2.623623
G03 X53.074229 Y8.861370 Z-0.998000 I6.451239 J0.176126
G02 X53.424782 Y7.746446 Z-0.998000 I-5.924787 J-2.475437
G02 X53.337901 Y7.638710 Z-0.998000 I-0.086881 J-0.018836
G02 X53.114499 Y7.710915 Z-0.998000 I0.000000 J0.381705
G02 X51.150401 Y9.218790 Z-0.998000 I24.543986 J34.003138
G02 X47.922673 Y13.803802 Z-0.998000 I6.569760 J8.053564
G02 X47.781260 Y18.734420 Z-0.998000 I7.583777 J2.684844
G02 X48.658661 Y20.548743 Z-0.998000 I5.802907 J-1.686953
G02 X51.255869 Y23.623090 Z-0.998000 I19.665231 J-13.978949
G02 X54.179609 Y26.490405 Z-0.998000 I142.351736 J-142.228765
G02 X54.857432 Y27.084020 Z-0.998000 I6.756680 J-7.031355
G03 X56.622529 Y29.541762 Z-0.998000 I-3.474110 J4.357729
G03 X57.443369 Y34.212930 Z-0.998000 I-12.880730 J4.671168
G03 X56.486871 Y40.195663 Z-0.998000 I-19.188744 J-0.000000
G03 X55.166026 Y41.152380 Z-0.998000 I-1.320845 J-0.433422
G03 X54.631374 Y40.848703 Z-0.998000 I-0.000000 J-0.622491
G03 X54.328135 Y39.748090 Z-0.998000 I1.845731 J-1.100613
G03 X54.403983 Y38.350321 Z-0.998000 I12.917391 J-0.000000
G03 X54.751963 Y35.865270 Z-0.998000 I40.628907 J4.422353
G02 X54.498011 Y31.655841 Z-0.998000 I-9.112542 J-1.562620
G02 X52.460948 Y28.203160 Z-0.998000 I-7.991718 J2.387800
G02 X50.573933 Y26.467575 Z-0.998000 I-17.792952 J17.451767
G02 X50.208994 Y26.335980 Z-0.998000 I-0.364939 J0.440227
G03 X47.799511 Y25.051575 Z-0.998000 I0.000000 J-2.902240
G03 X45.611338 Y19.488320 Z-0.998000 I11.548865 J-7.754430
G02 X44.619611 Y17.642496 Z-0.998000 I-3.148301 J0.502193
G02 X43.105479 Y17.185590 Z-0.998000 I-1.230178 J1.339383
G02 X37.877374 Y20.145672 Z-0.998000 I1.337135 J8.458639
G02 X36.042979 Y25.619180 Z-0.998000 I6.059385 J5.074891
G03 X35.817928 Y27.641900 Z-0.998000 I-6.329658 J0.319633
G03 X35.367198 Y28.037150 Z-0.998000 I-0.527783 J-0.147243
G03 X34.508610 Y27.510882 Z-0.998000 I-0.111100 J-0.782257
G03 X33.867198 Y23.658240 Z-0.998000 I11.249743 J-3.852642
G01 X33.867198 Y21.027380 Z-0.998000
G01 X32.962901 Y21.621130 Z-0.998000
G02 X32.195841 Y22.335728 Z-0.998000 I1.698248 J2.591910
G02 X31.156260 Y23.994180 Z-0.998000 I8.577944 J6.532034
G02 X30.534410 Y25.826653 Z-0.998000 I6.103914 J3.093114
G02 X30.455088 Y27.730510 Z-0.998000 I6.541640 J1.226130
G02 X31.736071 Y31.879110 Z-0.998000 I11.007479 J-1.126763
G02 X33.894541 Y34.070350 Z-0.998000 I4.876525 J-2.644883
G03 X39.777877 Y39.436584 Z-0.998000 I-8.651759 J15.393709
G03 X41.751963 Y45.459020 Z-0.998000 I-9.209714 J6.353600
G01 X41.804693 Y47.199260 Z-0.998000
G01 X44.859380 Y44.052770 Z-0.998000
G02 X47.757446 Y40.788393 Z-0.998000 I-35.374603 J-34.323675
G02 X49.046880 Y38.894570 Z-0.998000 I-10.606411 J-8.607387
G03 X50.303413 Y37.145778 Z-0.998000 I8.600791 J4.853983
G03 X50.755864 Y36.992230 Z-0.998000 I0.363048 J0.326395
G03 X51.204397 Y37.267184 Z-0.998000 I-0.134722 J0.723096
G03 X52.326177 Y39.037150 Z-0.998000 I-9.218739 J7.083175
G02 X53.395874 Y40.925027 Z-0.998000 I23.624111 J-12.138755
G02 X53.970708 Y41.681680 Z-0.998000 I4.329902 J-2.692774
G03 X56.488925 Y45.400915 Z-0.998000 I-11.229927 J10.315686
G03 X57.150396 Y48.308630 Z-0.998000 I-6.060181 J2.907715
G02 X57.585839 Y48.623545 Z-0.998000 I0.331595 J0.000000
G02 X59.191411 Y47.634810 Z-0.998000 I-1.276425 J-3.870726
G03 X62.222404 Y45.910486 Z-0.998000 I4.653130 J4.653129
G03 X63.146489 Y46.628950 Z-0.998000 I0.182745 J0.718464
G02 X64.157706 Y50.302369 Z-0.998000 I7.177769 J0.000000
G02 X70.183599 Y58.443400 Z-0.998000 I43.607030 J-25.976735
G03 X72.590798 Y61.392665 Z-0.998000 I-26.811944 J24.340999
G03 X75.009771 Y65.037150 Z-0.998000 I-38.389650 J28.105588
G01 X75.687505 Y66.168010 Z-0.998000
G01 X77.197271 Y64.972700 Z-0.998000
G03 X80.130458 Y63.366781 Z-0.998000 I6.186426 J7.817741
G03 X81.148443 Y63.607460 Z-0.998000 I0.318985 J0.924003
G03 X81.295695 Y63.956969 Z-0.998000 I-0.369922 J0.361626
G03 X81.199223 Y65.847700 Z-0.998000 I-12.730669 J0.298265
G02 X81.356577 Y71.007529 Z-0.998000 I16.496369 J2.079240
G02 X83.634770 Y78.763710 Z-0.998000 I40.050449 J-7.551189
G01 X84.080082 Y79.861370 Z-0.998000
G01 X87.523442 Y80.052770 Z-0.998000
G03 X90.898212 Y80.509113 Z-0.998000 I-1.181752 J21.446144
G03 X93.195316 Y81.285200 Z-0.998000 I-2.300131 J10.595645
G02 X105.512954 Y85.969190 Z-0.998000 I37.543863 J-80.192257
G02 X112.410164 Y86.996130 Z-0.998000 I7.063716 J-23.766604
G02 X117.261733 Y86.438104 Z-0.998000 I0.135277 J-20.193050
G02 X120.554694 Y85.039100 Z-0.998000 I-2.528386 J-10.526261
G03 X123.155849 Y84.767693 Z-0.998000 I1.571890 J2.464539
G03 X128.970704 Y88.205120 Z-0.998000 I-6.866869 J18.253205
G03 X130.214087 Y89.560863 Z-0.998000 I-4.969535 J5.805715
G03 X131.871094 Y92.255900 Z-0.998000 I-18.311164 J13.115282
G03 X133.067471 Y97.039984 Z-0.998000 I-9.352200 J4.880379
G03 X131.956994 Y101.621130 Z-0.998000 I-9.641640 J0.088016
G01 X130.562464 Y104.265660 Z-0.998000
G01 X131.251914 Y105.076210 Z-0.998000
G01 X131.941410 Y105.886720 Z-0.998000
G00 Z5.000000

(End cutting path id: path6759)


(Start cutting path id: path6759)
(Change tool to Cylindrical cutter)

G00 Z5.000000
G00 X131.941410 Y105.886720

G01 Z-1.000000 F100.0(Penetrate)
G01 X132.843750 Y104.828120 Z-1.000000 F100.000000
G02 X135.368544 Y99.942935 Z-1.000000 I-9.215598 J-7.857901
G02 X136.042970 Y92.193360 Z-1.000000 I-23.493879 J-5.948747
G02 X134.986355 Y88.157094 Z-1.000000 I-11.515192 J0.858017
G02 X132.203120 Y83.988280 Z-1.000000 I-15.092831 J7.062967
G03 X130.603863 Y82.123259 Z-1.000000 I29.458623 J-26.878984
G03 X130.527340 Y81.906250 Z-1.000000 I0.269443 J-0.217009
G02 X130.448248 Y81.696730 Z-1.000000 I-0.317063 J0.000000
G02 X129.734380 Y81.007810 Z-1.000000 I-4.585744 J4.037490
G02 X128.922309 Y80.682842 Z-1.000000 I-0.920923 J1.124181
G02 X128.123050 Y80.886720 Z-1.000000 I-0.096824 J1.289022
G03 X126.742418 Y80.531845 Z-1.000000 I-0.526757 J-0.813760
G03 X126.972660 Y78.746090 Z-1.000000 I1.362234 J-0.732084
G02 X129.908795 Y74.682625 Z-1.000000 I-14.851276 J-13.823588
G02 X130.527340 Y72.269530 Z-1.000000 I-4.397763 J-2.413095
G03 X130.608725 Y71.627728 Z-1.000000 I2.571322 J0.000000
G03 X131.460940 Y68.642580 Z-1.000000 I58.218512 J15.006294
G02 X132.050863 Y65.616483 Z-1.000000 I-13.232820 J-4.150222
G02 X132.462890 Y56.322270 Z-1.000000 I-125.869266 J-10.236227
G03 X132.720671 Y47.008815 Z-1.000000 I230.594046 J1.722166
G03 X132.964840 Y45.857420 Z-1.000000 I3.664802 J0.175584
G03 X133.866292 Y44.632120 Z-1.000000 I2.715318 J1.053408
G03 X137.333980 Y42.378910 Z-1.000000 I13.422763 J16.862629
G02 X138.499322 Y41.544610 Z-1.000000 I-2.352060 J-4.516353
G02 X138.865230 Y40.916020 Z-1.000000 I-0.905516 J-0.947903
G02 X138.879961 Y40.158415 Z-1.000000 I-1.635527 J-0.410747
G02 X138.156250 Y37.541020 Z-1.000000 I-21.242971 J4.464941
G03 X137.347822 Y34.910103 Z-1.000000 I38.007765 J-13.118680
G03 X137.078120 Y33.544920 Z-1.000000 I9.764653 J-2.638316
G02 X136.894604 Y32.158454 Z-1.000000 I-128.296271 J16.276217
G02 X136.544920 Y29.687500 Z-1.000000 I-345.304396 J47.606517
G03 X136.110064 Y23.823265 Z-1.000000 I41.520373 J-6.027138
G03 X136.503920 Y18.863280 Z-1.000000 I29.963337 J-0.116341
G02 X136.663480 Y10.428658 Z-1.000000 I-29.118528 J-4.769663
G02 X134.886730 Y5.951170 Z-1.000000 I-9.539311 J1.194108
G02 X133.401690 Y4.677527 Z-1.000000 I-3.451434 J2.521714
G02 X129.660170 Y3.244140 Z-1.000000 I-8.233237 J15.891053
G02 X125.428434 Y2.656690 Z-1.000000 I-4.642170 J17.904673
G02 X122.210950 Y3.078120 Z-1.000000 I-0.237105 J10.682739
G02 X121.157923 Y3.467776 Z-1.000000 I2.185152 J7.522975
G02 X118.861340 Y4.597660 Z-1.000000 I17.022911 J37.499420
G01 X116.593760 Y5.802730 Z-1.000000
G01 X116.416030 Y8.216800 Z-1.000000
G03 X116.011329 Y10.426610 Z-1.000000 I-10.373756 J-0.757867
G03 X115.664070 Y10.740230 Z-1.000000 I-0.431170 J-0.128354
G03 X114.312084 Y9.827180 Z-1.000000 I-0.215960 J-1.137712
G03 X114.662120 Y5.671880 Z-1.000000 I7.419840 J-1.467357
G02 X114.951485 Y4.735124 Z-1.000000 I-7.189657 J-2.733964
G02 X114.916030 Y4.609380 Z-1.000000 I-0.129955 J-0.031228
G02 X113.232178 Y4.180692 Z-1.000000 I-1.202684 J1.202684
G02 X108.832040 Y6.404300 Z-1.000000 I3.871732 J13.126855
G02 X107.015277 Y8.823184 Z-1.000000 I3.336210 J4.397448
G02 X106.185560 Y13.298830 Z-1.000000 I11.656373 J4.475646
G02 X107.114830 Y18.016297 Z-1.000000 I12.438813 J-0.000000
G02 X109.109390 Y20.433590 Z-1.000000 I4.892326 J-2.005239
G02 X110.079682 Y20.929093 Z-1.000000 I2.772403 J-4.231149
G02 X112.382820 Y21.681640 Z-1.000000 I8.913330 J-23.378254
G03 X114.813548 Y23.245995 Z-1.000000 I-1.273781 J4.649865
G03 X115.699230 Y25.664060 Z-1.000000 I-2.938595 J2.447575
G03 X115.496604 Y27.190398 Z-1.000000 I-5.513441 J0.044692
G03 X115.093760 Y27.837890 Z-1.000000 I-1.308559 J-0.365070
G03 X113.222312 Y28.889730 Z-1.000000 I-3.313079 J-3.703900
G03 X109.777350 Y29.449220 Z-1.000000 I-3.808203 J-12.562734
G02 X106.659831 Y30.033693 Z-1.000000 I0.279306 J10.096291
G02 X105.111340 Y31.117190 Z-1.000000 I1.202197 J3.366401
G03 X104.639951 Y31.524606 Z-1.000000 I-1.456496 J-1.208787
G03 X104.275400 Y31.626950 Z-1.000000 I-0.364551 J-0.598095
G02 X103.203707 Y32.078739 Z-1.000000 I-0.000000 J1.496982
G02 X100.314460 Y35.685550 Z-1.000000 I16.993593 J16.573392
G02 X98.659833 Y39.324063 Z-1.000000 I11.123011 J7.253711
G02 X97.947276 Y44.054690 Z-1.000000 I18.283300 J5.172924
G03 X97.553000 Y45.916855 Z-1.000000 I-5.162338 J-0.120198
G03 X97.027354 Y46.267580 Z-1.000000 I-0.525646 J-0.218542
G03 X96.362997 Y45.996227 Z-1.000000 I-0.000000 J-0.948954
G03 X95.818369 Y45.082030 Z-1.000000 I1.460023 J-1.489129
G03 X95.685512 Y41.614792 Z-1.000000 I6.987198 J-2.003899
G03 X97.667979 Y36.082030 Z-1.000000 I20.430277 J4.198904
G03 X99.628811 Y32.617755 Z-1.000000 I59.419218 J31.345105
G03 X100.365240 Y31.628910 Z-1.000000 I5.533096 J3.352054
G02 X100.885736 Y30.927455 Z-1.000000 I-3.337167 J-3.020094
G02 X100.863290 Y30.800780 Z-1.000000 I-0.083941 J-0.050452
G02 X99.653047 Y30.118296 Z-1.000000 I-2.648797 J3.282788
G02 X96.943369 Y29.378910 Z-1.000000 I-5.873201 J16.189066
G03 X96.131380 Y29.225979 Z-1.000000 I55.203614 J-295.336031
G03 X93.181651 Y28.664060 Z-1.000000 I395.768070 J-2085.562512
G02 X87.250810 Y28.077406 Z-1.000000 I-6.202976 J32.437091
G02 X82.726572 Y28.578160 Z-1.000000 I-0.158670 J19.254723
G01 X80.962901 Y28.988320 Z-1.000000
G01 X80.962901 Y32.160200 Z-1.000000
G02 X81.031033 Y35.328997 Z-1.000000 I73.723569 J0.000000
G02 X81.248057 Y38.771520 Z-1.000000 I86.318201 J-3.713573
G03 X81.183176 Y41.887278 Z-1.000000 I-14.995487 J1.246296
G03 X80.816416 Y42.210980 Z-1.000000 I-0.366760 J-0.045922
G03 X79.219390 Y40.898117 Z-1.000000 I0.000000 J-1.627779
G03 X78.521494 Y30.572310 Z-1.000000 I40.018820 J-7.891261
G02 X78.396467 Y14.377885 Z-1.000000 I-119.942978 J-7.171690
G02 X76.994151 Y10.285200 Z-1.000000 I-8.553237 J0.644090
G02 X73.288335 Y7.118239 Z-1.000000 I-7.388818 J4.894358
G02 X66.712901 Y5.587930 Z-1.000000 I-7.064393 J15.462471
G02 X60.146590 Y6.054887 Z-1.000000 I-0.950529 J33.034664
G02 X57.589854 Y7.162150 Z-1.000000 I1.004355 J5.824576
G02 X56.008648 Y9.261705 Z-1.000000 I2.878379 J3.812942
G02 X55.462901 Y12.699260 Z-1.000000 I7.816162 J3.002994
G02 X55.693972 Y15.199509 Z-1.000000 I31.168931 J-1.619810
G02 X55.880869 Y15.841840 Z-1.000000 I2.207660 J-0.293999
G03 X55.813118 Y16.232837 Z-1.000000 I-0.316306 J0.146560
G03 X55.273448 Y16.459020 Z-1.000000 I-0.539670 J-0.530732
G03 X54.002891 Y15.924395 Z-1.000000 I-0.000000 J-1.777077
G03 X52.931651 Y14.064490 Z-1.000000 I3.081379 J-3.013216
G03 X52.577744 Y11.173297 Z-1.000000 I9.446766 J-2.623623
G03 X53.074229 Y8.861370 Z-1.000000 I6.451239 J0.176126
G02 X53.424782 Y7.746446 Z-1.000000 I-5.924787 J-2.475437
G02 X53.337901 Y7.638710 Z-1.000000 I-0.086881 J-0.018836
G02 X53.114499 Y7.710915 Z-1.000000 I0.000000 J0.381705
G02 X51.150401 Y9.218790 Z-1.000000 I24.543986 J34.003138
G02 X47.922673 Y13.803802 Z-1.000000 I6.569760 J8.053564
G02 X47.781260 Y18.734420 Z-1.000000 I7.583777 J2.684844
G02 X48.658661 Y20.548743 Z-1.000000 I5.802907 J-1.686953
G02 X51.255869 Y23.623090 Z-1.000000 I19.665231 J-13.978949
G02 X54.179609 Y26.490405 Z-1.000000 I142.351736 J-142.228765
G02 X54.857432 Y27.084020 Z-1.000000 I6.756680 J-7.031355
G03 X56.622529 Y29.541762 Z-1.000000 I-3.474110 J4.357729
G03 X57.443369 Y34.212930 Z-1.000000 I-12.880730 J4.671168
G03 X56.486871 Y40.195663 Z-1.000000 I-19.188744 J-0.000000
G03 X55.166026 Y41.152380 Z-1.000000 I-1.320845 J-0.433422
G03 X54.631374 Y40.848703 Z-1.000000 I-0.000000 J-0.622491
G03 X54.328135 Y39.748090 Z-1.000000 I1.845731 J-1.100613
G03 X54.403983 Y38.350321 Z-1.000000 I12.917391 J-0.000000
G03 X54.751963 Y35.865270 Z-1.000000 I40.628907 J4.422353
G02 X54.498011 Y31.655841 Z-1.000000 I-9.112542 J-1.562620
G02 X52.460948 Y28.203160 Z-1.000000 I-7.991718 J2.387800
G02 X50.573933 Y26.467575 Z-1.000000 I-17.792952 J17.451767
G02 X50.208994 Y26.335980 Z-1.000000 I-0.364939 J0.440227
G03 X47.799511 Y25.051575 Z-1.000000 I0.000000 J-2.902240
G03 X45.611338 Y19.488320 Z-1.000000 I11.548865 J-7.754430
G02 X44.619611 Y17.642496 Z-1.000000 I-3.148301 J0.502193
G02 X43.105479 Y17.185590 Z-1.000000 I-1.230178 J1.339383
G02 X37.877374 Y20.145672 Z-1.000000 I1.337135 J8.458639
G02 X36.042979 Y25.619180 Z-1.000000 I6.059385 J5.074891
G03 X35.817928 Y27.641900 Z-1.000000 I-6.329658 J0.319633
G03 X35.367198 Y28.037150 Z-1.000000 I-0.527783 J-0.147243
G03 X34.508610 Y27.510882 Z-1.000000 I-0.111100 J-0.782257
G03 X33.867198 Y23.658240 Z-1.000000 I11.249743 J-3.852642
G01 X33.867198 Y21.027380 Z-1.000000
G01 X32.962901 Y21.621130 Z-1.000000
G02 X32.195841 Y22.335728 Z-1.000000 I1.698248 J2.591910
G02 X31.156260 Y23.994180 Z-1.000000 I8.577944 J6.532034
G02 X30.534410 Y25.826653 Z-1.000000 I6.103914 J3.093114
G02 X30.455088 Y27.730510 Z-1.000000 I6.541640 J1.226130
G02 X31.736071 Y31.879110 Z-1.000000 I11.007479 J-1.126763
G02 X33.894541 Y34.070350 Z-1.000000 I4.876525 J-2.644883
G03 X39.777877 Y39.436584 Z-1.000000 I-8.651759 J15.393709
G03 X41.751963 Y45.459020 Z-1.000000 I-9.209714 J6.353600
G01 X41.804693 Y47.199260 Z-1.000000
G01 X44.859380 Y44.052770 Z-1.000000
G02 X47.757446 Y40.788393 Z-1.000000 I-35.374603 J-34.323675
G02 X49.046880 Y38.894570 Z-1.000000 I-10.606411 J-8.607387
G03 X50.303413 Y37.145778 Z-1.000000 I8.600791 J4.853983
G03 X50.755864 Y36.992230 Z-1.000000 I0.363048 J0.326395
G03 X51.204397 Y37.267184 Z-1.000000 I-0.134722 J0.723096
G03 X52.326177 Y39.037150 Z-1.000000 I-9.218739 J7.083175
G02 X53.395874 Y40.925027 Z-1.000000 I23.624111 J-12.138755
G02 X53.970708 Y41.681680 Z-1.000000 I4.329902 J-2.692774
G03 X56.488925 Y45.400915 Z-1.000000 I-11.229927 J10.315686
G03 X57.150396 Y48.308630 Z-1.000000 I-6.060181 J2.907715
G02 X57.585839 Y48.623545 Z-1.000000 I0.331595 J0.000000
G02 X59.191411 Y47.634810 Z-1.000000 I-1.276425 J-3.870726
G03 X62.222404 Y45.910486 Z-1.000000 I4.653130 J4.653129
G03 X63.146489 Y46.628950 Z-1.000000 I0.182745 J0.718464
G02 X64.157706 Y50.302369 Z-1.000000 I7.177769 J0.000000
G02 X70.183599 Y58.443400 Z-1.000000 I43.607030 J-25.976735
G03 X72.590798 Y61.392665 Z-1.000000 I-26.811944 J24.340999
G03 X75.009771 Y65.037150 Z-1.000000 I-38.389650 J28.105588
G01 X75.687505 Y66.168010 Z-1.000000
G01 X77.197271 Y64.972700 Z-1.000000
G03 X80.130458 Y63.366781 Z-1.000000 I6.186426 J7.817741
G03 X81.148443 Y63.607460 Z-1.000000 I0.318985 J0.924003
G03 X81.295695 Y63.956969 Z-1.000000 I-0.369922 J0.361626
G03 X81.199223 Y65.847700 Z-1.000000 I-12.730669 J0.298265
G02 X81.356577 Y71.007529 Z-1.000000 I16.496369 J2.079240
G02 X83.634770 Y78.763710 Z-1.000000 I40.050449 J-7.551189
G01 X84.080082 Y79.861370 Z-1.000000
G01 X87.523442 Y80.052770 Z-1.000000
G03 X90.898212 Y80.509113 Z-1.000000 I-1.181752 J21.446144
G03 X93.195316 Y81.285200 Z-1.000000 I-2.300131 J10.595645
G02 X105.512954 Y85.969190 Z-1.000000 I37.543863 J-80.192257
G02 X112.410164 Y86.996130 Z-1.000000 I7.063716 J-23.766604
G02 X117.261733 Y86.438104 Z-1.000000 I0.135277 J-20.193050
G02 X120.554694 Y85.039100 Z-1.000000 I-2.528386 J-10.526261
G03 X123.155849 Y84.767693 Z-1.000000 I1.571890 J2.464539
G03 X128.970704 Y88.205120 Z-1.000000 I-6.866869 J18.253205
G03 X130.214087 Y89.560863 Z-1.000000 I-4.969535 J5.805715
G03 X131.871094 Y92.255900 Z-1.000000 I-18.311164 J13.115282
G03 X133.067471 Y97.039984 Z-1.000000 I-9.352200 J4.880379
G03 X131.956994 Y101.621130 Z-1.000000 I-9.641640 J0.088016
G01 X130.562464 Y104.265660 Z-1.000000
G01 X131.251914 Y105.076210 Z-1.000000
G01 X131.941410 Y105.886720 Z-1.000000
G00 Z5.000000

(End cutting path id: path6759)


(Start cutting path id: path6759)
(Change tool to Cylindrical cutter)

G00 Z5.000000
G00 X36.013672 Y103.554690

G01 Z-0.998000 F100.0(Penetrate)
G03 X35.418944 Y103.398776 Z-0.998000 I-0.044424 J-1.042786 F100.000000
G03 X34.597656 Y102.664060 Z-0.998000 I1.673625 J-2.697219
G03 X33.974643 Y100.732679 Z-0.998000 I2.297685 J-1.807347
G03 X34.765625 Y98.699220 Z-0.998000 I3.378107 J0.143459
G03 X36.016626 Y98.163513 Z-0.998000 I1.157157 J0.973687
G03 X37.197266 Y98.849610 Z-0.998000 I-0.094608 J1.521675
G03 X37.699447 Y100.522937 Z-0.998000 I-2.568248 J1.682772
G03 X37.208986 Y102.552730 Z-0.998000 I-4.389540 J0.013504
G03 X36.574750 Y103.339212 Z-0.998000 I-2.243223 J-1.160013
G03 X36.013674 Y103.554690 Z-0.998000 I-0.601264 J-0.727387
G01 X36.013672 Y103.554690 Z-0.998000
G00 Z5.000000

(End cutting path id: path6759)


(Start cutting path id: path6759)
(Change tool to Cylindrical cutter)

G00 Z5.000000
G00 X36.013672 Y103.554690

G01 Z-1.000000 F100.0(Penetrate)
G03 X35.418944 Y103.398776 Z-1.000000 I-0.044424 J-1.042786 F100.000000
G03 X34.597656 Y102.664060 Z-1.000000 I1.673625 J-2.697219
G03 X33.974643 Y100.732679 Z-1.000000 I2.297685 J-1.807347
G03 X34.765625 Y98.699220 Z-1.000000 I3.378107 J0.143459
G03 X36.016626 Y98.163513 Z-1.000000 I1.157157 J0.973687
G03 X37.197266 Y98.849610 Z-1.000000 I-0.094608 J1.521675
G03 X37.699447 Y100.522937 Z-1.000000 I-2.568248 J1.682772
G03 X37.208986 Y102.552730 Z-1.000000 I-4.389540 J0.013504
G03 X36.574750 Y103.339212 Z-1.000000 I-2.243223 J-1.160013
G03 X36.013674 Y103.554690 Z-1.000000 I-0.601264 J-0.727387
G01 X36.013672 Y103.554690 Z-1.000000
G00 Z5.000000

(End cutting path id: path6759)


(Start cutting path id: path6759)
(Change tool to Cylindrical cutter)

G00 Z5.000000
G00 X53.117188 Y102.183590

G01 Z-0.998000 F100.0(Penetrate)
G03 X52.071689 Y101.938118 Z-0.998000 I0.000000 J-2.349195 F100.000000
G03 X51.369141 Y101.314450 Z-0.998000 I0.798851 J-1.607425
G03 X50.729712 Y99.032012 Z-0.998000 I3.281444 J-2.150091
G03 X51.505859 Y97.244140 Z-0.998000 I2.653604 J0.089571
G03 X52.403753 Y96.762320 Z-0.998000 I1.247824 J1.247833
G03 X53.263672 Y96.888670 Z-0.998000 I0.254446 J1.257691
G03 X54.366690 Y98.226532 Z-0.998000 I-1.076216 J2.010930
G03 X54.523438 Y100.970700 Z-0.998000 I-5.468302 J1.688913
G03 X54.018223 Y101.848614 Z-0.998000 I-1.506505 J-0.282625
G03 X53.117188 Y102.183590 Z-0.998000 I-0.901035 J-1.044339
G01 X53.117188 Y102.183590 Z-0.998000
G00 Z5.000000

(End cutting path id: path6759)


(Start cutting path id: path6759)
(Change tool to Cylindrical cutter)

G00 Z5.000000
G00 X53.117188 Y102.183590

G01 Z-1.000000 F100.0(Penetrate)
G03 X52.071689 Y101.938118 Z-1.000000 I0.000000 J-2.349195 F100.000000
G03 X51.369141 Y101.314450 Z-1.000000 I0.798851 J-1.607425
G03 X50.729712 Y99.032012 Z-1.000000 I3.281444 J-2.150091
G03 X51.505859 Y97.244140 Z-1.000000 I2.653604 J0.089571
G03 X52.403753 Y96.762320 Z-1.000000 I1.247824 J1.247833
G03 X53.263672 Y96.888670 Z-1.000000 I0.254446 J1.257691
G03 X54.366690 Y98.226532 Z-1.000000 I-1.076216 J2.010930
G03 X54.523438 Y100.970700 Z-1.000000 I-5.468302 J1.688913
G03 X54.018223 Y101.848614 Z-1.000000 I-1.506505 J-0.282625
G03 X53.117188 Y102.183590 Z-1.000000 I-0.901035 J-1.044339
G01 X53.117188 Y102.183590 Z-1.000000
G00 Z5.000000

(End cutting path id: path6759)


(Start cutting path id: path6759)
(Change tool to Cylindrical cutter)

G00 Z5.000000
G00 X43.605469 Y96.107420

G01 Z-0.998000 F100.0(Penetrate)
G03 X39.619504 Y95.774777 Z-0.998000 I-0.872373 J-13.594248 F100.000000
G03 X37.921875 Y94.773440 Z-0.998000 I0.756550 J-3.222344
G03 X37.684699 Y94.028632 Z-0.998000 I0.699297 J-0.632851
G03 X38.277344 Y91.804690 Z-0.998000 I8.105351 J0.969010
G03 X39.424955 Y89.634695 Z-0.998000 I13.370156 J5.682405
G03 X40.609375 Y88.175780 Z-0.998000 I7.144380 J4.589923
G01 X41.968750 Y86.837890 Z-0.998000
G01 X41.974650 Y83.574220 Z-0.998000
G02 X41.858786 Y80.948805 Z-0.998000 I-28.621086 J-0.052172
G02 X41.566329 Y80.405724 Z-0.998000 I-0.781466 J0.070545
G02 X41.011333 Y80.328164 Z-0.998000 I-0.343080 J0.430509
G02 X39.099650 Y81.283200 Z-0.998000 I6.040122 J14.481248
G02 X35.970963 Y84.020507 Z-0.998000 I5.656620 J9.622071
G02 X34.771525 Y86.804690 Z-0.998000 I4.677308 J3.665457
G03 X33.642869 Y89.426665 Z-0.998000 I-5.539758 J-0.830737
G03 X32.566447 Y89.621090 Z-0.998000 I-0.647281 J-0.506648
G03 X31.941873 Y88.183910 Z-0.998000 I0.712480 J-1.163936
G03 X33.339178 Y84.411926 Z-0.998000 I12.914302 J2.639209
G03 X35.841426 Y80.882384 Z-0.998000 I17.414547 J9.694193
G03 X38.521525 Y78.923830 Z-0.998000 I5.840483 J5.179148
G03 X40.202146 Y78.265911 Z-0.998000 I8.363135 J18.887710
G03 X41.519572 Y77.898440 Z-0.998000 I3.855193 J11.276022
G03 X44.292685 Y77.736855 Z-0.998000 I1.898933 J8.712556
G03 X46.709025 Y78.410160 Z-0.998000 I-0.711987 J7.227662
G02 X47.753975 Y78.810531 Z-0.998000 I3.038179 J-6.365691
G02 X48.376994 Y78.900390 Z-0.998000 I0.623019 J-2.114853
G03 X51.396728 Y80.068292 Z-0.998000 I0.000000 J4.487871
G03 X52.564494 Y82.708980 Z-0.998000 I-2.401917 J2.640726
G02 X52.643738 Y83.116715 Z-0.998000 I1.088581 J-0.000000
G02 X53.269572 Y84.453120 Z-0.998000 I12.664384 J-5.115947
G03 X53.912103 Y86.590881 Z-0.998000 I-4.950818 J2.653471
G03 X53.605510 Y88.105470 Z-0.998000 I-2.675674 J0.246699
G03 X53.032252 Y88.200096 Z-0.998000 I-0.322971 J-0.172851
G03 X52.023479 Y86.625000 Z-0.998000 I2.593454 J-2.771564
G02 X51.279295 Y84.917759 Z-0.998000 I-9.790785 J3.251972
G02 X50.398479 Y83.660160 Z-0.998000 I-6.157663 J3.375540
G02 X47.165782 Y80.953601 Z-0.998000 I-10.379282 J9.113113
