%
(Header)
(Generated by gcodetools from Inkscape.)
(Using default header. To add your own header create file "header" in the output dir.)
M3
(Header end.)
G21 (All units in mm)

(Start cutting path id: path4797)
(Change tool to Cylindrical cutter)

G00 Z5.000000
G00 X73.007812 Y147.455080

G01 Z-0.998000 F100.0(Penetrate)
G03 X69.308496 Y144.057708 Z-0.998000 I-0.313664 J-3.371193 F100.000000
G02 X66.574219 Y139.316410 Z-0.998000 I-5.405422 J-0.041796
G03 X60.784727 Y142.761188 Z-0.998000 I-5.311989 J-2.340169
G03 X54.714844 Y140.830080 Z-0.998000 I1.170896 J-14.185399
G02 X60.543447 Y142.141400 Z-0.998000 I11.995311 J-39.707946
G02 X64.488196 Y140.652350 Z-0.998000 I0.641839 J-4.269341
G02 X64.554566 Y138.448350 Z-0.998000 I-8.623407 J-1.362679
G03 X64.380966 Y135.176398 Z-0.998000 I37.490129 J-3.629697
G03 X64.455497 Y133.879732 Z-0.998000 I9.711761 J-0.092246
G03 X64.635099 Y133.678433 Z-0.998000 I0.235613 J0.029446
G03 X64.850841 Y133.762873 Z-0.998000 I0.047618 J0.196165
G03 X65.796875 Y135.498050 Z-0.998000 I-9.432084 J6.267938
G03 X70.066167 Y142.525914 Z-0.998000 I-45.447839 J32.419371
G02 X76.081974 Y147.186520 Z-0.998000 I7.964580 J-4.067666
G02 X80.725095 Y147.118246 Z-0.998000 I0.894025 J-97.116996
G02 X85.359375 Y146.826170 Z-0.998000 I-3.684058 J-95.365139
G03 X79.193805 Y147.343509 Z-0.998000 I-10.399721 J-86.943498
G03 X73.007812 Y147.455080 Z-0.998000 I-4.931107 J-101.857200
G01 X73.007812 Y147.455080 Z-0.998000
G00 Z5.000000

(End cutting path id: path4797)


(Start cutting path id: path4797)
(Change tool to Cylindrical cutter)

G00 Z5.000000
G00 X73.007812 Y147.455080

G01 Z-1.000000 F100.0(Penetrate)
G03 X69.308496 Y144.057708 Z-1.000000 I-0.313664 J-3.371193 F100.000000
G02 X66.574219 Y139.316410 Z-1.000000 I-5.405422 J-0.041796
G03 X60.784727 Y142.761188 Z-1.000000 I-5.311989 J-2.340169
G03 X54.714844 Y140.830080 Z-1.000000 I1.170896 J-14.185399
G02 X60.543447 Y142.141400 Z-1.000000 I11.995311 J-39.707946
G02 X64.488196 Y140.652350 Z-1.000000 I0.641839 J-4.269341
G02 X64.554566 Y138.448350 Z-1.000000 I-8.623407 J-1.362679
G03 X64.380966 Y135.176398 Z-1.000000 I37.490129 J-3.629697
G03 X64.455497 Y133.879732 Z-1.000000 I9.711761 J-0.092246
G03 X64.635099 Y133.678433 Z-1.000000 I0.235613 J0.029446
G03 X64.850841 Y133.762873 Z-1.000000 I0.047618 J0.196165
G03 X65.796875 Y135.498050 Z-1.000000 I-9.432084 J6.267938
G03 X70.066167 Y142.525914 Z-1.000000 I-45.447839 J32.419371
G02 X76.081974 Y147.186520 Z-1.000000 I7.964580 J-4.067666
G02 X80.725095 Y147.118246 Z-1.000000 I0.894025 J-97.116996
G02 X85.359375 Y146.826170 Z-1.000000 I-3.684058 J-95.365139
G03 X79.193805 Y147.343509 Z-1.000000 I-10.399721 J-86.943498
G03 X73.007812 Y147.455080 Z-1.000000 I-4.931107 J-101.857200
G01 X73.007812 Y147.455080 Z-1.000000
G00 Z5.000000

(End cutting path id: path4797)


(Start cutting path id: path4797)
(Change tool to Cylindrical cutter)

G00 Z5.000000
G00 X102.115230 Y143.039060

G01 Z-0.998000 F100.0(Penetrate)
G03 X105.179604 Y140.655981 Z-0.998000 I2.492381 J0.043163 F100.000000
G02 X110.085940 Y139.851560 Z-0.998000 I1.485802 J-6.302385
G03 X110.215081 Y140.185522 Z-0.998000 I0.059478 J0.168950
G03 X105.064450 Y142.134770 Z-0.998000 I-28.427174 J-67.335488
G02 X102.695355 Y143.312458 Z-0.998000 I0.156990 J3.287547
G03 X102.115230 Y143.039060 Z-0.998000 I-0.254363 J-0.212451
G01 X102.115230 Y143.039060 Z-0.998000
G00 Z5.000000

(End cutting path id: path4797)


(Start cutting path id: path4797)
(Change tool to Cylindrical cutter)

G00 Z5.000000
G00 X102.115230 Y143.039060

G01 Z-1.000000 F100.0(Penetrate)
G03 X105.179604 Y140.655981 Z-1.000000 I2.492381 J0.043163 F100.000000
G02 X110.085940 Y139.851560 Z-1.000000 I1.485802 J-6.302385
G03 X110.215081 Y140.185522 Z-1.000000 I0.059478 J0.168950
G03 X105.064450 Y142.134770 Z-1.000000 I-28.427174 J-67.335488
G02 X102.695355 Y143.312458 Z-1.000000 I0.156990 J3.287547
G03 X102.115230 Y143.039060 Z-1.000000 I-0.254363 J-0.212451
G01 X102.115230 Y143.039060 Z-1.000000
G00 Z5.000000

(End cutting path id: path4797)


(Start cutting path id: path4797)
(Change tool to Cylindrical cutter)

G00 Z5.000000
G00 X51.103516 Y136.542970

G01 Z-0.998000 F100.0(Penetrate)
G03 X50.834875 Y136.207213 Z-0.998000 I0.145025 J-0.391385 F100.000000
G03 X50.914156 Y136.097369 Z-0.998000 I0.097559 J-0.013119
G03 X51.100950 Y136.162504 Z-0.998000 I0.036817 J0.194828
G03 X51.103516 Y136.542970 Z-0.998000 I-0.221726 J0.191737
G01 X51.103516 Y136.542970 Z-0.998000
G00 Z5.000000

(End cutting path id: path4797)


(Start cutting path id: path4797)
(Change tool to Cylindrical cutter)

G00 Z5.000000
G00 X51.103516 Y136.542970

G01 Z-1.000000 F100.0(Penetrate)
G03 X50.834875 Y136.207213 Z-1.000000 I0.145025 J-0.391385 F100.000000
G03 X50.914156 Y136.097369 Z-1.000000 I0.097559 J-0.013119
G03 X51.100950 Y136.162504 Z-1.000000 I0.036817 J0.194828
G03 X51.103516 Y136.542970 Z-1.000000 I-0.221726 J0.191737
G01 X51.103516 Y136.542970 Z-1.000000
G00 Z5.000000

(End cutting path id: path4797)


(Start cutting path id: path4797)
(Change tool to Cylindrical cutter)

G00 Z5.000000
G00 X83.296875 Y135.306640

G01 Z-0.998000 F100.0(Penetrate)
G03 X73.640757 Y128.229064 Z-0.998000 I14.693388 J-30.172399 F100.000000
G02 X64.087891 Y121.283200 Z-0.998000 I-23.525559 J22.313332
G02 X69.632886 Y118.159335 Z-0.998000 I-24.576071 J-50.106816
G03 X75.968750 Y116.437500 Z-0.998000 I5.904963 J9.210584
G03 X73.501010 Y114.457085 Z-0.998000 I6.467547 J-10.586730
G03 X73.422332 Y114.018438 Z-0.998000 I0.288817 J-0.278184
G03 X73.799764 Y113.822875 Z-0.998000 I0.309374 J0.135086
G03 X76.283203 Y114.726560 Z-0.998000 I-1.831209 J8.896630
G02 X79.222117 Y116.282892 Z-0.998000 I3.649087 J-3.337759
G02 X79.952891 Y115.656869 Z-0.998000 I0.091768 J-0.632414
G02 X79.659068 Y112.412856 Z-0.998000 I-16.259706 J-0.162607
G03 X79.416016 Y108.654300 Z-0.998000 I14.704974 J-2.838052
G03 X80.792652 Y100.924804 Z-0.998000 I12.614315 J-1.740708
G03 X84.451172 Y96.166020 Z-0.998000 I16.049819 J8.553275
G03 X82.077786 Y104.640860 Z-0.998000 I-16.595833 J-0.077924
G02 X81.587891 Y113.251950 Z-0.998000 I7.933433 J4.770823
G02 X86.029360 Y116.509022 Z-0.998000 I6.722891 J-4.510778
G03 X90.779297 Y118.767580 Z-0.998000 I-4.704486 J16.017966
G03 X81.612769 Y121.413372 Z-0.998000 I-6.656677 J-5.860587
G02 X73.332031 Y119.246090 Z-0.998000 I-39.164077 J132.734751
G02 X70.697475 Y123.244344 Z-0.998000 I0.716708 J3.339374
G02 X73.863281 Y126.775390 Z-0.998000 I4.549846 J-0.894528
G02 X83.549649 Y130.042868 Z-0.998000 I10.658981 J-15.607069
G02 X93.458984 Y127.449220 Z-0.998000 I0.870841 J-16.899559
G02 X97.392926 Y130.333316 Z-0.998000 I14.319638 J-15.407142
G02 X101.949220 Y132.089840 Z-0.998000 I8.151021 J-14.355538
G03 X91.754704 Y131.096230 Z-0.998000 I6.882667 J-123.411811
G02 X81.443359 Y133.076170 Z-0.998000 I-2.249456 J16.125281
G02 X83.200616 Y135.458358 Z-0.998000 I3.863273 J-1.010574
G02 X83.296875 Y135.306640 Z-0.998000 I0.047383 J-0.076333
G01 X83.296875 Y135.306640 Z-0.998000
G00 Z5.000000

(End cutting path id: path4797)


(Start cutting path id: path4797)
(Change tool to Cylindrical cutter)

G00 Z5.000000
G00 X83.296875 Y135.306640

G01 Z-1.000000 F100.0(Penetrate)
G03 X73.640757 Y128.229064 Z-1.000000 I14.693388 J-30.172399 F100.000000
G02 X64.087891 Y121.283200 Z-1.000000 I-23.525559 J22.313332
G02 X69.632886 Y118.159335 Z-1.000000 I-24.576071 J-50.106816
G03 X75.968750 Y116.437500 Z-1.000000 I5.904963 J9.210584
G03 X73.501010 Y114.457085 Z-1.000000 I6.467547 J-10.586730
G03 X73.422332 Y114.018438 Z-1.000000 I0.288817 J-0.278184
G03 X73.799764 Y113.822875 Z-1.000000 I0.309374 J0.135086
G03 X76.283203 Y114.726560 Z-1.000000 I-1.831209 J8.896630
G02 X79.222117 Y116.282892 Z-1.000000 I3.649087 J-3.337759
G02 X79.952891 Y115.656869 Z-1.000000 I0.091768 J-0.632414
G02 X79.659068 Y112.412856 Z-1.000000 I-16.259706 J-0.162607
G03 X79.416016 Y108.654300 Z-1.000000 I14.704974 J-2.838052
G03 X80.792652 Y100.924804 Z-1.000000 I12.614315 J-1.740708
G03 X84.451172 Y96.166020 Z-1.000000 I16.049819 J8.553275
G03 X82.077786 Y104.640860 Z-1.000000 I-16.595833 J-0.077924
G02 X81.587891 Y113.251950 Z-1.000000 I7.933433 J4.770823
G02 X86.029360 Y116.509022 Z-1.000000 I6.722891 J-4.510778
G03 X90.779297 Y118.767580 Z-1.000000 I-4.704486 J16.017966
G03 X81.612769 Y121.413372 Z-1.000000 I-6.656677 J-5.860587
G02 X73.332031 Y119.246090 Z-1.000000 I-39.164077 J132.734751
G02 X70.697475 Y123.244344 Z-1.000000 I0.716708 J3.339374
G02 X73.863281 Y126.775390 Z-1.000000 I4.549846 J-0.894528
G02 X83.549649 Y130.042868 Z-1.000000 I10.658981 J-15.607069
G02 X93.458984 Y127.449220 Z-1.000000 I0.870841 J-16.899559
G02 X97.392926 Y130.333316 Z-1.000000 I14.319638 J-15.407142
G02 X101.949220 Y132.089840 Z-1.000000 I8.151021 J-14.355538
G03 X91.754704 Y131.096230 Z-1.000000 I6.882667 J-123.411811
G02 X81.443359 Y133.076170 Z-1.000000 I-2.249456 J16.125281
G02 X83.200616 Y135.458358 Z-1.000000 I3.863273 J-1.010574
G02 X83.296875 Y135.306640 Z-1.000000 I0.047383 J-0.076333
G01 X83.296875 Y135.306640 Z-1.000000
G00 Z5.000000

(End cutting path id: path4797)


(Start cutting path id: path4797)
(Change tool to Cylindrical cutter)

G00 Z5.000000
G00 X121.187500 Y133.507810

G01 Z-0.998000 F100.0(Penetrate)
G02 X138.687210 Y113.786612 Z-0.998000 I-38.962992 J-52.198849 F100.000000
G02 X143.197270 Y87.601560 Z-0.998000 I-33.454137 J-19.243000
G02 X140.994702 Y84.958721 Z-0.998000 I-5.326648 J2.200041
G02 X140.006606 Y85.144735 Z-0.998000 I-0.395994 J0.613862
G02 X138.979845 Y87.252318 Z-0.998000 I5.538633 J4.002179
G03 X137.875160 Y90.885920 Z-0.998000 I-128.492115 J-37.079367
G03 X126.852642 Y109.010347 Z-0.998000 I-54.464911 J-20.709347
G03 X108.808590 Y120.416020 Z-0.998000 I-29.030094 J-25.950415
G02 X108.761655 Y123.003303 Z-0.998000 I1.831206 J1.327287
G03 X107.746090 Y124.589840 Z-0.998000 I-0.853026 J0.572273
G02 X102.078976 Y124.462731 Z-0.998000 I-11.434326 J383.397575
G03 X98.021484 Y124.273440 Z-0.998000 I0.967064 J-64.310613
G02 X102.064320 Y118.809583 Z-0.998000 I-3.619628 J-6.905871
G02 X99.166016 Y112.527340 Z-0.998000 I-5.865201 J-1.103784
G02 X96.549469 Y110.944223 Z-0.998000 I-3.152791 J2.257028
G03 X96.423828 Y109.451170 Z-0.998000 I0.106233 J-0.760753
G02 X101.620213 Y103.448692 Z-0.998000 I-12.577231 J-16.138703
G02 X103.937500 Y95.984380 Z-0.998000 I-15.747155 J-8.980542
G02 X100.285313 Y94.298276 Z-0.998000 I-2.643680 J0.927882
G02 X96.847656 Y96.005880 Z-0.998000 I7.453613 J19.319273
G02 X98.641992 Y89.981934 Z-0.998000 I-8.747370 J-5.884765
G02 X97.246094 Y84.015640 Z-0.998000 I-14.252698 J0.188177
G02 X94.603953 Y81.010981 Z-0.998000 I-4.026485 J0.876671
G02 X90.705078 Y82.023460 Z-0.998000 I-1.204164 J3.376154
G02 X87.894750 Y75.178483 Z-0.998000 I-14.370122 J1.900507
G02 X82.806641 Y69.810570 Z-0.998000 I-26.631272 J20.147707
G03 X98.005961 Y82.796522 Z-0.998000 I-103.177179 J136.150982
G03 X106.917970 Y101.125020 Z-0.998000 I-20.445044 J21.272081
G02 X107.793180 Y107.008847 Z-0.998000 I51.372945 J-4.634642
G02 X108.487254 Y108.058189 Z-0.998000 I1.664413 J-0.346690
G02 X109.219233 Y107.891563 Z-0.998000 I0.289984 J-0.417201
G02 X111.431640 Y102.644550 Z-0.998000 I-21.270596 J-12.058701
G02 X113.411043 Y92.489690 Z-0.998000 I-26.199300 J-10.377157
G02 X111.880860 Y82.271500 Z-0.998000 I-33.136757 J-0.261410
G03 X113.379649 Y97.221642 Z-0.998000 I-20.934555 J9.648941
G02 X110.541020 Y111.523460 Z-0.998000 I196.480958 J46.430216
G02 X116.143465 Y113.593281 Z-0.998000 I3.680806 J-1.345884
G02 X121.156420 Y110.648470 Z-0.998000 I-76.323590 J-135.664911
G02 X135.226262 Y93.787207 Z-0.998000 I-13.395141 J-25.478450
G02 X136.816410 Y72.167990 Z-0.998000 I-45.246140 J-14.196056
G02 X131.662196 Y78.388658 Z-0.998000 I8.069841 J11.931999
G03 X127.060550 Y84.835960 Z-0.998000 I-17.264325 J-7.456281
G02 X123.154511 Y67.779305 Z-0.998000 I-24.882646 J-3.277356
G02 X110.121090 Y56.250020 Z-0.998000 I-27.728622 J18.214622
G02 X108.508113 Y58.339817 Z-0.998000 I0.711812 J2.216774
G03 X107.363280 Y58.474630 Z-0.998000 I-0.584111 J-0.031903
G02 X96.381777 Y47.870363 Z-0.998000 I-25.160210 J15.067047
G03 X87.234375 Y35.183610 Z-0.998000 I8.848835 J-16.021293
G02 X86.128385 Y32.783408 Z-0.998000 I-3.728698 J0.263233
G02 X85.242512 Y32.741163 Z-0.998000 I-0.466537 J0.473782
G02 X83.791918 Y34.373353 Z-0.998000 I4.273004 J5.258290
G02 X82.339844 Y36.675800 Z-0.998000 I560.791007 J355.280693
G02 X81.148592 Y46.582072 Z-0.998000 I11.695959 J6.431228
G02 X86.462891 Y54.962910 Z-0.998000 I16.121035 J-4.347046
G03 X79.615359 Y44.622615 Z-0.998000 I6.466622 J-11.719743
G02 X78.220703 Y32.800800 Z-0.998000 I-417.192771 J43.224351
G02 X69.868387 Y45.981127 Z-0.998000 I17.531463 J20.346188
G02 X73.630859 Y61.349630 Z-0.998000 I15.613115 J4.322453
G02 X78.617305 Y66.353186 Z-0.998000 I29.860253 J-24.771669
G03 X80.976562 Y68.335960 Z-0.998000 I-333.817340 J399.596518
G03 X71.405629 Y60.501500 Z-0.998000 I48.966864 J-69.583525
G03 X66.886719 Y48.556660 Z-0.998000 I10.091307 J-10.644896
G03 X68.236053 Y39.088568 Z-0.998000 I25.217923 J-1.236292
G02 X70.994141 Y30.003930 Z-0.998000 I-120.176269 J-41.446398
G03 X64.308102 Y34.053459 Z-0.998000 I-1418.279963 J-2334.129535
G02 X57.990234 Y38.673850 Z-0.998000 I22.938295 J37.995234
G02 X60.346831 Y34.986576 Z-0.998000 I-12.355030 J-10.493008
G02 X60.147454 Y34.255093 Z-0.998000 I-0.534449 J-0.247241
G02 X59.118625 Y34.074642 Z-0.998000 I-0.710280 J1.026491
G02 X55.060547 Y35.517600 Z-0.998000 I6.582194 J24.939127
G02 X46.089893 Y42.714559 Z-0.998000 I14.364315 J27.093627
G02 X39.765625 Y52.222680 Z-0.998000 I36.570360 J31.181884
G02 X40.969238 Y59.654871 Z-0.998000 I7.902428 J2.533790
G02 X46.601562 Y64.421900 Z-0.998000 I12.682827 J-9.274115
G03 X47.546763 Y57.328394 Z-0.998000 I37.750136 J1.420433
G03 X50.007812 Y51.548850 Z-0.998000 I17.551924 J4.060216
G02 X53.796333 Y59.764282 Z-0.998000 I9.893056 J0.419096
G02 X60.501953 Y63.929710 Z-0.998000 I22.483962 J-28.715133
G02 X57.084557 Y67.814204 Z-0.998000 I-0.168141 J3.297557
G02 X59.437500 Y72.457050 Z-0.998000 I8.945672 J-1.615922
G02 X66.764318 Y78.826944 Z-0.998000 I25.668230 J-22.125573
G03 X72.119141 Y87.291040 Z-0.998000 I-6.434484 J9.996702
G02 X68.123240 Y82.669866 Z-0.998000 I-8.070809 J2.940578
G02 X62.228516 Y83.884790 Z-0.998000 I-2.222526 J4.124312
G02 X62.714330 Y88.835313 Z-0.998000 I3.614503 J2.144394
G03 X62.556641 Y91.917990 Z-0.998000 I-1.630043 J1.461990
G02 X56.203095 Y88.371577 Z-0.998000 I-7.708721 J6.345968
G03 X50.029297 Y86.978540 Z-0.998000 I5.013349 J-36.595982
G03 X53.479125 Y83.079587 Z-0.998000 I5.214446 J1.138093
G02 X57.300781 Y80.226580 Z-0.998000 I-2.631171 J-7.510595
G02 X53.978659 Y78.201466 Z-0.998000 I-2.339034 J0.099632
G03 X51.269531 Y78.222680 Z-0.998000 I-1.377968 J-2.978200
G02 X49.993144 Y76.393063 Z-0.998000 I-1.720746 J-0.159593
G03 X49.432296 Y74.301210 Z-0.998000 I0.321220 J-1.207234
G02 X48.054094 Y73.677603 Z-0.998000 I-0.739197 J-0.201089
G03 X42.458984 Y74.828140 Z-0.998000 I-3.374694 J-2.231384
G03 X43.188449 Y73.580451 Z-0.998000 I1.688284 J0.149974
G02 X43.359375 Y69.042990 Z-0.998000 I-1.599941 J-2.332220
G02 X41.987865 Y67.984111 Z-0.998000 I-2.201237 J1.433485
G03 X42.050781 Y67.042990 Z-0.998000 I0.153928 J-0.462373
G02 X42.290628 Y61.227671 Z-0.998000 I-2.420630 J-3.012442
G03 X38.554688 Y56.638690 Z-0.998000 I15.935718 J-16.788667
G03 X39.599092 Y49.632250 Z-0.998000 I5.844694 J-2.709831
G02 X43.972656 Y43.998070 Z-0.998000 I-37.996209 J-34.009365
G03 X59.278872 Y32.843694 Z-0.998000 I35.715584 J32.930599
G03 X76.652344 Y27.609400 Z-0.998000 I27.132366 J58.606892
G02 X82.346711 Y28.964961 Z-0.998000 I3.492005 J-2.030947
G03 X86.707031 Y28.392600 Z-0.998000 I2.778561 J4.272512
G02 X96.762954 Y40.743774 Z-0.998000 I66.058845 J-43.513767
G02 X109.773440 Y49.771500 Z-0.998000 I31.307416 J-31.230280
G02 X112.769293 Y48.653317 Z-0.998000 I0.207432 J-4.016606
G03 X116.070310 Y48.916040 Z-0.998000 I1.534054 J1.594571
G03 X124.681219 Y56.122012 Z-0.998000 I-25.490953 J39.208752
G03 X131.957030 Y64.523460 Z-0.998000 I-101.496887 J95.249418
G02 X135.562823 Y65.415649 Z-0.998000 I2.464162 J-2.226418
G02 X137.904300 Y63.804710 Z-0.998000 I-1.961407 J-5.357998
G03 X144.072349 Y99.770984 Z-0.998000 I-42.055104 J25.724289
G03 X124.753910 Y130.769550 Z-0.998000 I-52.380867 J-11.125031
G03 X121.331554 Y133.700275 Z-0.998000 I-19.174274 J-18.927184
G03 X121.187500 Y133.507830 Z-0.998000 I-0.070283 J-0.097527
G01 X121.187500 Y133.507810 Z-0.998000
G00 Z5.000000

(End cutting path id: path4797)


(Start cutting path id: path4797)
(Change tool to Cylindrical cutter)

G00 Z5.000000
G00 X121.187500 Y133.507810

G01 Z-1.000000 F100.0(Penetrate)
G02 X138.687210 Y113.786612 Z-1.000000 I-38.962992 J-52.198849 F100.000000
G02 X143.197270 Y87.601560 Z-1.000000 I-33.454137 J-19.243000
G02 X140.994702 Y84.958721 Z-1.000000 I-5.326648 J2.200041
G02 X140.006606 Y85.144735 Z-1.000000 I-0.395994 J0.613862
G02 X138.979845 Y87.252318 Z-1.000000 I5.538633 J4.002179
G03 X137.875160 Y90.885920 Z-1.000000 I-128.492115 J-37.079367
G03 X126.852642 Y109.010347 Z-1.000000 I-54.464911 J-20.709347
G03 X108.808590 Y120.416020 Z-1.000000 I-29.030094 J-25.950415
G02 X108.761655 Y123.003303 Z-1.000000 I1.831206 J1.327287
G03 X107.746090 Y124.589840 Z-1.000000 I-0.853026 J0.572273
G02 X102.078976 Y124.462731 Z-1.000000 I-11.434326 J383.397575
G03 X98.021484 Y124.273440 Z-1.000000 I0.967064 J-64.310613
G02 X102.064320 Y118.809583 Z-1.000000 I-3.619628 J-6.905871
G02 X99.166016 Y112.527340 Z-1.000000 I-5.865201 J-1.103784
G02 X96.549469 Y110.944223 Z-1.000000 I-3.152791 J2.257028
G03 X96.423828 Y109.451170 Z-1.000000 I0.106233 J-0.760753
G02 X101.620213 Y103.448692 Z-1.000000 I-12.577231 J-16.138703
G02 X103.937500 Y95.984380 Z-1.000000 I-15.747155 J-8.980542
G02 X100.285313 Y94.298276 Z-1.000000 I-2.643680 J0.927882
G02 X96.847656 Y96.005880 Z-1.000000 I7.453613 J19.319273
G02 X98.641992 Y89.981934 Z-1.000000 I-8.747370 J-5.884765
G02 X97.246094 Y84.015640 Z-1.000000 I-14.252698 J0.188177
G02 X94.603953 Y81.010981 Z-1.000000 I-4.026485 J0.876671
G02 X90.705078 Y82.023460 Z-1.000000 I-1.204164 J3.376154
G02 X87.894750 Y75.178483 Z-1.000000 I-14.370122 J1.900507
G02 X82.806641 Y69.810570 Z-1.000000 I-26.631272 J20.147707
G03 X98.005961 Y82.796522 Z-1.000000 I-103.177179 J136.150982
G03 X106.917970 Y101.125020 Z-1.000000 I-20.445044 J21.272081
G02 X107.793180 Y107.008847 Z-1.000000 I51.372945 J-4.634642
G02 X108.487254 Y108.058189 Z-1.000000 I1.664413 J-0.346690
G02 X109.219233 Y107.891563 Z-1.000000 I0.289984 J-0.417201
G02 X111.431640 Y102.644550 Z-1.000000 I-21.270596 J-12.058701
G02 X113.411043 Y92.489690 Z-1.000000 I-26.199300 J-10.377157
G02 X111.880860 Y82.271500 Z-1.000000 I-33.136757 J-0.261410
G03 X113.379649 Y97.221642 Z-1.000000 I-20.934555 J9.648941
G02 X110.541020 Y111.523460 Z-1.000000 I196.480958 J46.430216
G02 X116.143465 Y113.593281 Z-1.000000 I3.680806 J-1.345884
G02 X121.156420 Y110.648470 Z-1.000000 I-76.323590 J-135.664911
G02 X135.226262 Y93.787207 Z-1.000000 I-13.395141 J-25.478450
G02 X136.816410 Y72.167990 Z-1.000000 I-45.246140 J-14.196056
G02 X131.662196 Y78.388658 Z-1.000000 I8.069841 J11.931999
G03 X127.060550 Y84.835960 Z-1.000000 I-17.264325 J-7.456281
G02 X123.154511 Y67.779305 Z-1.000000 I-24.882646 J-3.277356
G02 X110.121090 Y56.250020 Z-1.000000 I-27.728622 J18.214622
G02 X108.508113 Y58.339817 Z-1.000000 I0.711812 J2.216774
G03 X107.363280 Y58.474630 Z-1.000000 I-0.584111 J-0.031903
G02 X96.381777 Y47.870363 Z-1.000000 I-25.160210 J15.067047
G03 X87.234375 Y35.183610 Z-1.000000 I8.848835 J-16.021293
G02 X86.128385 Y32.783408 Z-1.000000 I-3.728698 J0.263233
G02 X85.242512 Y32.741163 Z-1.000000 I-0.466537 J0.473782
G02 X83.791918 Y34.373353 Z-1.000000 I4.273004 J5.258290
G02 X82.339844 Y36.675800 Z-1.000000 I560.791007 J355.280693
G02 X81.148592 Y46.582072 Z-1.000000 I11.695959 J6.431228
G02 X86.462891 Y54.962910 Z-1.000000 I16.121035 J-4.347046
G03 X79.615359 Y44.622615 Z-1.000000 I6.466622 J-11.719743
G02 X78.220703 Y32.800800 Z-1.000000 I-417.192771 J43.224351
G02 X69.868387 Y45.981127 Z-1.000000 I17.531463 J20.346188
G02 X73.630859 Y61.349630 Z-1.000000 I15.613115 J4.322453
G02 X78.617305 Y66.353186 Z-1.000000 I29.860253 J-24.771669
G03 X80.976562 Y68.335960 Z-1.000000 I-333.817340 J399.596518
G03 X71.405629 Y60.501500 Z-1.000000 I48.966864 J-69.583525
G03 X66.886719 Y48.556660 Z-1.000000 I10.091307 J-10.644896
G03 X68.236053 Y39.088568 Z-1.000000 I25.217923 J-1.236292
G02 X70.994141 Y30.003930 Z-1.000000 I-120.176269 J-41.446398
G03 X64.308102 Y34.053459 Z-1.000000 I-1418.279963 J-2334.129535
G02 X57.990234 Y38.673850 Z-1.000000 I22.938295 J37.995234
G02 X60.346831 Y34.986576 Z-1.000000 I-12.355030 J-10.493008
G02 X60.147454 Y34.255093 Z-1.000000 I-0.534449 J-0.247241
G02 X59.118625 Y34.074642 Z-1.000000 I-0.710280 J1.026491
G02 X55.060547 Y35.517600 Z-1.000000 I6.582194 J24.939127
G02 X46.089893 Y42.714559 Z-1.000000 I14.364315 J27.093627
G02 X39.765625 Y52.222680 Z-1.000000 I36.570360 J31.181884
G02 X40.969238 Y59.654871 Z-1.000000 I7.902428 J2.533790
G02 X46.601562 Y64.421900 Z-1.000000 I12.682827 J-9.274115
G03 X47.546763 Y57.328394 Z-1.000000 I37.750136 J1.420433
G03 X50.007812 Y51.548850 Z-1.000000 I17.551924 J4.060216
G02 X53.796333 Y59.764282 Z-1.000000 I9.893056 J0.419096
G02 X60.501953 Y63.929710 Z-1.000000 I22.483962 J-28.715133
G02 X57.084557 Y67.814204 Z-1.000000 I-0.168141 J3.297557
G02 X59.437500 Y72.457050 Z-1.000000 I8.945672 J-1.615922
G02 X66.764318 Y78.826944 Z-1.000000 I25.668230 J-22.125573
G03 X72.119141 Y87.291040 Z-1.000000 I-6.434484 J9.996702
G02 X68.123240 Y82.669866 Z-1.000000 I-8.070809 J2.940578
G02 X62.228516 Y83.884790 Z-1.000000 I-2.222526 J4.124312
G02 X62.714330 Y88.835313 Z-1.000000 I3.614503 J2.144394
G03 X62.556641 Y91.917990 Z-1.000000 I-1.630043 J1.461990
G02 X56.203095 Y88.371577 Z-1.000000 I-7.708721 J6.345968
G03 X50.029297 Y86.978540 Z-1.000000 I5.013349 J-36.595982
G03 X53.479125 Y83.079587 Z-1.000000 I5.214446 J1.138093
G02 X57.300781 Y80.226580 Z-1.000000 I-2.631171 J-7.510595
G02 X53.978659 Y78.201466 Z-1.000000 I-2.339034 J0.099632
G03 X51.269531 Y78.222680 Z-1.000000 I-1.377968 J-2.978200
G02 X49.993144 Y76.393063 Z-1.000000 I-1.720746 J-0.159593
G03 X49.432296 Y74.301210 Z-1.000000 I0.321220 J-1.207234
G02 X48.054094 Y73.677603 Z-1.000000 I-0.739197 J-0.201089
G03 X42.458984 Y74.828140 Z-1.000000 I-3.374694 J-2.231384
G03 X43.188449 Y73.580451 Z-1.000000 I1.688284 J0.149974
G02 X43.359375 Y69.042990 Z-1.000000 I-1.599941 J-2.332220
G02 X41.987865 Y67.984111 Z-1.000000 I-2.201237 J1.433485
G03 X42.050781 Y67.042990 Z-1.000000 I0.153928 J-0.462373
G02 X42.290628 Y61.227671 Z-1.000000 I-2.420630 J-3.012442
G03 X38.554688 Y56.638690 Z-1.000000 I15.935718 J-16.788667
G03 X39.599092 Y49.632250 Z-1.000000 I5.844694 J-2.709831
G02 X43.972656 Y43.998070 Z-1.000000 I-37.996209 J-34.009365
G03 X59.278872 Y32.843694 Z-1.000000 I35.715584 J32.930599
G03 X76.652344 Y27.609400 Z-1.000000 I27.132366 J58.606892
G02 X82.346711 Y28.964961 Z-1.000000 I3.492005 J-2.030947
G03 X86.707031 Y28.392600 Z-1.000000 I2.778561 J4.272512
G02 X96.762954 Y40.743774 Z-1.000000 I66.058845 J-43.513767
G02 X109.773440 Y49.771500 Z-1.000000 I31.307416 J-31.230280
G02 X112.769293 Y48.653317 Z-1.000000 I0.207432 J-4.016606
G03 X116.070310 Y48.916040 Z-1.000000 I1.534054 J1.594571
G03 X124.681219 Y56.122012 Z-1.000000 I-25.490953 J39.208752
G03 X131.957030 Y64.523460 Z-1.000000 I-101.496887 J95.249418
G02 X135.562823 Y65.415649 Z-1.000000 I2.464162 J-2.226418
G02 X137.904300 Y63.804710 Z-1.000000 I-1.961407 J-5.357998
G03 X144.072349 Y99.770984 Z-1.000000 I-42.055104 J25.724289
G03 X124.753910 Y130.769550 Z-1.000000 I-52.380867 J-11.125031
G03 X121.331554 Y133.700275 Z-1.000000 I-19.174274 J-18.927184
G03 X121.187500 Y133.507830 Z-1.000000 I-0.070283 J-0.097527
G01 X121.187500 Y133.507810 Z-1.000000
G00 Z5.000000

(End cutting path id: path4797)


(Start cutting path id: path4797)
(Change tool to Cylindrical cutter)

G00 Z5.000000
G00 X44.357422 Y127.160160

G01 Z-0.998000 F100.0(Penetrate)
G02 X41.700675 Y124.620719 Z-0.998000 I-3.386660 J0.883646 F100.000000
G03 X40.515625 Y121.490230 Z-0.998000 I0.415095 J-1.946680
G02 X40.996392 Y116.962317 Z-0.998000 I-12.748787 J-3.643126
G02 X40.533205 Y112.453120 Z-0.998000 I-63.569645 J4.251513
G02 X42.022963 Y115.779128 Z-0.998000 I46.522286 J-18.841241
G03 X41.378908 Y119.367190 Z-0.998000 I-2.756736 J1.357002
G02 X41.750250 Y123.917536 Z-0.998000 I3.470965 J2.007068
G02 X45.873049 Y125.707030 Z-0.998000 I3.804818 J-3.121899
G02 X44.970817 Y126.543217 Z-0.998000 I2.346917 J3.437125
G03 X44.357424 Y127.160160 Z-0.998000 I-3.165983 J-2.534363
G01 X44.357422 Y127.160160 Z-0.998000
G00 Z5.000000

(End cutting path id: path4797)


(Start cutting path id: path4797)
(Change tool to Cylindrical cutter)

G00 Z5.000000
G00 X44.357422 Y127.160160

G01 Z-1.000000 F100.0(Penetrate)
G02 X41.700675 Y124.620719 Z-1.000000 I-3.386660 J0.883646 F100.000000
G03 X40.515625 Y121.490230 Z-1.000000 I0.415095 J-1.946680
G02 X40.996392 Y116.962317 Z-1.000000 I-12.748787 J-3.643126
G02 X40.533205 Y112.453120 Z-1.000000 I-63.569645 J4.251513
G02 X42.022963 Y115.779128 Z-1.000000 I46.522286 J-18.841241
G03 X41.378908 Y119.367190 Z-1.000000 I-2.756736 J1.357002
G02 X41.750250 Y123.917536 Z-1.000000 I3.470965 J2.007068
G02 X45.873049 Y125.707030 Z-1.000000 I3.804818 J-3.121899
G02 X44.970817 Y126.543217 Z-1.000000 I2.346917 J3.437125
G03 X44.357424 Y127.160160 Z-1.000000 I-3.165983 J-2.534363
G01 X44.357422 Y127.160160 Z-1.000000
G00 Z5.000000

(End cutting path id: path4797)


(Start cutting path id: path4797)
(Change tool to Cylindrical cutter)

G00 Z5.000000
G00 X56.896484 Y123.375000

G01 Z-0.998000 F100.0(Penetrate)
G03 X55.875310 Y121.762259 Z-0.998000 I0.049099 J-1.160759 F100.000000
G03 X57.917969 Y121.390620 Z-0.998000 I1.142955 J0.482677
G03 X58.509337 Y121.826448 Z-0.998000 I0.086976 J0.501107
G03 X58.332785 Y122.620530 Z-0.998000 I-1.184538 J0.153304
G03 X57.494555 Y123.499470 Z-0.998000 I-2.639061 J-1.677656
G03 X56.896484 Y123.375000 Z-0.998000 I-0.240831 J-0.341902
G01 X56.896484 Y123.375000 Z-0.998000
G00 Z5.000000

(End cutting path id: path4797)


(Start cutting path id: path4797)
(Change tool to Cylindrical cutter)

G00 Z5.000000
G00 X56.896484 Y123.375000

G01 Z-1.000000 F100.0(Penetrate)
G03 X55.875310 Y121.762259 Z-1.000000 I0.049099 J-1.160759 F100.000000
G03 X57.917969 Y121.390620 Z-1.000000 I1.142955 J0.482677
G03 X58.509337 Y121.826448 Z-1.000000 I0.086976 J0.501107
G03 X58.332785 Y122.620530 Z-1.000000 I-1.184538 J0.153304
G03 X57.494555 Y123.499470 Z-1.000000 I-2.639061 J-1.677656
G03 X56.896484 Y123.375000 Z-1.000000 I-0.240831 J-0.341902
G01 X56.896484 Y123.375000 Z-1.000000
G00 Z5.000000

(End cutting path id: path4797)


(Start cutting path id: path4797)
(Change tool to Cylindrical cutter)

G00 Z5.000000
G00 X53.677734 Y109.882810

G01 Z-0.998000 F100.0(Penetrate)
G03 X53.991641 Y108.539785 Z-0.998000 I0.777713 J-0.526421 F100.000000
G03 X54.328125 Y109.011720 Z-0.998000 I0.143885 J0.253333
G02 X53.955506 Y109.495029 Z-0.998000 I0.770434 J0.979278
G03 X53.677734 Y109.882810 Z-0.998000 I-1.038822 J-0.450744
G01 X53.677734 Y109.882810 Z-0.998000
G00 Z5.000000

(End cutting path id: path4797)


(Start cutting path id: path4797)
(Change tool to Cylindrical cutter)

G00 Z5.000000
G00 X53.677734 Y109.882810

G01 Z-1.000000 F100.0(Penetrate)
G03 X53.991641 Y108.539785 Z-1.000000 I0.777713 J-0.526421 F100.000000
G03 X54.328125 Y109.011720 Z-1.000000 I0.143885 J0.253333
G02 X53.955506 Y109.495029 Z-1.000000 I0.770434 J0.979278
G03 X53.677734 Y109.882810 Z-1.000000 I-1.038822 J-0.450744
G01 X53.677734 Y109.882810 Z-1.000000
G00 Z5.000000

(End cutting path id: path4797)


(Start cutting path id: path4797)
(Change tool to Cylindrical cutter)

G00 Z5.000000
G00 X23.433594 Y91.228520

G01 Z-0.998000 F100.0(Penetrate)
G03 X25.457029 Y89.530377 Z-0.998000 I2.336764 J0.729798 F100.000000
G03 X27.648438 Y90.322270 Z-0.998000 I0.325983 J2.526001
G03 X27.279192 Y91.314330 Z-0.998000 I-0.251690 J0.471068
G02 X24.042969 Y91.708980 Z-0.998000 I-1.066033 J4.724497
G02 X23.659177 Y91.718685 Z-0.998000 I0.001275 J7.644149
G03 X23.433594 Y91.228520 Z-0.998000 I-0.014640 J-0.290254
G01 X23.433594 Y91.228520 Z-0.998000
G00 Z5.000000

(End cutting path id: path4797)


(Start cutting path id: path4797)
(Change tool to Cylindrical cutter)

G00 Z5.000000
G00 X23.433594 Y91.228520

G01 Z-1.000000 F100.0(Penetrate)
G03 X25.457029 Y89.530377 Z-1.000000 I2.336764 J0.729798 F100.000000
G03 X27.648438 Y90.322270 Z-1.000000 I0.325983 J2.526001
G03 X27.279192 Y91.314330 Z-1.000000 I-0.251690 J0.471068
G02 X24.042969 Y91.708980 Z-1.000000 I-1.066033 J4.724497
G02 X23.659177 Y91.718685 Z-1.000000 I0.001275 J7.644149
G03 X23.433594 Y91.228520 Z-1.000000 I-0.014640 J-0.290254
G01 X23.433594 Y91.228520 Z-1.000000
G00 Z5.000000

(End cutting path id: path4797)


(Start cutting path id: path4797)
(Change tool to Cylindrical cutter)

G00 Z5.000000
G00 X79.390625 Y84.912110

G01 Z-0.998000 F100.0(Penetrate)
G02 X74.571713 Y73.847083 Z-0.998000 I-14.590074 J-0.227752 F100.000000
G02 X65.119141 Y66.902340 Z-0.998000 I-39.306455 J43.595107
G03 X63.776669 Y65.820558 Z-0.998000 I11.106597 J-15.156976
G01 X63.794610 Y65.757037 Z-0.998000
G03 X63.980411 Y65.782168 Z-0.998000 I0.053410 J0.304527
G03 X65.270594 Y66.430373 Z-0.998000 I-13.401412 J28.282174
G03 X68.305804 Y68.116868 Z-0.998000 I-44.008547 J82.777321
G02 X69.972656 Y69.054690 Z-0.998000 I36.362184 J-62.678656
G03 X77.490279 Y75.546186 Z-0.998000 I-8.775208 J17.761053
G03 X79.416016 Y85.447270 Z-0.998000 I-10.333699 J7.147697
G01 X79.390625 Y84.912110 Z-0.998000
G00 Z5.000000

(End cutting path id: path4797)


(Start cutting path id: path4797)
(Change tool to Cylindrical cutter)

G00 Z5.000000
G00 X79.390625 Y84.912110

G01 Z-1.000000 F100.0(Penetrate)
G02 X74.571713 Y73.847083 Z-1.000000 I-14.590074 J-0.227752 F100.000000
G02 X65.119141 Y66.902340 Z-1.000000 I-39.306455 J43.595107
G03 X63.776669 Y65.820558 Z-1.000000 I11.106597 J-15.156976
G01 X63.794610 Y65.757037 Z-1.000000
G03 X63.980411 Y65.782168 Z-1.000000 I0.053410 J0.304527
G03 X65.270594 Y66.430373 Z-1.000000 I-13.401412 J28.282174
G03 X68.305804 Y68.116868 Z-1.000000 I-44.008547 J82.777321
G02 X69.972656 Y69.054690 Z-1.000000 I36.362184 J-62.678656
G03 X77.490279 Y75.546186 Z-1.000000 I-8.775208 J17.761053
G03 X79.416016 Y85.447270 Z-1.000000 I-10.333699 J7.147697
G01 X79.390625 Y84.912110 Z-1.000000
G00 Z5.000000

(End cutting path id: path4797)


(Start cutting path id: path4797)
(Change tool to Cylindrical cutter)

G00 Z5.000000
G00 X27.949219 Y77.828120

G01 Z-0.998000 F100.0(Penetrate)
G03 X27.997736 Y77.565828 Z-0.998000 I0.325524 J-0.075421 F100.000000
G01 X28.053805 Y77.569306 Z-0.998000
G03 X28.092280 Y77.768442 Z-0.998000 I-0.328728 J0.166798
G03 X27.949219 Y77.828120 Z-0.998000 I-0.087181 J-0.007677
G01 X27.949219 Y77.828120 Z-0.998000
G00 Z5.000000

(End cutting path id: path4797)


(Start cutting path id: path4797)
(Change tool to Cylindrical cutter)

G00 Z5.000000
G00 X27.949219 Y77.828120

G01 Z-1.000000 F100.0(Penetrate)
G03 X27.997736 Y77.565828 Z-1.000000 I0.325524 J-0.075421 F100.000000
G01 X28.053805 Y77.569306 Z-1.000000
G03 X28.092280 Y77.768442 Z-1.000000 I-0.328728 J0.166798
G03 X27.949219 Y77.828120 Z-1.000000 I-0.087181 J-0.007677
G01 X27.949219 Y77.828120 Z-1.000000
G00 Z5.000000

(End cutting path id: path4797)


(Start cutting path id: path4797)
(Change tool to Cylindrical cutter)

G00 Z5.000000
G00 X27.271484 Y67.970700

G01 Z-0.998000 F100.0(Penetrate)
G03 X32.418055 Y66.108952 Z-0.998000 I2.998781 J0.245355 F100.000000
G02 X34.398438 Y67.076170 Z-0.998000 I2.354572 J-2.309968
G02 X30.724879 Y66.684894 Z-0.998000 I-13.205548 J106.541796
G02 X27.271484 Y67.970700 Z-0.998000 I-0.379775 J4.260442
G01 X27.271484 Y67.970700 Z-0.998000
G00 Z5.000000

(End cutting path id: path4797)


(Start cutting path id: path4797)
(Change tool to Cylindrical cutter)

G00 Z5.000000
G00 X27.271484 Y67.970700

G01 Z-1.000000 F100.0(Penetrate)
G03 X32.418055 Y66.108952 Z-1.000000 I2.998781 J0.245355 F100.000000
G02 X34.398438 Y67.076170 Z-1.000000 I2.354572 J-2.309968
G02 X30.724879 Y66.684894 Z-1.000000 I-13.205548 J106.541796
G02 X27.271484 Y67.970700 Z-1.000000 I-0.379775 J4.260442
G01 X27.271484 Y67.970700 Z-1.000000
G00 Z5.000000

(End cutting path id: path4797)


(Footer)
M5
G00 X0.0000 Y0.0000
M2
(Using default footer. To add your own footer create file "footer" in the output dir.)
(end)
%