%
(Header)
(Generated by gcodetools from Inkscape.)
(Using default header. To add your own header create file "header" in the output dir.)
M3
(Header end.)
G21 (All units in mm)

(Start cutting path id: path161270)
(Change tool to Cylindrical cutter)

G00 Z5.000000
G00 X42.886777 Y18.930224

G01 Z-0.998000 F100.0(Penetrate)
G02 X26.717489 Y27.560799 Z-0.998000 I13.057980 J43.925760 F400.000000
G02 X16.780003 Y43.064544 Z-0.998000 I19.301035 J23.308152
G02 X18.931869 Y49.278588 Z-0.998000 I5.518030 J1.568765
G03 X20.493846 Y53.495614 Z-0.998000 I-2.375003 J3.277485
G03 X14.397925 Y53.167954 Z-0.998000 I-2.707955 J-6.489430
G02 X9.252001 Y55.916074 Z-0.998000 I-1.677480 J3.050872
G02 X9.329458 Y62.196977 Z-0.998000 I6.018259 J3.066711
G03 X8.589626 Y68.438474 Z-0.998000 I-4.797961 J2.595873
G03 X7.191745 Y74.508867 Z-0.998000 I-10.284063 J0.827949
G02 X5.522605 Y79.830254 Z-0.998000 I10.577612 J6.240311
G02 X10.905465 Y87.691653 Z-0.998000 I14.539859 J-4.182161
G03 X18.389051 Y93.466964 Z-0.998000 I-397.936985 J523.378707
G02 X18.851215 Y98.720852 Z-0.998000 I69.075320 J-3.429020
G03 X18.041240 Y104.062044 Z-0.998000 I-9.820467 J1.242768
G02 X19.563152 Y107.371571 Z-0.998000 I2.537890 J0.837626
G03 X20.928597 Y111.428904 Z-0.998000 I-1.077243 J2.620961
G02 X24.424935 Y116.177951 Z-0.998000 I5.396400 J-0.311373
G03 X28.001217 Y120.947014 Z-0.998000 I-1.947028 J5.185504
G02 X35.278848 Y123.719290 Z-0.998000 I5.644997 J-3.880383
G02 X38.345445 Y122.475124 Z-0.998000 I-2.733713 J-11.139339
G03 X39.717739 Y125.857104 Z-0.998000 I-7.698331 J5.093131
G02 X42.823217 Y127.920584 Z-0.998000 I2.559072 J-0.482763
G02 X62.686766 Y124.297675 Z-0.998000 I0.100772 J-55.712511
G02 X79.481037 Y112.980834 Z-0.998000 I-15.732622 J-41.467148
G02 X94.162787 Y82.248816 Z-0.998000 I-38.476370 J-37.254494
G02 X87.999027 Y48.809544 Z-0.998000 I-56.306896 J-6.908830
G03 X86.540954 Y51.386754 Z-0.998000 I-12.307392 J-5.261922
G03 X85.605327 Y51.984435 Z-0.998000 I-1.223384 J-0.883951
G03 X84.748966 Y51.679802 Z-0.998000 I-0.170349 J-0.877111
G03 X83.299917 Y49.082294 Z-0.998000 I6.155816 J-5.137031
G02 X77.789306 Y41.826374 Z-0.998000 I-53.898472 J35.213438
G02 X71.036757 Y35.696724 Z-0.998000 I-30.295457 J26.589905
G02 X69.604948 Y37.353726 Z-0.998000 I1.867074 J3.060443
G03 X67.674087 Y37.624484 Z-0.998000 I-1.046867 J-0.445368
G03 X59.028537 Y29.053901 Z-0.998000 I26.298749 J-35.174663
G03 X52.740297 Y18.642774 Z-0.998000 I45.155515 J-34.378167
G02 X48.949702 Y19.717323 Z-0.998000 I1.128107 J11.202675
G03 X46.036517 Y18.090164 Z-0.998000 I-0.888798 J-1.830130
G02 X44.449751 Y18.466999 Z-0.998000 I2.148857 J12.577532
G03 X42.886777 Y18.930224 Z-0.998000 I-26.542363 J-86.688443
G01 X42.886777 Y18.930224 Z-0.998000
G00 Z5.000000

(End cutting path id: path161270)


(Start cutting path id: path161270)
(Change tool to Cylindrical cutter)

G00 Z5.000000
G00 X42.886777 Y18.930224

G01 Z-1.000000 F100.0(Penetrate)
G02 X26.717489 Y27.560799 Z-1.000000 I13.057980 J43.925760 F400.000000
G02 X16.780003 Y43.064544 Z-1.000000 I19.301035 J23.308152
G02 X18.931869 Y49.278588 Z-1.000000 I5.518030 J1.568765
G03 X20.493846 Y53.495614 Z-1.000000 I-2.375003 J3.277485
G03 X14.397925 Y53.167954 Z-1.000000 I-2.707955 J-6.489430
G02 X9.252001 Y55.916074 Z-1.000000 I-1.677480 J3.050872
G02 X9.329458 Y62.196977 Z-1.000000 I6.018259 J3.066711
G03 X8.589626 Y68.438474 Z-1.000000 I-4.797961 J2.595873
G03 X7.191745 Y74.508867 Z-1.000000 I-10.284063 J0.827949
G02 X5.522605 Y79.830254 Z-1.000000 I10.577612 J6.240311
G02 X10.905465 Y87.691653 Z-1.000000 I14.539859 J-4.182161
G03 X18.389051 Y93.466964 Z-1.000000 I-397.936985 J523.378707
G02 X18.851215 Y98.720852 Z-1.000000 I69.075320 J-3.429020
G03 X18.041240 Y104.062044 Z-1.000000 I-9.820467 J1.242768
G02 X19.563152 Y107.371571 Z-1.000000 I2.537890 J0.837626
G03 X20.928597 Y111.428904 Z-1.000000 I-1.077243 J2.620961
G02 X24.424935 Y116.177951 Z-1.000000 I5.396400 J-0.311373
G03 X28.001217 Y120.947014 Z-1.000000 I-1.947028 J5.185504
G02 X35.278848 Y123.719290 Z-1.000000 I5.644997 J-3.880383
G02 X38.345445 Y122.475124 Z-1.000000 I-2.733713 J-11.139339
G03 X39.717739 Y125.857104 Z-1.000000 I-7.698331 J5.093131
G02 X42.823217 Y127.920584 Z-1.000000 I2.559072 J-0.482763
G02 X62.686766 Y124.297675 Z-1.000000 I0.100772 J-55.712511
G02 X79.481037 Y112.980834 Z-1.000000 I-15.732622 J-41.467148
G02 X94.162787 Y82.248816 Z-1.000000 I-38.476370 J-37.254494
G02 X87.999027 Y48.809544 Z-1.000000 I-56.306896 J-6.908830
G03 X86.540954 Y51.386754 Z-1.000000 I-12.307392 J-5.261922
G03 X85.605327 Y51.984435 Z-1.000000 I-1.223384 J-0.883951
G03 X84.748966 Y51.679802 Z-1.000000 I-0.170349 J-0.877111
G03 X83.299917 Y49.082294 Z-1.000000 I6.155816 J-5.137031
G02 X77.789306 Y41.826374 Z-1.000000 I-53.898472 J35.213438
G02 X71.036757 Y35.696724 Z-1.000000 I-30.295457 J26.589905
G02 X69.604948 Y37.353726 Z-1.000000 I1.867074 J3.060443
G03 X67.674087 Y37.624484 Z-1.000000 I-1.046867 J-0.445368
G03 X59.028537 Y29.053901 Z-1.000000 I26.298749 J-35.174663
G03 X52.740297 Y18.642774 Z-1.000000 I45.155515 J-34.378167
G02 X48.949702 Y19.717323 Z-1.000000 I1.128107 J11.202675
G03 X46.036517 Y18.090164 Z-1.000000 I-0.888798 J-1.830130
G02 X44.449751 Y18.466999 Z-1.000000 I2.148857 J12.577532
G03 X42.886777 Y18.930224 Z-1.000000 I-26.542363 J-86.688443
G01 X42.886777 Y18.930224 Z-1.000000
G00 Z5.000000

(End cutting path id: path161270)


(Start cutting path id: path161270)
(Change tool to Cylindrical cutter)

G00 Z5.000000
G00 X38.410348 Y28.131974

G01 Z-0.998000 F100.0(Penetrate)
G02 X37.012142 Y36.652244 Z-0.998000 I42.266049 J11.310868 F400.000000
G02 X37.766612 Y45.258284 Z-0.998000 I28.606359 J1.828242
G02 X44.703993 Y55.097018 Z-0.998000 I17.025232 J-4.639474
G03 X52.396037 Y64.242714 Z-0.998000 I-13.140598 J18.859549
G03 X53.586576 Y68.695281 Z-0.998000 I-8.672632 J4.704359
G02 X53.799397 Y73.273604 Z-0.998000 I109.472511 J-2.794668
G02 X55.175838 Y71.182455 Z-0.998000 I-8.861090 J-7.331143
G03 X56.397086 Y69.361306 Z-0.998000 I8.315268 J4.256100
G03 X57.163266 Y69.287419 Z-0.998000 I0.421472 J0.361064
G03 X58.330897 Y71.282554 Z-0.998000 I-1.979493 J2.497716
G03 X58.908675 Y78.514013 Z-0.998000 I-9.164366 J4.371024
G03 X56.529117 Y83.503304 Z-0.998000 I-16.703651 J-4.904434
G02 X58.941842 Y82.917892 Z-0.998000 I0.426447 J-3.507060
G03 X61.494346 Y81.333300 Z-0.998000 I20.356461 J29.942631
G03 X62.243615 Y81.541201 Z-0.998000 I0.270546 J0.479083
G03 X62.366487 Y83.571204 Z-0.998000 I-2.013517 J1.140594
G02 X60.506005 Y88.559029 Z-0.998000 I169.395027 J66.026033
G03 X56.744027 Y91.738634 Z-0.998000 I-4.614871 J-1.644814
G02 X54.519323 Y91.348597 Z-0.998000 I-2.492885 J7.679307
G02 X52.312511 Y91.539803 Z-0.998000 I-0.308201 J9.273512
G02 X52.095391 Y92.009924 Z-0.998000 I0.065990 J0.315674
G02 X53.522727 Y93.202794 Z-0.998000 I2.227851 J-1.215370
G03 X59.659017 Y95.913481 Z-0.998000 I-6.371745 J22.724797
G03 X60.696807 Y102.640744 Z-0.998000 I-2.381795 J3.811111
G03 X55.376730 Y107.642215 Z-0.998000 I-21.690888 J-17.742427
G03 X48.124457 Y108.572174 Z-0.998000 I-4.484710 J-6.230588
G03 X43.366021 Y106.351001 Z-0.998000 I0.612212 J-7.519150
G03 X45.120467 Y103.207634 Z-0.998000 I1.334510 J-1.316452
G02 X51.921907 Y104.951277 Z-0.998000 I4.704692 J-4.214591
G02 X56.922097 Y100.392314 Z-0.998000 I-2.877884 J-8.177953
G02 X52.246381 Y97.174283 Z-0.998000 I-10.134098 J9.718720
G03 X49.780127 Y90.858104 Z-0.998000 I1.838541 J-4.357472
G02 X51.765912 Y83.440993 Z-0.998000 I-35.324579 J-13.431843
G02 X51.730387 Y75.787854 Z-0.998000 I-23.072970 J-3.719549
G02 X47.282772 Y83.764609 Z-0.998000 I93.085654 J57.130256
G02 X45.797597 Y93.033584 Z-0.998000 I13.828860 J6.969282
G03 X46.066314 Y95.365080 Z-0.998000 I-7.646916 J2.062580
G03 X45.760988 Y95.646049 Z-0.998000 I-0.291039 J-0.009887
G03 X44.962126 Y95.422735 Z-0.998000 I0.091801 J-1.868947
G02 X42.926377 Y94.550694 Z-0.998000 I-5.776751 J10.673404
G02 X41.214325 Y95.568884 Z-0.998000 I-0.257052 J1.516248
G02 X41.661891 Y97.615294 Z-0.998000 I1.911082 J0.654180
G02 X37.503850 Y100.012995 Z-0.998000 I1.109426 J6.728186
G03 X31.810424 Y100.940164 Z-0.998000 I-3.373911 J-2.773757
G03 X26.255877 Y97.014583 Z-0.998000 I-0.218692 J-5.583086
G02 X24.748439 Y96.286394 Z-0.998000 I-1.093720 J0.339748
G02 X27.411280 Y100.450844 Z-0.998000 I4.201707 J0.246900
G03 X27.322289 Y104.427334 Z-0.998000 I-0.774591 J1.971906
G03 X22.747227 Y104.205443 Z-0.998000 I-2.153002 J-2.884731
G03 X23.189398 Y100.851294 Z-0.998000 I1.385774 J-1.523536
G02 X25.049112 Y101.897754 Z-0.998000 I4.223809 J-5.330611
G02 X26.852650 Y102.348817 Z-0.998000 I2.944905 J-7.943788
G02 X27.055848 Y102.074495 Z-0.998000 I0.026238 J-0.192983
G02 X25.924360 Y100.804594 Z-0.998000 I-2.640581 J1.213740
G03 X22.075531 Y96.593535 Z-0.998000 I3.890814 J-7.420539
G03 X20.754362 Y91.788714 Z-0.998000 I18.495365 J-7.669671
G02 X13.170743 Y86.524763 Z-0.998000 I-201.230537 J281.812184
G03 X6.942195 Y79.656694 Z-0.998000 I10.872937 J-16.118825
G03 X10.858340 Y77.717372 Z-0.998000 I3.465411 J2.074165
G03 X17.164164 Y79.731994 Z-0.998000 I-1.883522 J16.771493
G02 X14.063393 Y75.734830 Z-0.998000 I-3.778880 J-0.269844
G03 X10.951565 Y70.982984 Z-0.998000 I0.701156 J-3.854004
G03 X14.930169 Y65.905393 Z-0.998000 I7.543913 J1.813584
G03 X20.665261 Y63.856504 Z-0.998000 I10.448165 J20.194637
G03 X21.823269 Y63.705340 Z-0.998000 I0.703295 J0.876561
G02 X23.921020 Y63.123914 Z-0.998000 I0.694431 J-1.569527
G03 X23.954235 Y64.094669 Z-0.998000 I-1.279839 J0.529736
G02 X24.972321 Y65.065804 Z-0.998000 I0.736315 J0.247308
G03 X26.095373 Y65.852549 Z-0.998000 I0.383360 J0.647699
G02 X27.619125 Y66.903404 Z-0.998000 I0.995217 J0.187080
G03 X29.661740 Y66.400508 Z-0.998000 I2.409882 J5.388533
G03 X29.956984 Y66.577324 Z-0.998000 I0.018909 J0.303330
G03 X29.875022 Y66.869971 Z-0.998000 I-0.213852 J0.097908
G03 X27.932047 Y67.730364 Z-0.998000 I-3.356795 J-4.956405
G02 X25.057216 Y71.511559 Z-0.998000 I200.513860 J155.433534
G02 X25.064372 Y74.302574 Z-0.998000 I1.865185 J1.390734
G02 X30.240299 Y75.569811 Z-0.998000 I13.136994 J-42.453030
G03 X34.639483 Y78.770604 Z-0.998000 I-1.122936 J6.166895
G02 X37.134432 Y75.053968 Z-0.998000 I0.075130 J-2.645304
G03 X36.095394 Y70.158574 Z-0.998000 I11.098212 J-4.913538
G03 X40.900396 Y74.593914 Z-0.998000 I0.754306 J4.003233
G02 X43.067777 Y77.144414 Z-0.998000 I2.296125 J0.244939
G02 X42.569911 Y69.210227 Z-0.998000 I-11.759511 J-3.244810
G02 X37.943445 Y62.809154 Z-0.998000 I-15.904273 J6.622579
G03 X33.647731 Y58.380205 Z-0.998000 I34.919104 J-38.166367
G03 X33.324151 Y53.912404 Z-0.998000 I2.850137 J-2.452039
G02 X39.205807 Y58.770422 Z-0.998000 I61.952618 J-69.017212
G03 X44.260737 Y64.469474 Z-0.998000 I-11.825080 J15.579909
G03 X45.668287 Y74.395290 Z-0.998000 I-18.530168 J7.690415
G03 X44.213037 Y84.241764 Z-0.998000 I-141.017566 J-15.810776
G02 X46.802113 Y81.721235 Z-0.998000 I-0.239748 J-2.836277
G03 X48.209257 Y74.028664 Z-0.998000 I55.746748 J6.222345
G02 X48.390584 Y65.363187 Z-0.998000 I-26.203254 J-4.882945
G02 X44.002217 Y57.702624 Z-0.998000 I-11.844792 J1.698087
G02 X36.106978 Y51.829844 Z-0.998000 I-29.724078 J31.716926
G03 X28.696566 Y45.410494 Z-0.998000 I13.189695 J-22.712923
G03 X29.571570 Y36.060085 Z-0.998000 I9.667911 J-3.811430
G03 X35.558314 Y29.048944 Z-0.998000 I27.066322 J17.050082
G02 X36.485987 Y28.336745 Z-0.998000 I-1.385291 J-2.764674
G03 X38.064707 Y26.779512 Z-0.998000 I12.489135 J11.082595
G03 X38.422029 Y26.865442 Z-0.998000 I0.147812 J0.171242
G03 X38.410378 Y28.131964 Z-0.998000 I-1.520953 J0.619323
G01 X38.410348 Y28.131974 Z-0.998000
G00 Z5.000000

(End cutting path id: path161270)


(Start cutting path id: path161270)
(Change tool to Cylindrical cutter)

G00 Z5.000000
G00 X38.410348 Y28.131974

G01 Z-1.000000 F100.0(Penetrate)
G02 X37.012142 Y36.652244 Z-1.000000 I42.266049 J11.310868 F400.000000
G02 X37.766612 Y45.258284 Z-1.000000 I28.606359 J1.828242
G02 X44.703993 Y55.097018 Z-1.000000 I17.025232 J-4.639474
G03 X52.396037 Y64.242714 Z-1.000000 I-13.140598 J18.859549
G03 X53.586576 Y68.695281 Z-1.000000 I-8.672632 J4.704359
G02 X53.799397 Y73.273604 Z-1.000000 I109.472511 J-2.794668
G02 X55.175838 Y71.182455 Z-1.000000 I-8.861090 J-7.331143
G03 X56.397086 Y69.361306 Z-1.000000 I8.315268 J4.256100
G03 X57.163266 Y69.287419 Z-1.000000 I0.421472 J0.361064
G03 X58.330897 Y71.282554 Z-1.000000 I-1.979493 J2.497716
G03 X58.908675 Y78.514013 Z-1.000000 I-9.164366 J4.371024
G03 X56.529117 Y83.503304 Z-1.000000 I-16.703651 J-4.904434
G02 X58.941842 Y82.917892 Z-1.000000 I0.426447 J-3.507060
G03 X61.494346 Y81.333300 Z-1.000000 I20.356461 J29.942631
G03 X62.243615 Y81.541201 Z-1.000000 I0.270546 J0.479083
G03 X62.366487 Y83.571204 Z-1.000000 I-2.013517 J1.140594
G02 X60.506005 Y88.559029 Z-1.000000 I169.395027 J66.026033
G03 X56.744027 Y91.738634 Z-1.000000 I-4.614871 J-1.644814
G02 X54.519323 Y91.348597 Z-1.000000 I-2.492885 J7.679307
G02 X52.312511 Y91.539803 Z-1.000000 I-0.308201 J9.273512
G02 X52.095391 Y92.009924 Z-1.000000 I0.065990 J0.315674
G02 X53.522727 Y93.202794 Z-1.000000 I2.227851 J-1.215370
G03 X59.659017 Y95.913481 Z-1.000000 I-6.371745 J22.724797
G03 X60.696807 Y102.640744 Z-1.000000 I-2.381795 J3.811111
G03 X55.376730 Y107.642215 Z-1.000000 I-21.690888 J-17.742427
G03 X48.124457 Y108.572174 Z-1.000000 I-4.484710 J-6.230588
G03 X43.366021 Y106.351001 Z-1.000000 I0.612212 J-7.519150
G03 X45.120467 Y103.207634 Z-1.000000 I1.334510 J-1.316452
G02 X51.921907 Y104.951277 Z-1.000000 I4.704692 J-4.214591
G02 X56.922097 Y100.392314 Z-1.000000 I-2.877884 J-8.177953
G02 X52.246381 Y97.174283 Z-1.000000 I-10.134098 J9.718720
G03 X49.780127 Y90.858104 Z-1.000000 I1.838541 J-4.357472
G02 X51.765912 Y83.440993 Z-1.000000 I-35.324579 J-13.431843
G02 X51.730387 Y75.787854 Z-1.000000 I-23.072970 J-3.719549
G02 X47.282772 Y83.764609 Z-1.000000 I93.085654 J57.130256
G02 X45.797597 Y93.033584 Z-1.000000 I13.828860 J6.969282
G03 X46.066314 Y95.365080 Z-1.000000 I-7.646916 J2.062580
G03 X45.760988 Y95.646049 Z-1.000000 I-0.291039 J-0.009887
G03 X44.962126 Y95.422735 Z-1.000000 I0.091801 J-1.868947
G02 X42.926377 Y94.550694 Z-1.000000 I-5.776751 J10.673404
G02 X41.214325 Y95.568884 Z-1.000000 I-0.257052 J1.516248
G02 X41.661891 Y97.615294 Z-1.000000 I1.911082 J0.654180
G02 X37.503850 Y100.012995 Z-1.000000 I1.109426 J6.728186
G03 X31.810424 Y100.940164 Z-1.000000 I-3.373911 J-2.773757
G03 X26.255877 Y97.014583 Z-1.000000 I-0.218692 J-5.583086
G02 X24.748439 Y96.286394 Z-1.000000 I-1.093720 J0.339748
G02 X27.411280 Y100.450844 Z-1.000000 I4.201707 J0.246900
G03 X27.322289 Y104.427334 Z-1.000000 I-0.774591 J1.971906
G03 X22.747227 Y104.205443 Z-1.000000 I-2.153002 J-2.884731
G03 X23.189398 Y100.851294 Z-1.000000 I1.385774 J-1.523536
G02 X25.049112 Y101.897754 Z-1.000000 I4.223809 J-5.330611
G02 X26.852650 Y102.348817 Z-1.000000 I2.944905 J-7.943788
G02 X27.055848 Y102.074495 Z-1.000000 I0.026238 J-0.192983
G02 X25.924360 Y100.804594 Z-1.000000 I-2.640581 J1.213740
G03 X22.075531 Y96.593535 Z-1.000000 I3.890814 J-7.420539
G03 X20.754362 Y91.788714 Z-1.000000 I18.495365 J-7.669671
G02 X13.170743 Y86.524763 Z-1.000000 I-201.230537 J281.812184
G03 X6.942195 Y79.656694 Z-1.000000 I10.872937 J-16.118825
G03 X10.858340 Y77.717372 Z-1.000000 I3.465411 J2.074165
G03 X17.164164 Y79.731994 Z-1.000000 I-1.883522 J16.771493
G02 X14.063393 Y75.734830 Z-1.000000 I-3.778880 J-0.269844
G03 X10.951565 Y70.982984 Z-1.000000 I0.701156 J-3.854004
G03 X14.930169 Y65.905393 Z-1.000000 I7.543913 J1.813584
G03 X20.665261 Y63.856504 Z-1.000000 I10.448165 J20.194637
G03 X21.823269 Y63.705340 Z-1.000000 I0.703295 J0.876561
G02 X23.921020 Y63.123914 Z-1.000000 I0.694431 J-1.569527
G03 X23.954235 Y64.094669 Z-1.000000 I-1.279839 J0.529736
G02 X24.972321 Y65.065804 Z-1.000000 I0.736315 J0.247308
G03 X26.095373 Y65.852549 Z-1.000000 I0.383360 J0.647699
G02 X27.619125 Y66.903404 Z-1.000000 I0.995217 J0.187080
G03 X29.661740 Y66.400508 Z-1.000000 I2.409882 J5.388533
G03 X29.956984 Y66.577324 Z-1.000000 I0.018909 J0.303330
G03 X29.875022 Y66.869971 Z-1.000000 I-0.213852 J0.097908
G03 X27.932047 Y67.730364 Z-1.000000 I-3.356795 J-4.956405
G02 X25.057216 Y71.511559 Z-1.000000 I200.513860 J155.433534
G02 X25.064372 Y74.302574 Z-1.000000 I1.865185 J1.390734
G02 X30.240299 Y75.569811 Z-1.000000 I13.136994 J-42.453030
G03 X34.639483 Y78.770604 Z-1.000000 I-1.122936 J6.166895
G02 X37.134432 Y75.053968 Z-1.000000 I0.075130 J-2.645304
G03 X36.095394 Y70.158574 Z-1.000000 I11.098212 J-4.913538
G03 X40.900396 Y74.593914 Z-1.000000 I0.754306 J4.003233
G02 X43.067777 Y77.144414 Z-1.000000 I2.296125 J0.244939
G02 X42.569911 Y69.210227 Z-1.000000 I-11.759511 J-3.244810
G02 X37.943445 Y62.809154 Z-1.000000 I-15.904273 J6.622579
G03 X33.647731 Y58.380205 Z-1.000000 I34.919104 J-38.166367
G03 X33.324151 Y53.912404 Z-1.000000 I2.850137 J-2.452039
G02 X39.205807 Y58.770422 Z-1.000000 I61.952618 J-69.017212
G03 X44.260737 Y64.469474 Z-1.000000 I-11.825080 J15.579909
G03 X45.668287 Y74.395290 Z-1.000000 I-18.530168 J7.690415
G03 X44.213037 Y84.241764 Z-1.000000 I-141.017566 J-15.810776
G02 X46.802113 Y81.721235 Z-1.000000 I-0.239748 J-2.836277
G03 X48.209257 Y74.028664 Z-1.000000 I55.746748 J6.222345
G02 X48.390584 Y65.363187 Z-1.000000 I-26.203254 J-4.882945
G02 X44.002217 Y57.702624 Z-1.000000 I-11.844792 J1.698087
G02 X36.106978 Y51.829844 Z-1.000000 I-29.724078 J31.716926
G03 X28.696566 Y45.410494 Z-1.000000 I13.189695 J-22.712923
G03 X29.571570 Y36.060085 Z-1.000000 I9.667911 J-3.811430
G03 X35.558314 Y29.048944 Z-1.000000 I27.066322 J17.050082
G02 X36.485987 Y28.336745 Z-1.000000 I-1.385291 J-2.764674
G03 X38.064707 Y26.779512 Z-1.000000 I12.489135 J11.082595
G03 X38.422029 Y26.865442 Z-1.000000 I0.147812 J0.171242
G03 X38.410378 Y28.131964 Z-1.000000 I-1.520953 J0.619323
G01 X38.410348 Y28.131974 Z-1.000000
G00 Z5.000000

(End cutting path id: path161270)


(Start cutting path id: path161270)
(Change tool to Cylindrical cutter)

G00 Z5.000000
G00 X18.392082 Y82.729064

G01 Z-0.998000 F100.0(Penetrate)
G02 X22.879395 Y86.906054 Z-0.998000 I13.603262 J-10.115054 F400.000000
G02 X28.679042 Y90.150234 Z-0.998000 I30.950775 J-48.524827
G03 X28.200745 Y91.502547 Z-0.998000 I-1.518410 J0.223696
G02 X28.466820 Y94.452954 Z-0.998000 I1.265410 J1.373084
G02 X29.809282 Y96.390732 Z-0.998000 I3.112998 J-0.722728
G02 X31.771232 Y97.336845 Z-0.998000 I4.390765 J-6.597810
G02 X32.040523 Y97.072807 Z-0.998000 I0.065281 J-0.202763
G02 X30.921868 Y95.489564 Z-0.998000 I-2.921713 J0.877544
G03 X31.002092 Y93.252850 Z-0.998000 I1.174982 J-1.077653
G03 X32.875145 Y92.056710 Z-0.998000 I4.070747 J4.309854
G02 X34.244544 Y91.504103 Z-0.998000 I-72.319571 J-181.185801
G02 X34.676571 Y91.149197 Z-0.998000 I-0.356897 J-0.874859
G02 X34.621113 Y90.853142 Z-0.998000 I-0.181030 J-0.119311
G02 X33.067056 Y90.090474 Z-0.998000 I-3.117760 J4.388279
G02 X28.356080 Y88.902705 Z-0.998000 I-3.638745 J4.495821
G03 X25.897763 Y86.898194 Z-0.998000 I-0.384502 J-2.038136
G03 X22.434667 Y84.010003 Z-0.998000 I1.519569 J-5.342358
G02 X18.392082 Y82.729064 Z-0.998000 I-2.635557 J1.298121
G01 X18.392082 Y82.729064 Z-0.998000
G00 Z5.000000

(End cutting path id: path161270)


(Start cutting path id: path161270)
(Change tool to Cylindrical cutter)

G00 Z5.000000
G00 X18.392082 Y82.729064

G01 Z-1.000000 F100.0(Penetrate)
G02 X22.879395 Y86.906054 Z-1.000000 I13.603262 J-10.115054 F400.000000
G02 X28.679042 Y90.150234 Z-1.000000 I30.950775 J-48.524827
G03 X28.200745 Y91.502547 Z-1.000000 I-1.518410 J0.223696
G02 X28.466820 Y94.452954 Z-1.000000 I1.265410 J1.373084
G02 X29.809282 Y96.390732 Z-1.000000 I3.112998 J-0.722728
G02 X31.771232 Y97.336845 Z-1.000000 I4.390765 J-6.597810
G02 X32.040523 Y97.072807 Z-1.000000 I0.065281 J-0.202763
G02 X30.921868 Y95.489564 Z-1.000000 I-2.921713 J0.877544
G03 X31.002092 Y93.252850 Z-1.000000 I1.174982 J-1.077653
G03 X32.875145 Y92.056710 Z-1.000000 I4.070747 J4.309854
G02 X34.244544 Y91.504103 Z-1.000000 I-72.319571 J-181.185801
G02 X34.676571 Y91.149197 Z-1.000000 I-0.356897 J-0.874859
G02 X34.621113 Y90.853142 Z-1.000000 I-0.181030 J-0.119311
G02 X33.067056 Y90.090474 Z-1.000000 I-3.117760 J4.388279
G02 X28.356080 Y88.902705 Z-1.000000 I-3.638745 J4.495821
G03 X25.897763 Y86.898194 Z-1.000000 I-0.384502 J-2.038136
G03 X22.434667 Y84.010003 Z-1.000000 I1.519569 J-5.342358
G02 X18.392082 Y82.729064 Z-1.000000 I-2.635557 J1.298121
G01 X18.392082 Y82.729064 Z-1.000000
G00 Z5.000000

(End cutting path id: path161270)


(Start cutting path id: path161270)
(Change tool to Cylindrical cutter)

G00 Z5.000000
G00 X32.096567 Y89.999084

G01 Z-0.998000 F100.0(Penetrate)
G03 X31.970623 Y90.472467 Z-0.998000 I-0.214707 J0.196322 F400.000000
G03 X31.541396 Y90.413691 Z-0.998000 I-0.153170 J-0.478099
G03 X31.498163 Y90.173311 Z-0.998000 I0.092656 J-0.140743
G03 X32.096567 Y89.999084 Z-0.998000 I0.412661 J0.302576
G01 X32.096567 Y89.999084 Z-0.998000
G00 Z5.000000

(End cutting path id: path161270)


(Start cutting path id: path161270)
(Change tool to Cylindrical cutter)

G00 Z5.000000
G00 X32.096567 Y89.999084

G01 Z-1.000000 F100.0(Penetrate)
G03 X31.970623 Y90.472467 Z-1.000000 I-0.214707 J0.196322 F400.000000
G03 X31.541396 Y90.413691 Z-1.000000 I-0.153170 J-0.478099
G03 X31.498163 Y90.173311 Z-1.000000 I0.092656 J-0.140743
G03 X32.096567 Y89.999084 Z-1.000000 I0.412661 J0.302576
G01 X32.096567 Y89.999084 Z-1.000000
G00 Z5.000000

(End cutting path id: path161270)


(Start cutting path id: path161270)
(Change tool to Cylindrical cutter)

G00 Z5.000000
G00 X34.713445 Y85.493344

G01 Z-0.998000 F100.0(Penetrate)
G03 X34.309071 Y86.766354 Z-0.998000 I-0.789936 J0.449806 F400.000000
G03 X32.925329 Y87.182858 Z-0.998000 I-2.111552 J-4.508329
G02 X32.813268 Y87.412241 Z-0.998000 I0.022629 J0.153119
G02 X33.564201 Y88.001494 Z-0.998000 I1.091723 J-0.618158
G02 X36.101126 Y88.351345 Z-0.998000 I1.721130 J-3.107569
G02 X36.582741 Y87.744559 Z-0.998000 I-0.143575 J-0.608483
G02 X36.142245 Y86.336777 Z-0.998000 I-2.448569 J-0.006648
G02 X34.713445 Y85.493344 Z-0.998000 I-1.638027 J1.142934
G01 X34.713445 Y85.493344 Z-0.998000
G00 Z5.000000

(End cutting path id: path161270)


(Start cutting path id: path161270)
(Change tool to Cylindrical cutter)

G00 Z5.000000
G00 X34.713445 Y85.493344

G01 Z-1.000000 F100.0(Penetrate)
G03 X34.309071 Y86.766354 Z-1.000000 I-0.789936 J0.449806 F400.000000
G03 X32.925329 Y87.182858 Z-1.000000 I-2.111552 J-4.508329
G02 X32.813268 Y87.412241 Z-1.000000 I0.022629 J0.153119
G02 X33.564201 Y88.001494 Z-1.000000 I1.091723 J-0.618158
G02 X36.101126 Y88.351345 Z-1.000000 I1.721130 J-3.107569
G02 X36.582741 Y87.744559 Z-1.000000 I-0.143575 J-0.608483
G02 X36.142245 Y86.336777 Z-1.000000 I-2.448569 J-0.006648
G02 X34.713445 Y85.493344 Z-1.000000 I-1.638027 J1.142934
G01 X34.713445 Y85.493344 Z-1.000000
G00 Z5.000000

(End cutting path id: path161270)


(Start cutting path id: path161270)
(Change tool to Cylindrical cutter)

G00 Z5.000000
G00 X53.086697 Y32.950934

G01 Z-0.998000 F100.0(Penetrate)
G02 X60.269903 Y41.801734 Z-0.998000 I18.465775 J-7.646305 F400.000000
G03 X66.479317 Y51.503414 Z-0.998000 I-8.317256 J12.161295
G02 X67.570680 Y52.847080 Z-0.998000 I2.076983 J-0.571933
G02 X68.050571 Y52.615078 Z-0.998000 I0.152622 J-0.296628
G02 X68.473819 Y49.493412 Z-0.998000 I-25.684325 J-5.071910
G03 X69.022987 Y47.928934 Z-0.998000 I3.179700 J0.237525
G03 X77.138973 Y58.045956 Z-0.998000 I-13.902418 J19.466550
G03 X79.143057 Y70.841164 Z-0.998000 I-24.457682 J10.385302
G02 X78.847326 Y72.943760 Z-0.998000 I13.838903 J3.018543
G02 X79.041754 Y73.709880 Z-0.998000 I1.279819 J0.082934
G02 X79.469519 Y73.819156 Z-0.998000 I0.271495 J-0.170889
G02 X81.159327 Y72.387244 Z-0.998000 I-2.795781 J-5.012350
G02 X84.439085 Y66.949037 Z-0.998000 I-6.842587 J-7.834839
G03 X86.146207 Y63.648304 Z-0.998000 I7.459389 J1.766134
G03 X84.576994 Y79.182474 Z-0.998000 I-48.080800 J2.989373
G03 X75.568587 Y92.159354 Z-0.998000 I-22.651969 J-6.109539
G02 X73.880549 Y93.342950 Z-0.998000 I135.177646 J194.585104
G03 X71.630558 Y94.558538 Z-0.998000 I-6.143555 J-8.681306
G03 X70.826324 Y94.280048 Z-0.998000 I-0.239515 J-0.608814
G03 X70.720677 Y92.286744 Z-0.998000 I1.878904 J-1.099035
G02 X72.501086 Y79.984525 Z-0.998000 I-259.579109 J-43.846910
G02 X71.065147 Y67.571994 Z-0.998000 I-26.606913 J-3.211312
G02 X70.259277 Y65.740058 Z-0.998000 I-7.961676 J2.409127
G02 X68.371192 Y63.019824 Z-0.998000 I-19.872524 J11.777939
G02 X66.351479 Y61.111829 Z-0.998000 I-8.014931 J6.461244
G02 X65.448337 Y61.287444 Z-0.998000 I-0.368592 J0.514549
G03 X69.411016 Y73.683104 Z-0.998000 I-28.819780 J16.044418
G03 X68.013847 Y86.602974 Z-0.998000 I-29.782100 J3.314811
G02 X66.908876 Y80.061115 Z-0.998000 I-141.337479 J20.508762
G02 X64.592267 Y73.320694 Z-0.998000 I-24.990324 J4.820593
G02 X54.111018 Y59.901727 Z-0.998000 I-35.365952 J16.820723
G03 X42.966777 Y47.152684 Z-0.998000 I32.970659 J-40.065679
G03 X41.807339 Y37.772879 Z-0.998000 I15.953140 J-6.733530
G03 X45.260917 Y29.130294 Z-0.998000 I20.457620 J3.163550
G02 X46.140416 Y37.038107 Z-0.998000 I211.992710 J-19.574812
G02 X49.705617 Y44.345404 Z-0.998000 I12.645134 J-1.646138
G03 X56.100595 Y50.756414 Z-0.998000 I-10661.562858 J10641.297861
G02 X62.757457 Y56.859484 Z-0.998000 I71.206327 J-70.985585
G02 X57.533841 Y48.978370 Z-0.998000 I-42.355286 J22.401491
G03 X51.799157 Y41.500664 Z-0.998000 I122.070927 J-99.554525
G03 X49.483179 Y34.637370 Z-0.998000 I11.790462 J-7.801026
G03 X51.299057 Y27.585124 Z-0.998000 I11.605915 J-0.771508
G02 X52.057258 Y30.310831 Z-0.998000 I59.455618 J-15.070272
G02 X53.086697 Y32.950934 Z-0.998000 I17.531888 J-5.315347
G01 X53.086697 Y32.950934 Z-0.998000
G00 Z5.000000

(End cutting path id: path161270)


(Start cutting path id: path161270)
(Change tool to Cylindrical cutter)

G00 Z5.000000
G00 X53.086697 Y32.950934

G01 Z-1.000000 F100.0(Penetrate)
G02 X60.269903 Y41.801734 Z-1.000000 I18.465775 J-7.646305 F400.000000
G03 X66.479317 Y51.503414 Z-1.000000 I-8.317256 J12.161295
G02 X67.570680 Y52.847080 Z-1.000000 I2.076983 J-0.571933
G02 X68.050571 Y52.615078 Z-1.000000 I0.152622 J-0.296628
G02 X68.473819 Y49.493412 Z-1.000000 I-25.684325 J-5.071910
G03 X69.022987 Y47.928934 Z-1.000000 I3.179700 J0.237525
G03 X77.138973 Y58.045956 Z-1.000000 I-13.902418 J19.466550
G03 X79.143057 Y70.841164 Z-1.000000 I-24.457682 J10.385302
G02 X78.847326 Y72.943760 Z-1.000000 I13.838903 J3.018543
G02 X79.041754 Y73.709880 Z-1.000000 I1.279819 J0.082934
G02 X79.469519 Y73.819156 Z-1.000000 I0.271495 J-0.170889
G02 X81.159327 Y72.387244 Z-1.000000 I-2.795781 J-5.012350
G02 X84.439085 Y66.949037 Z-1.000000 I-6.842587 J-7.834839
G03 X86.146207 Y63.648304 Z-1.000000 I7.459389 J1.766134
G03 X84.576994 Y79.182474 Z-1.000000 I-48.080800 J2.989373
G03 X75.568587 Y92.159354 Z-1.000000 I-22.651969 J-6.109539
G02 X73.880549 Y93.342950 Z-1.000000 I135.177646 J194.585104
G03 X71.630558 Y94.558538 Z-1.000000 I-6.143555 J-8.681306
G03 X70.826324 Y94.280048 Z-1.000000 I-0.239515 J-0.608814
G03 X70.720677 Y92.286744 Z-1.000000 I1.878904 J-1.099035
G02 X72.501086 Y79.984525 Z-1.000000 I-259.579109 J-43.846910
G02 X71.065147 Y67.571994 Z-1.000000 I-26.606913 J-3.211312
G02 X70.259277 Y65.740058 Z-1.000000 I-7.961676 J2.409127
G02 X68.371192 Y63.019824 Z-1.000000 I-19.872524 J11.777939
G02 X66.351479 Y61.111829 Z-1.000000 I-8.014931 J6.461244
G02 X65.448337 Y61.287444 Z-1.000000 I-0.368592 J0.514549
G03 X69.411016 Y73.683104 Z-1.000000 I-28.819780 J16.044418
G03 X68.013847 Y86.602974 Z-1.000000 I-29.782100 J3.314811
G02 X66.908876 Y80.061115 Z-1.000000 I-141.337479 J20.508762
G02 X64.592267 Y73.320694 Z-1.000000 I-24.990324 J4.820593
G02 X54.111018 Y59.901727 Z-1.000000 I-35.365952 J16.820723
G03 X42.966777 Y47.152684 Z-1.000000 I32.970659 J-40.065679
G03 X41.807339 Y37.772879 Z-1.000000 I15.953140 J-6.733530
G03 X45.260917 Y29.130294 Z-1.000000 I20.457620 J3.163550
G02 X46.140416 Y37.038107 Z-1.000000 I211.992710 J-19.574812
G02 X49.705617 Y44.345404 Z-1.000000 I12.645134 J-1.646138
G03 X56.100595 Y50.756414 Z-1.000000 I-10661.562858 J10641.297861
G02 X62.757457 Y56.859484 Z-1.000000 I71.206327 J-70.985585
G02 X57.533841 Y48.978370 Z-1.000000 I-42.355286 J22.401491
G03 X51.799157 Y41.500664 Z-1.000000 I122.070927 J-99.554525
G03 X49.483179 Y34.637370 Z-1.000000 I11.790462 J-7.801026
G03 X51.299057 Y27.585124 Z-1.000000 I11.605915 J-0.771508
G02 X52.057258 Y30.310831 Z-1.000000 I59.455618 J-15.070272
G02 X53.086697 Y32.950934 Z-1.000000 I17.531888 J-5.315347
G01 X53.086697 Y32.950934 Z-1.000000
G00 Z5.000000

(End cutting path id: path161270)


(Start cutting path id: path161270)
(Change tool to Cylindrical cutter)

G00 Z5.000000
G00 X31.208642 Y28.709674

G01 Z-0.998000 F100.0(Penetrate)
G03 X26.122043 Y38.739012 Z-0.998000 I-283.123376 J-137.287680 F400.000000
G02 X23.062244 Y49.634774 Z-0.998000 I23.602337 J12.505633
G03 X20.665937 Y44.610930 Z-0.998000 I4.725046 J-5.337209
G03 X22.392309 Y39.249414 Z-0.998000 I8.083944 J-0.355723
G03 X26.730532 Y32.076806 Z-0.998000 I39.702210 J19.114915
G03 X31.208642 Y28.709674 Z-0.998000 I7.946373 J5.906869
G01 X31.208642 Y28.709674 Z-0.998000
G00 Z5.000000

(End cutting path id: path161270)


(Start cutting path id: path161270)
(Change tool to Cylindrical cutter)

G00 Z5.000000
G00 X31.208642 Y28.709674

G01 Z-1.000000 F100.0(Penetrate)
G03 X26.122043 Y38.739012 Z-1.000000 I-283.123376 J-137.287680 F400.000000
G02 X23.062244 Y49.634774 Z-1.000000 I23.602337 J12.505633
G03 X20.665937 Y44.610930 Z-1.000000 I4.725046 J-5.337209
G03 X22.392309 Y39.249414 Z-1.000000 I8.083944 J-0.355723
G03 X26.730532 Y32.076806 Z-1.000000 I39.702210 J19.114915
G03 X31.208642 Y28.709674 Z-1.000000 I7.946373 J5.906869
G01 X31.208642 Y28.709674 Z-1.000000
G00 Z5.000000

(End cutting path id: path161270)


(Start cutting path id: path161270)
(Change tool to Cylindrical cutter)

G00 Z5.000000
G00 X14.375382 Y56.929434

G01 Z-0.998000 F100.0(Penetrate)
G02 X18.514296 Y57.151018 Z-0.998000 I4.169775 J-39.120522 F400.000000
G03 X19.973998 Y60.580124 Z-0.998000 I-0.001589 J2.025913
G03 X16.168113 Y63.866457 Z-0.998000 I-13.562484 J-11.859687
G03 X11.888461 Y62.049744 Z-0.998000 I-1.522267 J-2.363148
G03 X10.836913 Y58.450917 Z-0.998000 I2.627036 J-2.720639
G03 X14.375382 Y56.929434 Z-0.998000 I2.336146 J0.557708
G01 X14.375382 Y56.929434 Z-0.998000
G00 Z5.000000

(End cutting path id: path161270)


(Start cutting path id: path161270)
(Change tool to Cylindrical cutter)

G00 Z5.000000
G00 X14.375382 Y56.929434

G01 Z-1.000000 F100.0(Penetrate)
G02 X18.514296 Y57.151018 Z-1.000000 I4.169775 J-39.120522 F400.000000
G03 X19.973998 Y60.580124 Z-1.000000 I-0.001589 J2.025913
G03 X16.168113 Y63.866457 Z-1.000000 I-13.562484 J-11.859687
G03 X11.888461 Y62.049744 Z-1.000000 I-1.522267 J-2.363148
G03 X10.836913 Y58.450917 Z-1.000000 I2.627036 J-2.720639
G03 X14.375382 Y56.929434 Z-1.000000 I2.336146 J0.557708
G01 X14.375382 Y56.929434 Z-1.000000
G00 Z5.000000

(End cutting path id: path161270)


(Start cutting path id: path161270)
(Change tool to Cylindrical cutter)

G00 Z5.000000
G00 X11.173970 Y68.429104

G01 Z-0.998000 F100.0(Penetrate)
G03 X10.686264 Y70.312940 Z-0.998000 I-32.313896 J-7.360692 F400.000000
G03 X9.787863 Y72.810967 Z-0.998000 I-20.391208 J-5.923018
G03 X9.431057 Y72.848960 Z-0.998000 I-0.189126 J-0.081704
G03 X9.026992 Y71.420424 Z-0.998000 I1.789869 J-1.277682
G03 X9.221848 Y69.928362 Z-0.998000 I2.205526 J-0.470723
G03 X10.767126 Y67.314340 Z-0.998000 I21.201613 J10.769563
G03 X11.495360 Y66.407874 Z-0.998000 I6.087893 J4.145118
G03 X11.680485 Y66.390851 Z-0.998000 I0.102203 J0.096328
G03 X11.743368 Y66.558379 Z-0.998000 I-0.096377 J0.131742
G03 X11.173970 Y68.429104 Z-0.998000 I-12.827591 J-2.882358
G01 X11.173970 Y68.429104 Z-0.998000
G00 Z5.000000

(End cutting path id: path161270)


(Start cutting path id: path161270)
(Change tool to Cylindrical cutter)

G00 Z5.000000
G00 X11.173970 Y68.429104

G01 Z-1.000000 F100.0(Penetrate)
G03 X10.686264 Y70.312940 Z-1.000000 I-32.313896 J-7.360692 F400.000000
G03 X9.787863 Y72.810967 Z-1.000000 I-20.391208 J-5.923018
G03 X9.431057 Y72.848960 Z-1.000000 I-0.189126 J-0.081704
G03 X9.026992 Y71.420424 Z-1.000000 I1.789869 J-1.277682
G03 X9.221848 Y69.928362 Z-1.000000 I2.205526 J-0.470723
G03 X10.767126 Y67.314340 Z-1.000000 I21.201613 J10.769563
G03 X11.495360 Y66.407874 Z-1.000000 I6.087893 J4.145118
G03 X11.680485 Y66.390851 Z-1.000000 I0.102203 J0.096328
G03 X11.743368 Y66.558379 Z-1.000000 I-0.096377 J0.131742
G03 X11.173970 Y68.429104 Z-1.000000 I-12.827591 J-2.882358
G01 X11.173970 Y68.429104 Z-1.000000
G00 Z5.000000

(End cutting path id: path161270)


(Start cutting path id: path161270)
(Change tool to Cylindrical cutter)

G00 Z5.000000
G00 X90.809067 Y77.715334

G01 Z-0.998000 F100.0(Penetrate)
G03 X88.058400 Y93.486190 Z-0.998000 I-39.927399 J1.161387 F400.000000
G03 X80.179487 Y107.382184 Z-0.998000 I-52.762497 J-20.734261
G03 X73.941257 Y113.910287 Z-0.998000 I-1063.867997 J-1010.383344
G03 X66.001587 Y118.294204 Z-0.998000 I-11.042605 J-10.617469
G03 X58.020000 Y118.185883 Z-0.998000 I-3.305299 J-50.564451
G03 X51.015567 Y114.107584 Z-0.998000 I0.887776 J-9.578913
G03 X58.924596 Y113.765853 Z-0.998000 I4.377849 J9.626788
G02 X67.081327 Y113.529324 Z-0.998000 I3.772937 J-10.650998
G02 X70.331985 Y112.414399 Z-0.998000 I-2.575441 J-12.805162
G02 X72.610926 Y111.021080 Z-0.998000 I-6.903048 J-13.851168
G02 X72.517974 Y110.681954 Z-0.998000 I-0.111783 J-0.151663
G02 X70.068567 Y110.985264 Z-0.998000 I-0.556929 J5.544318
G03 X62.467290 Y111.520106 Z-0.998000 I-5.041769 J-17.371754
G03 X59.404317 Y107.229604 Z-0.998000 I0.515515 J-3.606597
G02 X70.107692 Y107.001443 Z-0.998000 I4.839627 J-24.135601
G02 X79.462857 Y101.770114 Z-0.998000 I-4.797388 J-19.559717
G03 X77.316136 Y102.782197 Z-0.998000 I-7.018256 J-12.103625
G03 X73.227613 Y104.015743 Z-0.998000 I-11.882314 J-31.990942
G03 X69.707405 Y104.384123 Z-0.998000 I-3.212485 J-13.694641
G03 X68.968447 Y103.525904 Z-0.998000 I0.016665 J-0.761594
G02 X83.109735 Y90.880159 Z-0.998000 I-12.241529 J-27.918990
G02 X90.280057 Y73.511384 Z-0.998000 I-61.201917 J-35.430328
G03 X90.735465 Y75.460637 Z-0.998000 I-2.812581 J1.684934
G02 X90.809067 Y77.715334 Z-0.998000 I9.940971 J0.804037
G01 X90.809067 Y77.715334 Z-0.998000
G00 Z5.000000

(End cutting path id: path161270)


(Start cutting path id: path161270)
(Change tool to Cylindrical cutter)

G00 Z5.000000
G00 X90.809067 Y77.715334

G01 Z-1.000000 F100.0(Penetrate)
G03 X88.058400 Y93.486190 Z-1.000000 I-39.927399 J1.161387 F400.000000
G03 X80.179487 Y107.382184 Z-1.000000 I-52.762497 J-20.734261
G03 X73.941257 Y113.910287 Z-1.000000 I-1063.867997 J-1010.383344
G03 X66.001587 Y118.294204 Z-1.000000 I-11.042605 J-10.617469
G03 X58.020000 Y118.185883 Z-1.000000 I-3.305299 J-50.564451
G03 X51.015567 Y114.107584 Z-1.000000 I0.887776 J-9.578913
G03 X58.924596 Y113.765853 Z-1.000000 I4.377849 J9.626788
G02 X67.081327 Y113.529324 Z-1.000000 I3.772937 J-10.650998
G02 X70.331985 Y112.414399 Z-1.000000 I-2.575441 J-12.805162
G02 X72.610926 Y111.021080 Z-1.000000 I-6.903048 J-13.851168
G02 X72.517974 Y110.681954 Z-1.000000 I-0.111783 J-0.151663
G02 X70.068567 Y110.985264 Z-1.000000 I-0.556929 J5.544318
G03 X62.467290 Y111.520106 Z-1.000000 I-5.041769 J-17.371754
G03 X59.404317 Y107.229604 Z-1.000000 I0.515515 J-3.606597
G02 X70.107692 Y107.001443 Z-1.000000 I4.839627 J-24.135601
G02 X79.462857 Y101.770114 Z-1.000000 I-4.797388 J-19.559717
G03 X77.316136 Y102.782197 Z-1.000000 I-7.018256 J-12.103625
G03 X73.227613 Y104.015743 Z-1.000000 I-11.882314 J-31.990942
G03 X69.707405 Y104.384123 Z-1.000000 I-3.212485 J-13.694641
G03 X68.968447 Y103.525904 Z-1.000000 I0.016665 J-0.761594
G02 X83.109735 Y90.880159 Z-1.000000 I-12.241529 J-27.918990
G02 X90.280057 Y73.511384 Z-1.000000 I-61.201917 J-35.430328
G03 X90.735465 Y75.460637 Z-1.000000 I-2.812581 J1.684934
G02 X90.809067 Y77.715334 Z-1.000000 I9.940971 J0.804037
G01 X90.809067 Y77.715334 Z-1.000000
G00 Z5.000000

(End cutting path id: path161270)


(Start cutting path id: path161270)
(Change tool to Cylindrical cutter)

G00 Z5.000000
G00 X39.301439 Y107.517224

G01 Z-0.998000 F100.0(Penetrate)
G02 X47.086417 Y115.277110 Z-0.998000 I348.128373 J-341.469053 F400.000000
G02 X57.154387 Y120.117544 Z-0.998000 I12.231898 J-12.551243
G02 X59.354935 Y120.357196 Z-0.998000 I4.485552 J-30.964734
G03 X61.274582 Y120.656242 Z-0.998000 I-0.872038 J11.908684
G03 X61.368476 Y120.999797 Z-0.998000 I-0.047514 J0.197594
G03 X59.763927 Y121.884534 Z-0.998000 I-2.428212 J-2.506413
G03 X52.042489 Y123.641277 Z-0.998000 I-12.568654 J-37.395739
G03 X44.141487 Y124.045754 Z-0.998000 I-6.753406 J-54.549367
G03 X39.295182 Y115.615482 Z-0.998000 I36.417030 J-26.543165
G02 X35.388074 Y106.725054 Z-0.998000 I-10297.615567 J4520.226304
G02 X35.251301 Y112.984050 Z-0.998000 I68.575712 J4.629523
G03 X35.314754 Y119.251294 Z-0.998000 I-230.609121 J5.468750
G03 X30.626409 Y118.567599 Z-0.998000 I-1.277410 J-7.657029
G03 X29.504273 Y113.901284 Z-0.998000 I1.368169 J-2.797092
G03 X31.481320 Y109.425952 Z-0.998000 I4156.769933 J1833.604109
G02 X33.458989 Y104.950874 Z-0.998000 I-5575.799251 J-2466.714465
G03 X36.801867 Y105.291354 Z-0.998000 I1.375933 J3.071552
G03 X39.301440 Y107.517224 Z-0.998000 I-9.477280 J13.159054
G01 X39.301439 Y107.517224 Z-0.998000
G00 Z5.000000

(End cutting path id: path161270)


(Start cutting path id: path161270)
(Change tool to Cylindrical cutter)

G00 Z5.000000
G00 X39.301439 Y107.517224

G01 Z-1.000000 F100.0(Penetrate)
G02 X47.086417 Y115.277110 Z-1.000000 I348.128373 J-341.469053 F400.000000
G02 X57.154387 Y120.117544 Z-1.000000 I12.231898 J-12.551243
G02 X59.354935 Y120.357196 Z-1.000000 I4.485552 J-30.964734
G03 X61.274582 Y120.656242 Z-1.000000 I-0.872038 J11.908684
G03 X61.368476 Y120.999797 Z-1.000000 I-0.047514 J0.197594
G03 X59.763927 Y121.884534 Z-1.000000 I-2.428212 J-2.506413
G03 X52.042489 Y123.641277 Z-1.000000 I-12.568654 J-37.395739
G03 X44.141487 Y124.045754 Z-1.000000 I-6.753406 J-54.549367
G03 X39.295182 Y115.615482 Z-1.000000 I36.417030 J-26.543165
G02 X35.388074 Y106.725054 Z-1.000000 I-10297.615567 J4520.226304
G02 X35.251301 Y112.984050 Z-1.000000 I68.575712 J4.629523
G03 X35.314754 Y119.251294 Z-1.000000 I-230.609121 J5.468750
G03 X30.626409 Y118.567599 Z-1.000000 I-1.277410 J-7.657029
G03 X29.504273 Y113.901284 Z-1.000000 I1.368169 J-2.797092
G03 X31.481320 Y109.425952 Z-1.000000 I4156.769933 J1833.604109
G02 X33.458989 Y104.950874 Z-1.000000 I-5575.799251 J-2466.714465
G03 X36.801867 Y105.291354 Z-1.000000 I1.375933 J3.071552
G03 X39.301440 Y107.517224 Z-1.000000 I-9.477280 J13.159054
G01 X39.301439 Y107.517224 Z-1.000000
G00 Z5.000000

(End cutting path id: path161270)


(Start cutting path id: path161270)
(Change tool to Cylindrical cutter)

G00 Z5.000000
G00 X30.084889 Y107.890004

G01 Z-0.998000 F100.0(Penetrate)
G03 X28.343811 Y112.200245 Z-0.998000 I-29.601630 J-9.450509 F400.000000
G03 X23.620224 Y112.447144 Z-0.998000 I-2.431007 J-1.200711
G03 X23.619388 Y109.578884 Z-0.998000 I2.439463 J-1.434841
G03 X25.789070 Y107.308857 Z-0.998000 I5.895481 J3.462975
G03 X29.326337 Y105.798188 Z-0.998000 I6.099495 J9.385482
G03 X30.561957 Y106.226464 Z-0.998000 I0.279723 J1.189553
G01 X30.353557 Y106.993564 Z-0.998000
G01 X30.084889 Y107.890004 Z-0.998000
G00 Z5.000000

(End cutting path id: path161270)


(Start cutting path id: path161270)
(Change tool to Cylindrical cutter)

G00 Z5.000000
G00 X30.084889 Y107.890004

G01 Z-1.000000 F100.0(Penetrate)
G03 X28.343811 Y112.200245 Z-1.000000 I-29.601630 J-9.450509 F400.000000
G03 X23.620224 Y112.447144 Z-1.000000 I-2.431007 J-1.200711
G03 X23.619388 Y109.578884 Z-1.000000 I2.439463 J-1.434841
G03 X25.789070 Y107.308857 Z-1.000000 I5.895481 J3.462975
G03 X29.326337 Y105.798188 Z-1.000000 I6.099495 J9.385482
G03 X30.561957 Y106.226464 Z-1.000000 I0.279723 J1.189553
G01 X30.353557 Y106.993564 Z-1.000000
G01 X30.084889 Y107.890004 Z-1.000000
G00 Z5.000000

(End cutting path id: path161270)


(Footer)
M5
G00 X0.0000 Y0.0000
M2
(Using default footer. To add your own footer create file "footer" in the output dir.)
(end)
%