%
(Header)
(Generated by gcodetools from Inkscape.)
(Using default header. To add your own header create file "header" in the output dir.)
M3
(Header end.)
G21 (All units in mm)

(Start cutting path id: path38)
(Change tool to Cylindrical cutter)

G00 Z5.000000
G00 X59.214252 Y104.016020

G01 Z-0.998000 F100.0(Penetrate)
G02 X59.235153 Y103.860140 Z-0.998000 I-1.662504 J-0.302254 F100.000000
G02 X59.242472 Y103.691470 Z-0.998000 I-1.939825 J-0.168670
G01 X59.242472 Y103.381020 Z-0.998000
G02 X58.755636 Y100.991642 Z-0.998000 I-6.106922 J-0.000000
G02 X57.238694 Y98.667910 Z-0.998000 I-7.278570 J3.094483
G02 X55.042451 Y96.982322 Z-0.998000 I-6.270996 J5.897222
G02 X53.273472 Y96.537130 Z-0.998000 I-1.768979 J3.291938
G02 X53.062292 Y96.545919 Z-0.998000 I0.000000 J2.541354
G02 X52.426805 Y96.607730 Z-0.998000 I1.927075 J23.110349
G02 X51.900582 Y96.839390 Z-0.998000 I0.105930 J0.954117
G02 X51.297917 Y97.595510 Z-0.998000 I1.787827 J2.043225
G02 X50.918475 Y98.541584 Z-0.998000 I3.996790 J2.152123
G02 X50.804028 Y99.387620 Z-0.998000 I3.069899 J0.846036
G02 X51.080745 Y101.079834 Z-0.998000 I5.312578 J-0.000000
G02 X51.975250 Y102.873060 Z-0.998000 I6.878196 J-2.311299
G02 X53.282667 Y104.442501 Z-0.998000 I9.036767 J-6.198753
G02 X54.797472 Y105.681170 Z-0.998000 I7.092943 J-7.128588
G02 X56.515753 Y106.559628 Z-0.998000 I4.648267 J-6.972380
G02 X57.746694 Y106.781840 Z-0.998000 I1.230941 J-3.298281
G03 X57.902016 Y106.769938 Z-0.998000 I0.499405 J5.497777
G03 X57.972472 Y106.767740 Z-0.998000 I0.070456 J1.128192
G02 X58.160589 Y106.686911 Z-0.998000 I-0.018949 J-0.303423
G02 X58.579250 Y106.203290 Z-0.998000 I-2.021030 J-2.172586
G02 X58.903649 Y105.654322 Z-0.998000 I-2.537904 J-1.870042
G02 X58.917916 Y105.469520 Z-0.998000 I-0.241849 J-0.111623
G02 X58.493345 Y105.289083 Z-0.998000 I-12.992659 J29.982127
G02 X58.240583 Y105.187290 Z-0.998000 I-4.384892 J10.523446
G02 X58.127455 Y105.088766 Z-0.998000 I-20.316234 J23.213354
G02 X58.028916 Y105.003850 Z-0.998000 I-15.190002 J17.527378
G03 X58.078302 Y104.973839 Z-0.998000 I0.086276 J0.086337
G03 X58.607472 Y104.820410 Z-0.998000 I3.353164 J10.575628
G02 X58.998003 Y104.565367 Z-0.998000 I-0.158500 J-0.669221
G02 X59.214250 Y104.016070 Z-0.998000 I-0.879439 J-0.663431
G01 X59.214252 Y104.016020 Z-0.998000
G00 Z5.000000

(End cutting path id: path38)


(Start cutting path id: path38)
(Change tool to Cylindrical cutter)

G00 Z5.000000
G00 X59.214252 Y104.016020

G01 Z-1.000000 F100.0(Penetrate)
G02 X59.235153 Y103.860140 Z-1.000000 I-1.662504 J-0.302254 F100.000000
G02 X59.242472 Y103.691470 Z-1.000000 I-1.939825 J-0.168670
G01 X59.242472 Y103.381020 Z-1.000000
G02 X58.755636 Y100.991642 Z-1.000000 I-6.106922 J-0.000000
G02 X57.238694 Y98.667910 Z-1.000000 I-7.278570 J3.094483
G02 X55.042451 Y96.982322 Z-1.000000 I-6.270996 J5.897222
G02 X53.273472 Y96.537130 Z-1.000000 I-1.768979 J3.291938
G02 X53.062292 Y96.545919 Z-1.000000 I0.000000 J2.541354
G02 X52.426805 Y96.607730 Z-1.000000 I1.927075 J23.110349
G02 X51.900582 Y96.839390 Z-1.000000 I0.105930 J0.954117
G02 X51.297917 Y97.595510 Z-1.000000 I1.787827 J2.043225
G02 X50.918475 Y98.541584 Z-1.000000 I3.996790 J2.152123
G02 X50.804028 Y99.387620 Z-1.000000 I3.069899 J0.846036
G02 X51.080745 Y101.079834 Z-1.000000 I5.312578 J-0.000000
G02 X51.975250 Y102.873060 Z-1.000000 I6.878196 J-2.311299
G02 X53.282667 Y104.442501 Z-1.000000 I9.036767 J-6.198753
G02 X54.797472 Y105.681170 Z-1.000000 I7.092943 J-7.128588
G02 X56.515753 Y106.559628 Z-1.000000 I4.648267 J-6.972380
G02 X57.746694 Y106.781840 Z-1.000000 I1.230941 J-3.298281
G03 X57.902016 Y106.769938 Z-1.000000 I0.499405 J5.497777
G03 X57.972472 Y106.767740 Z-1.000000 I0.070456 J1.128192
G02 X58.160589 Y106.686911 Z-1.000000 I-0.018949 J-0.303423
G02 X58.579250 Y106.203290 Z-1.000000 I-2.021030 J-2.172586
G02 X58.903649 Y105.654322 Z-1.000000 I-2.537904 J-1.870042
G02 X58.917916 Y105.469520 Z-1.000000 I-0.241849 J-0.111623
G02 X58.493345 Y105.289083 Z-1.000000 I-12.992659 J29.982127
G02 X58.240583 Y105.187290 Z-1.000000 I-4.384892 J10.523446
G02 X58.127455 Y105.088766 Z-1.000000 I-20.316234 J23.213354
G02 X58.028916 Y105.003850 Z-1.000000 I-15.190002 J17.527378
G03 X58.078302 Y104.973839 Z-1.000000 I0.086276 J0.086337
G03 X58.607472 Y104.820410 Z-1.000000 I3.353164 J10.575628
G02 X58.998003 Y104.565367 Z-1.000000 I-0.158500 J-0.669221
G02 X59.214250 Y104.016070 Z-1.000000 I-0.879439 J-0.663431
G01 X59.214252 Y104.016020 Z-1.000000
G00 Z5.000000

(End cutting path id: path38)


(Start cutting path id: path38)
(Change tool to Cylindrical cutter)

G00 Z5.000000
G00 X57.831363 Y104.157130

G01 Z-0.998000 F100.0(Penetrate)
G03 X57.625766 Y104.239741 Z-0.998000 I-0.402223 J-0.703884 F100.000000
G03 X57.379807 Y104.270020 Z-0.998000 I-0.245959 J-0.983827
G03 X56.562037 Y104.075859 Z-0.998000 I-0.000000 J-1.819227
G03 X55.192585 Y103.169360 Z-0.998000 I3.122159 J-6.204327
G03 X54.069064 Y102.008319 Z-0.998000 I5.249768 J-6.204245
G03 X53.908474 Y101.546580 Z-0.998000 I0.583517 J-0.461739
G01 X53.710919 Y101.574780 Z-0.998000
G03 X53.482447 Y101.619545 Z-0.998000 I-0.266518 J-0.754837
G03 X53.414585 Y101.588880 Z-0.998000 I-0.003893 J-0.081809
G03 X52.889965 Y100.843194 Z-0.998000 I4.084468 J-3.430976
G03 X52.469141 Y99.966100 Z-0.998000 I5.247337 J-3.057138
G03 X52.201735 Y99.050068 Z-0.998000 I5.982557 J-2.243464
G03 X52.130474 Y98.371550 Z-0.998000 I3.194675 J-0.678518
G03 X52.188576 Y97.870933 Z-0.998000 I2.185738 J-0.000000
G03 X52.299807 Y97.651880 Z-0.998000 I0.505591 J0.118962
G03 X52.493909 Y97.508182 Z-0.998000 I0.411149 J0.352425
G03 X52.751363 Y97.454330 Z-0.998000 I0.257454 J0.588483
G03 X53.388883 Y97.585185 Z-0.998000 I0.000000 J1.618408
G03 X54.628141 Y98.258660 Z-0.998000 I-2.994270 J6.986660
G03 X55.758998 Y99.136067 Z-0.998000 I-5.768888 J8.602761
G03 X56.476696 Y99.909660 Z-0.998000 I-3.750275 J4.199025
G03 X57.072827 Y100.788260 Z-0.998000 I-7.276787 J5.578847
G03 X57.605585 Y101.800550 Z-0.998000 I-9.138750 J5.455967
G03 X58.007818 Y102.879214 Z-0.998000 I-6.551497 J3.057376
G03 X58.099474 Y103.536210 Z-0.998000 I-2.308863 J0.656996
G03 X58.015688 Y103.941589 Z-0.998000 I-1.022561 J0.000000
G03 X57.831363 Y104.157100 Z-0.998000 I-0.440594 J-0.190256
G01 X57.831363 Y104.157130 Z-0.998000
G00 Z5.000000

(End cutting path id: path38)


(Start cutting path id: path38)
(Change tool to Cylindrical cutter)

G00 Z5.000000
G00 X57.831363 Y104.157130

G01 Z-1.000000 F100.0(Penetrate)
G03 X57.625766 Y104.239741 Z-1.000000 I-0.402223 J-0.703884 F100.000000
G03 X57.379807 Y104.270020 Z-1.000000 I-0.245959 J-0.983827
G03 X56.562037 Y104.075859 Z-1.000000 I-0.000000 J-1.819227
G03 X55.192585 Y103.169360 Z-1.000000 I3.122159 J-6.204327
G03 X54.069064 Y102.008319 Z-1.000000 I5.249768 J-6.204245
G03 X53.908474 Y101.546580 Z-1.000000 I0.583517 J-0.461739
G01 X53.710919 Y101.574780 Z-1.000000
G03 X53.482447 Y101.619545 Z-1.000000 I-0.266518 J-0.754837
G03 X53.414585 Y101.588880 Z-1.000000 I-0.003893 J-0.081809
G03 X52.889965 Y100.843194 Z-1.000000 I4.084468 J-3.430976
G03 X52.469141 Y99.966100 Z-1.000000 I5.247337 J-3.057138
G03 X52.201735 Y99.050068 Z-1.000000 I5.982557 J-2.243464
G03 X52.130474 Y98.371550 Z-1.000000 I3.194675 J-0.678518
G03 X52.188576 Y97.870933 Z-1.000000 I2.185738 J-0.000000
G03 X52.299807 Y97.651880 Z-1.000000 I0.505591 J0.118962
G03 X52.493909 Y97.508182 Z-1.000000 I0.411149 J0.352425
G03 X52.751363 Y97.454330 Z-1.000000 I0.257454 J0.588483
G03 X53.388883 Y97.585185 Z-1.000000 I0.000000 J1.618408
G03 X54.628141 Y98.258660 Z-1.000000 I-2.994270 J6.986660
G03 X55.758998 Y99.136067 Z-1.000000 I-5.768888 J8.602761
G03 X56.476696 Y99.909660 Z-1.000000 I-3.750275 J4.199025
G03 X57.072827 Y100.788260 Z-1.000000 I-7.276787 J5.578847
G03 X57.605585 Y101.800550 Z-1.000000 I-9.138750 J5.455967
G03 X58.007818 Y102.879214 Z-1.000000 I-6.551497 J3.057376
G03 X58.099474 Y103.536210 Z-1.000000 I-2.308863 J0.656996
G03 X58.015688 Y103.941589 Z-1.000000 I-1.022561 J0.000000
G03 X57.831363 Y104.157100 Z-1.000000 I-0.440594 J-0.190256
G01 X57.831363 Y104.157130 Z-1.000000
G00 Z5.000000

(End cutting path id: path38)


(Start cutting path id: path36)
(Change tool to Cylindrical cutter)

G00 Z5.000000
G00 X65.380807 Y122.515690

G01 Z-0.998000 F100.0(Penetrate)
G02 X65.292308 Y122.311782 Z-0.998000 I-0.491452 J0.092139 F100.000000
G02 X64.364807 Y121.132800 Z-0.998000 I-18.351353 J13.482616
G03 X63.432101 Y119.955693 Z-0.998000 I25.966499 J-21.533202
G03 X62.784363 Y119.044350 Z-0.998000 I14.908731 J-11.282250
G03 X62.203693 Y118.090719 Z-0.998000 I11.314775 J-7.543212
G03 X61.697807 Y117.082910 Z-0.998000 I12.134099 J-6.721785
G03 X61.325540 Y116.050084 Z-0.998000 I6.945770 J-3.087005
G03 X61.246252 Y115.474240 Z-0.998000 I2.051451 J-0.575844
G03 X61.304840 Y115.071579 Z-0.998000 I1.412992 J-0.000000
G03 X61.401474 Y114.952130 Z-0.998000 I0.193107 J0.057410
G03 X61.573716 Y114.896188 Z-0.998000 I0.432953 J1.039904
G03 X61.697807 Y114.881630 Z-0.998000 I0.124091 J0.521590
G03 X62.147366 Y114.977495 Z-0.998000 I0.000000 J1.102034
G03 X63.024252 Y115.474290 Z-0.998000 I-2.161125 J4.836861
G02 X63.887409 Y116.077619 Z-0.998000 I76.219390 J-108.124687
G02 X64.449474 Y116.462070 Z-0.998000 I31.508226 J-45.461759
G01 X63.066585 Y114.909850 Z-0.998000
G02 X61.275335 Y113.772229 Z-0.998000 I-6.815974 J8.753119
G02 X60.427807 Y113.569290 Z-0.998000 I-0.847528 J1.668286
G02 X60.166991 Y113.623268 Z-0.998000 I0.000000 J0.657108
G02 X59.905696 Y113.795070 Z-0.998000 I0.359545 J0.831439
G02 X59.712404 Y114.028605 Z-0.998000 I0.823356 J0.878233
G02 X59.538807 Y114.373630 Z-0.998000 I1.650290 J1.046518
G02 X59.433983 Y114.761134 Z-0.998000 I2.082246 J0.771202
G02 X59.397696 Y115.177960 Z-0.998000 I2.375901 J0.416826
G02 X59.524459 Y116.076837 Z-0.998000 I3.250349 J-0.000000
G02 X59.962141 Y117.139400 Z-0.998000 I5.005810 J-1.440525
G02 X60.562894 Y118.160442 Z-0.998000 I14.366725 J-7.765733
G02 X61.232141 Y119.129070 Z-0.998000 I13.596266 J-8.678453
G03 X61.909203 Y120.075276 Z-0.998000 I-23.293910 J17.383399
G01 X61.909474 Y120.116850 Z-0.998000
G03 X61.783296 Y120.130288 Z-0.998000 I-0.072489 J-0.081550
G03 X61.260363 Y119.749960 Z-0.998000 I1.394134 J-2.466538
G03 X60.763506 Y119.259201 Z-0.998000 I10.710415 J-11.340387
G03 X59.976252 Y118.423520 Z-0.998000 I30.289827 J-29.323226
G03 X59.203080 Y117.588267 Z-0.998000 I118.859995 J-110.801083
G03 X58.692141 Y117.026520 Z-0.998000 I53.250447 J-48.947376
G03 X58.198329 Y116.464018 Z-0.998000 I11.022548 J-10.174536
G03 X57.196363 Y115.234400 Z-0.998000 I51.715226 J-43.163682
G02 X56.148782 Y114.116617 Z-0.998000 I-7.406655 J5.891696
G02 X55.827585 Y113.992630 Z-0.998000 I-0.321197 J0.354049
G02 X55.737607 Y114.013875 Z-0.998000 I-0.000000 J0.201161
G02 X55.630030 Y114.091430 Z-0.998000 I0.185142 J0.370199
G02 X55.553181 Y114.202956 Z-0.998000 I0.264673 J0.264619
G02 X55.446585 Y114.500660 Z-0.998000 I1.861614 J0.834504
G02 X55.394603 Y114.827205 Z-0.998000 I2.877023 J0.625401
G02 X55.376035 Y115.192100 Z-0.998000 I3.576232 J0.364895
G02 X55.414889 Y115.661562 Z-0.998000 I2.855632 J0.000000
G02 X55.488923 Y115.869430 Z-0.998000 I0.618060 J-0.103010
G02 X55.609340 Y116.062238 Z-0.998000 I2.522544 J-1.441423
G02 X56.660146 Y117.590990 Z-0.998000 I159.967979 J-108.830465
G03 X57.714282 Y119.141102 Z-0.998000 I-65.865198 J45.924373
G03 X58.409923 Y120.229770 Z-0.998000 I-31.785571 J21.077036
G03 X59.017397 Y121.354617 Z-0.998000 I-8.240287 J5.176626
G03 X59.101368 Y121.739660 Z-0.998000 I-0.840807 J0.385043
G03 X59.079585 Y121.840216 Z-0.998000 I-0.242989 J-0.000000
G03 X59.030808 Y121.894880 Z-0.998000 I-0.112157 J-0.050985
G03 X58.730456 Y121.858974 Z-0.998000 I-0.118363 J-0.284072
G03 X57.549142 Y120.808320 Z-0.998000 I4.971114 J-6.778761
G03 X56.451434 Y119.569017 Z-0.998000 I24.854637 J-23.120701
G03 X55.728808 Y118.649320 Z-0.998000 I12.953554 J-10.921628
G03 X55.048625 Y117.696014 Z-0.998000 I40.302719 J-29.475242
G03 X54.275364 Y116.560880 Z-0.998000 I56.373309 J-39.232847
G02 X53.500555 Y115.441315 Z-0.998000 I-48.520562 J32.751347
G02 X53.104142 Y114.909880 Z-0.998000 I-11.321569 J8.031539
G02 X52.674045 Y114.454869 Z-0.998000 I-2.572332 J2.000702
G02 X52.440920 Y114.331320 Z-0.998000 I-0.380402 J0.436067
G02 X52.233479 Y114.369420 Z-0.998000 I-0.064523 J0.232466
G02 X51.961142 Y114.684100 Z-0.998000 I0.556436 J0.756749
G02 X51.813642 Y115.122578 Z-0.998000 I1.491607 J0.745811
G02 X51.749475 Y115.812990 Z-0.998000 I3.682196 J0.690412
G02 X51.783283 Y115.955704 Z-0.998000 I0.229902 J0.020899
G02 X52.906586 Y117.675660 Z-0.998000 I38.471062 J-23.898645
G03 X54.074578 Y119.394502 Z-0.998000 I-85.491212 J59.349459
G03 X54.811586 Y120.540210 Z-0.998000 I-37.239765 J24.765409
G03 X55.421108 Y121.742566 Z-0.998000 I-7.028215 J4.318552
G03 X55.531253 Y122.304100 Z-0.998000 I-1.376309 J0.561534
G03 X55.510007 Y122.451628 Z-0.998000 I-0.522811 J-0.000000
G03 X55.460693 Y122.543990 Z-0.998000 I-0.247503 J-0.072799
G03 X55.374491 Y122.612381 Z-0.998000 I-0.162018 J-0.115692
G03 X55.220804 Y122.642790 Z-0.998000 I-0.153687 J-0.373156
G03 X54.857923 Y122.573619 Z-0.998000 I-0.000000 J-0.986452
G03 X53.936693 Y122.134790 Z-0.998000 I2.768763 J-6.998816
G03 X53.048341 Y121.625663 Z-0.998000 I200.017257 J-350.030204
G03 X52.144582 Y121.104680 Z-0.998000 I208.537106 J-362.797796
G02 X51.239147 Y120.658568 Z-0.998000 I-4.083808 J7.146664
G02 X50.931027 Y120.596680 Z-0.998000 I-0.308120 J0.736063
G02 X50.776137 Y120.638857 Z-0.998000 I0.000000 J0.305492
G02 X50.691138 Y120.737790 Z-0.998000 I0.102255 J0.173834
G02 X50.660524 Y120.894579 Z-0.998000 I1.050696 J0.286535
G02 X50.648808 Y121.090570 Z-0.998000 I1.633398 J0.195991
G02 X50.874978 Y122.026118 Z-0.998000 I2.048025 J-0.000000
G02 X51.721252 Y123.179010 Z-0.998000 I4.022337 J-2.065528
G03 X52.016174 Y123.322942 Z-0.998000 I-7.338536 J15.411030
G03 X52.313919 Y123.475340 Z-0.998000 I-7.929811 J15.859809
G02 X52.310884 Y123.407038 Z-0.998000 I-0.140072 J-0.027994
G02 X52.243359 Y123.235450 Z-0.998000 I-0.996835 J0.293204
G03 X52.191937 Y123.083702 Z-0.998000 I0.730995 J-0.332296
G01 X52.201029 Y123.052010 Z-0.998000
G01 X52.229217 Y123.051831 Z-0.998000
G03 X53.513362 Y123.687010 Z-0.998000 I-35.935893 J74.267494
G02 X54.822888 Y124.229505 Z-0.998000 I4.250786 J-8.409176
G02 X55.488917 Y124.336120 Z-0.998000 I0.666029 J-2.027047
G02 X55.849816 Y124.280090 Z-0.998000 I-0.000000 J-1.190316
G02 X56.109806 Y124.138570 Z-0.998000 I-0.237076 J-0.745118
G02 X56.324716 Y123.912971 Z-0.998000 I-0.646000 J-0.830553
G02 X56.476695 Y123.616450 Z-0.998000 I-0.984538 J-0.691826
G02 X56.569027 Y123.299193 Z-0.998000 I-1.457371 J-0.596206
G02 X56.603695 Y122.910900 Z-0.998000 I-2.157166 J-0.388293
G02 X56.550207 Y122.327074 Z-0.998000 I-3.213008 J-0.000000
G02 X56.363806 Y121.612680 Z-0.998000 I-5.010773 J0.925906
G03 X56.126034 Y120.906415 Z-0.998000 I117.841636 J-40.065922
G03 X55.912251 Y120.258010 Z-0.998000 I99.110523 J-33.036719
G03 X55.984458 Y120.280632 Z-0.998000 I0.013760 J0.082628
G03 X56.998806 Y121.316340 Z-0.998000 I-21.453042 J22.025181
G02 X58.032656 Y122.370495 Z-0.998000 I30.982981 J-29.352145
G02 X58.875584 Y123.164900 Z-0.998000 I18.430451 J-18.711789
G02 X59.795428 Y123.822591 Z-0.998000 I3.582794 J-4.038792
G02 X60.244362 Y123.941010 Z-0.998000 I0.448934 J-0.791758
G02 X60.366022 Y123.921263 Z-0.998000 I0.000000 J-0.384646
G02 X60.540695 Y123.842210 Z-0.998000 I-0.294396 J-0.882988
G02 X60.685222 Y123.732706 Z-0.998000 I-0.220982 J-0.441789
G02 X60.822917 Y123.531770 Z-0.998000 I-0.659616 J-0.599659
G02 X60.904258 Y123.298543 Z-0.998000 I-0.864869 J-0.432430
G02 X60.935806 Y122.995550 Z-0.998000 I-1.439207 J-0.302993
G02 X60.796943 Y122.242563 Z-0.998000 I-2.110976 J-0.000000
G02 X60.046806 Y120.667210 Z-0.998000 I-10.240968 J3.910177
G01 X59.369473 Y119.284320 Z-0.998000
G01 X59.406672 Y119.292481 Z-0.998000
G03 X60.738251 Y120.568430 Z-0.998000 I-59.671180 J63.605609
G02 X62.095289 Y121.862878 Z-0.998000 I50.591318 J-51.679019
G02 X63.137139 Y122.797990 Z-0.998000 I27.435186 J-29.518801
G02 X64.252536 Y123.614353 Z-0.998000 I5.448214 J-6.273727
G02 X64.661139 Y123.729320 Z-0.998000 I0.408603 J-0.668626
G02 X64.761494 Y123.682478 Z-0.998000 I0.000000 J-0.130923
G02 X65.098584 Y123.207210 Z-0.998000 I-2.777875 J-2.327417
G02 X65.360316 Y122.689440 Z-0.998000 I-3.077689 J-1.880807
G02 X65.380806 Y122.515770 Z-0.998000 I-0.303404 J-0.123839
G01 X65.380807 Y122.515690 Z-0.998000
G00 Z5.000000

(End cutting path id: path36)


(Start cutting path id: path36)
(Change tool to Cylindrical cutter)

G00 Z5.000000
G00 X65.380807 Y122.515690

G01 Z-1.000000 F100.0(Penetrate)
G02 X65.292308 Y122.311782 Z-1.000000 I-0.491452 J0.092139 F100.000000
G02 X64.364807 Y121.132800 Z-1.000000 I-18.351353 J13.482616
G03 X63.432101 Y119.955693 Z-1.000000 I25.966499 J-21.533202
G03 X62.784363 Y119.044350 Z-1.000000 I14.908731 J-11.282250
G03 X62.203693 Y118.090719 Z-1.000000 I11.314775 J-7.543212
G03 X61.697807 Y117.082910 Z-1.000000 I12.134099 J-6.721785
G03 X61.325540 Y116.050084 Z-1.000000 I6.945770 J-3.087005
G03 X61.246252 Y115.474240 Z-1.000000 I2.051451 J-0.575844
G03 X61.304840 Y115.071579 Z-1.000000 I1.412992 J-0.000000
G03 X61.401474 Y114.952130 Z-1.000000 I0.193107 J0.057410
G03 X61.573716 Y114.896188 Z-1.000000 I0.432953 J1.039904
G03 X61.697807 Y114.881630 Z-1.000000 I0.124091 J0.521590
G03 X62.147366 Y114.977495 Z-1.000000 I0.000000 J1.102034
G03 X63.024252 Y115.474290 Z-1.000000 I-2.161125 J4.836861
G02 X63.887409 Y116.077619 Z-1.000000 I76.219390 J-108.124687
G02 X64.449474 Y116.462070 Z-1.000000 I31.508226 J-45.461759
G01 X63.066585 Y114.909850 Z-1.000000
G02 X61.275335 Y113.772229 Z-1.000000 I-6.815974 J8.753119
G02 X60.427807 Y113.569290 Z-1.000000 I-0.847528 J1.668286
G02 X60.166991 Y113.623268 Z-1.000000 I0.000000 J0.657108
G02 X59.905696 Y113.795070 Z-1.000000 I0.359545 J0.831439
G02 X59.712404 Y114.028605 Z-1.000000 I0.823356 J0.878233
G02 X59.538807 Y114.373630 Z-1.000000 I1.650290 J1.046518
G02 X59.433983 Y114.761134 Z-1.000000 I2.082246 J0.771202
G02 X59.397696 Y115.177960 Z-1.000000 I2.375901 J0.416826
G02 X59.524459 Y116.076837 Z-1.000000 I3.250349 J-0.000000
G02 X59.962141 Y117.139400 Z-1.000000 I5.005810 J-1.440525
G02 X60.562894 Y118.160442 Z-1.000000 I14.366725 J-7.765733
G02 X61.232141 Y119.129070 Z-1.000000 I13.596266 J-8.678453
G03 X61.909203 Y120.075276 Z-1.000000 I-23.293910 J17.383399
G01 X61.909474 Y120.116850 Z-1.000000
G03 X61.783296 Y120.130288 Z-1.000000 I-0.072489 J-0.081550
G03 X61.260363 Y119.749960 Z-1.000000 I1.394134 J-2.466538
G03 X60.763506 Y119.259201 Z-1.000000 I10.710415 J-11.340387
G03 X59.976252 Y118.423520 Z-1.000000 I30.289827 J-29.323226
G03 X59.203080 Y117.588267 Z-1.000000 I118.859995 J-110.801083
G03 X58.692141 Y117.026520 Z-1.000000 I53.250447 J-48.947376
G03 X58.198329 Y116.464018 Z-1.000000 I11.022548 J-10.174536
G03 X57.196363 Y115.234400 Z-1.000000 I51.715226 J-43.163682
G02 X56.148782 Y114.116617 Z-1.000000 I-7.406655 J5.891696
G02 X55.827585 Y113.992630 Z-1.000000 I-0.321197 J0.354049
G02 X55.737607 Y114.013875 Z-1.000000 I-0.000000 J0.201161
G02 X55.630030 Y114.091430 Z-1.000000 I0.185142 J0.370199
G02 X55.553181 Y114.202956 Z-1.000000 I0.264673 J0.264619
G02 X55.446585 Y114.500660 Z-1.000000 I1.861614 J0.834504
G02 X55.394603 Y114.827205 Z-1.000000 I2.877023 J0.625401
G02 X55.376035 Y115.192100 Z-1.000000 I3.576232 J0.364895
G02 X55.414889 Y115.661562 Z-1.000000 I2.855632 J0.000000
G02 X55.488923 Y115.869430 Z-1.000000 I0.618060 J-0.103010
G02 X55.609340 Y116.062238 Z-1.000000 I2.522544 J-1.441423
G02 X56.660146 Y117.590990 Z-1.000000 I159.967979 J-108.830465
G03 X57.714282 Y119.141102 Z-1.000000 I-65.865198 J45.924373
G03 X58.409923 Y120.229770 Z-1.000000 I-31.785571 J21.077036
G03 X59.017397 Y121.354617 Z-1.000000 I-8.240287 J5.176626
G03 X59.101368 Y121.739660 Z-1.000000 I-0.840807 J0.385043
G03 X59.079585 Y121.840216 Z-1.000000 I-0.242989 J-0.000000
G03 X59.030808 Y121.894880 Z-1.000000 I-0.112157 J-0.050985
G03 X58.730456 Y121.858974 Z-1.000000 I-0.118363 J-0.284072
G03 X57.549142 Y120.808320 Z-1.000000 I4.971114 J-6.778761
G03 X56.451434 Y119.569017 Z-1.000000 I24.854637 J-23.120701
G03 X55.728808 Y118.649320 Z-1.000000 I12.953554 J-10.921628
G03 X55.048625 Y117.696014 Z-1.000000 I40.302719 J-29.475242
G03 X54.275364 Y116.560880 Z-1.000000 I56.373309 J-39.232847
G02 X53.500555 Y115.441315 Z-1.000000 I-48.520562 J32.751347
G02 X53.104142 Y114.909880 Z-1.000000 I-11.321569 J8.031539
G02 X52.674045 Y114.454869 Z-1.000000 I-2.572332 J2.000702
G02 X52.440920 Y114.331320 Z-1.000000 I-0.380402 J0.436067
G02 X52.233479 Y114.369420 Z-1.000000 I-0.064523 J0.232466
G02 X51.961142 Y114.684100 Z-1.000000 I0.556436 J0.756749
G02 X51.813642 Y115.122578 Z-1.000000 I1.491607 J0.745811
G02 X51.749475 Y115.812990 Z-1.000000 I3.682196 J0.690412
G02 X51.783283 Y115.955704 Z-1.000000 I0.229902 J0.020899
G02 X52.906586 Y117.675660 Z-1.000000 I38.471062 J-23.898645
G03 X54.074578 Y119.394502 Z-1.000000 I-85.491212 J59.349459
G03 X54.811586 Y120.540210 Z-1.000000 I-37.239765 J24.765409
G03 X55.421108 Y121.742566 Z-1.000000 I-7.028215 J4.318552
G03 X55.531253 Y122.304100 Z-1.000000 I-1.376309 J0.561534
G03 X55.510007 Y122.451628 Z-1.000000 I-0.522811 J-0.000000
G03 X55.460693 Y122.543990 Z-1.000000 I-0.247503 J-0.072799
G03 X55.374491 Y122.612381 Z-1.000000 I-0.162018 J-0.115692
G03 X55.220804 Y122.642790 Z-1.000000 I-0.153687 J-0.373156
G03 X54.857923 Y122.573619 Z-1.000000 I-0.000000 J-0.986452
G03 X53.936693 Y122.134790 Z-1.000000 I2.768763 J-6.998816
G03 X53.048341 Y121.625663 Z-1.000000 I200.017257 J-350.030204
G03 X52.144582 Y121.104680 Z-1.000000 I208.537106 J-362.797796
G02 X51.239147 Y120.658568 Z-1.000000 I-4.083808 J7.146664
G02 X50.931027 Y120.596680 Z-1.000000 I-0.308120 J0.736063
G02 X50.776137 Y120.638857 Z-1.000000 I0.000000 J0.305492
G02 X50.691138 Y120.737790 Z-1.000000 I0.102255 J0.173834
G02 X50.660524 Y120.894579 Z-1.000000 I1.050696 J0.286535
G02 X50.648808 Y121.090570 Z-1.000000 I1.633398 J0.195991
G02 X50.874978 Y122.026118 Z-1.000000 I2.048025 J-0.000000
G02 X51.721252 Y123.179010 Z-1.000000 I4.022337 J-2.065528
G03 X52.016174 Y123.322942 Z-1.000000 I-7.338536 J15.411030
G03 X52.313919 Y123.475340 Z-1.000000 I-7.929811 J15.859809
G02 X52.310884 Y123.407038 Z-1.000000 I-0.140072 J-0.027994
G02 X52.243359 Y123.235450 Z-1.000000 I-0.996835 J0.293204
G03 X52.191937 Y123.083702 Z-1.000000 I0.730995 J-0.332296
G01 X52.201029 Y123.052010 Z-1.000000
G01 X52.229217 Y123.051831 Z-1.000000
G03 X53.513362 Y123.687010 Z-1.000000 I-35.935893 J74.267494
G02 X54.822888 Y124.229505 Z-1.000000 I4.250786 J-8.409176
G02 X55.488917 Y124.336120 Z-1.000000 I0.666029 J-2.027047
G02 X55.849816 Y124.280090 Z-1.000000 I-0.000000 J-1.190316
G02 X56.109806 Y124.138570 Z-1.000000 I-0.237076 J-0.745118
G02 X56.324716 Y123.912971 Z-1.000000 I-0.646000 J-0.830553
G02 X56.476695 Y123.616450 Z-1.000000 I-0.984538 J-0.691826
G02 X56.569027 Y123.299193 Z-1.000000 I-1.457371 J-0.596206
G02 X56.603695 Y122.910900 Z-1.000000 I-2.157166 J-0.388293
G02 X56.550207 Y122.327074 Z-1.000000 I-3.213008 J-0.000000
G02 X56.363806 Y121.612680 Z-1.000000 I-5.010773 J0.925906
G03 X56.126034 Y120.906415 Z-1.000000 I117.841636 J-40.065922
G03 X55.912251 Y120.258010 Z-1.000000 I99.110523 J-33.036719
G03 X55.984458 Y120.280632 Z-1.000000 I0.013760 J0.082628
G03 X56.998806 Y121.316340 Z-1.000000 I-21.453042 J22.025181
G02 X58.032656 Y122.370495 Z-1.000000 I30.982981 J-29.352145
G02 X58.875584 Y123.164900 Z-1.000000 I18.430451 J-18.711789
G02 X59.795428 Y123.822591 Z-1.000000 I3.582794 J-4.038792
G02 X60.244362 Y123.941010 Z-1.000000 I0.448934 J-0.791758
G02 X60.366022 Y123.921263 Z-1.000000 I0.000000 J-0.384646
G02 X60.540695 Y123.842210 Z-1.000000 I-0.294396 J-0.882988
G02 X60.685222 Y123.732706 Z-1.000000 I-0.220982 J-0.441789
G02 X60.822917 Y123.531770 Z-1.000000 I-0.659616 J-0.599659
G02 X60.904258 Y123.298543 Z-1.000000 I-0.864869 J-0.432430
G02 X60.935806 Y122.995550 Z-1.000000 I-1.439207 J-0.302993
G02 X60.796943 Y122.242563 Z-1.000000 I-2.110976 J-0.000000
G02 X60.046806 Y120.667210 Z-1.000000 I-10.240968 J3.910177
G01 X59.369473 Y119.284320 Z-1.000000
G01 X59.406672 Y119.292481 Z-1.000000
G03 X60.738251 Y120.568430 Z-1.000000 I-59.671180 J63.605609
G02 X62.095289 Y121.862878 Z-1.000000 I50.591318 J-51.679019
G02 X63.137139 Y122.797990 Z-1.000000 I27.435186 J-29.518801
G02 X64.252536 Y123.614353 Z-1.000000 I5.448214 J-6.273727
G02 X64.661139 Y123.729320 Z-1.000000 I0.408603 J-0.668626
G02 X64.761494 Y123.682478 Z-1.000000 I0.000000 J-0.130923
G02 X65.098584 Y123.207210 Z-1.000000 I-2.777875 J-2.327417
G02 X65.360316 Y122.689440 Z-1.000000 I-3.077689 J-1.880807
G02 X65.380806 Y122.515770 Z-1.000000 I-0.303404 J-0.123839
G01 X65.380807 Y122.515690 Z-1.000000
G00 Z5.000000

(End cutting path id: path36)


(Start cutting path id: path34)
(Change tool to Cylindrical cutter)

G00 Z5.000000
G00 X59.962141 Y141.608020

G01 Z-0.998000 F100.0(Penetrate)
G02 X59.978855 Y141.575051 Z-0.998000 I-0.041966 J-0.041996 F100.000000
G02 X59.990361 Y141.424580 Z-0.998000 I-0.978118 J-0.150471
G02 X59.979579 Y141.213802 Z-0.998000 I-2.065686 J-0.000000
G02 X59.933911 Y140.874240 Z-0.998000 I-5.415422 J0.555476
G02 X59.860125 Y140.541220 Z-0.998000 I-3.181364 J0.530196
G02 X59.792800 Y140.366240 Z-0.998000 I-0.938870 J0.260797
G02 X59.681384 Y140.233904 Z-0.998000 I-0.265910 J0.110805
G02 X58.438134 Y139.505470 Z-0.998000 I-10.718860 J16.869170
G02 X57.190193 Y138.898019 Z-0.998000 I-7.284482 J13.379553
G02 X57.097578 Y138.926910 Z-0.998000 I-0.029495 J0.068341
G02 X57.104643 Y139.003127 Z-0.998000 I0.064875 J0.032422
G02 X57.450356 Y139.392580 Z-0.998000 I2.675810 J-2.027116
G03 X57.800804 Y139.785587 Z-0.998000 I-2.427313 J2.517212
G03 X57.817245 Y139.872350 Z-0.998000 I-0.078124 J0.059743
G03 X57.742746 Y139.938822 Z-0.998000 I-0.100542 J-0.037700
G03 X57.365689 Y139.985240 Z-0.998000 I-0.377057 J-1.508215
G03 X56.312697 Y139.873881 Z-0.998000 I-0.000000 J-5.034133
G03 X54.726912 Y139.420800 Z-0.998000 I2.554544 J-11.942581
G03 X53.419011 Y138.697869 Z-0.998000 I1.527211 J-4.307548
G03 X53.174689 Y138.193130 Z-0.998000 I0.399204 J-0.504739
G03 X53.319240 Y137.966393 Z-0.998000 I0.250101 J-0.000000
G03 X54.811578 Y137.431130 Z-0.998000 I3.669305 J7.882211
G02 X56.439600 Y136.957441 Z-0.998000 I-5.077793 J-20.486378
G02 X57.506800 Y136.528020 Z-0.998000 I-3.086757 J-9.212051
G02 X58.291104 Y135.871594 Z-0.998000 I-0.788039 J-1.738315
G02 X58.565134 Y134.989910 Z-0.998000 I-1.281378 J-0.881684
G02 X58.103564 Y133.753435 Z-0.998000 I-1.886948 J0.000000
G02 X56.533134 Y132.647470 Z-0.998000 I-3.018975 J2.618875
G02 X54.463171 Y132.077140 Z-0.998000 I-3.996532 J10.463527
G02 X52.088134 Y131.871350 Z-0.998000 I-2.375037 J13.602328
G02 X51.261000 Y131.915394 Z-0.998000 I-0.000000 J7.788638
G02 X50.634689 Y132.026580 Z-0.998000 I0.487810 J4.567449
G02 X50.118819 Y132.297612 Z-0.998000 I0.339228 J1.272132
G02 X49.957356 Y132.605130 Z-0.998000 I0.303779 J0.355647
G02 X49.978088 Y132.727839 Z-0.998000 I0.373520 J-0.000000
G02 X50.183134 Y133.254240 Z-0.998000 I7.269745 J-2.528614
G02 X50.451543 Y133.736329 Z-0.998000 I1.948804 J-0.769255
G02 X50.677023 Y133.917470 Z-0.998000 I0.461716 J-0.343827
G02 X50.962541 Y134.050962 Z-0.998000 I2.680359 J-5.360756
G02 X51.227356 Y134.157350 Z-0.998000 I1.963442 J-4.504530
G02 X51.499223 Y134.251642 Z-0.998000 I0.863848 J-2.051618
G02 X51.636578 Y134.270240 Z-0.998000 I0.137355 J-0.497907
G02 X51.806205 Y134.199978 Z-0.998000 I-0.000000 J-0.239888
G02 X51.876467 Y134.030350 Z-0.998000 I-0.169629 J-0.169628
G03 X51.917061 Y133.949164 Z-0.998000 I0.101482 J0.000000
G03 X52.102245 Y133.861020 Z-0.998000 I0.310852 J0.414478
G03 X52.330184 Y133.822189 Z-0.998000 I0.368763 J1.476214
G03 X52.709023 Y133.804620 Z-0.998000 I0.378839 J4.075728
G03 X54.007795 Y133.903940 Z-0.998000 I0.000000 J8.541444
G03 X55.644134 Y134.256170 Z-0.998000 I-2.144626 J13.940242
G03 X57.060465 Y134.875682 Z-0.998000 I-1.440710 J5.222524
G03 X57.281023 Y135.272170 Z-0.998000 I-0.246096 J0.396488
G03 X57.061261 Y135.673454 Z-0.998000 I-0.476253 J0.000000
G03 X55.912245 Y136.147060 Z-0.998000 I-1.892573 J-2.960958
G03 X54.556582 Y136.453026 Z-0.998000 I-46.962568 J-204.923952
G03 X53.245245 Y136.739730 Z-0.998000 I-42.545891 J-191.455432
G02 X52.096059 Y137.333500 Z-0.998000 I0.861202 J3.075730
G02 X51.834134 Y137.882730 Z-0.998000 I0.444876 J0.549230
G02 X51.862759 Y138.359619 Z-0.998000 I3.986798 J-0.000000
G02 X51.975245 Y139.053950 Z-0.998000 I8.579921 J-1.033727
G02 X52.187030 Y139.734463 Z-0.998000 I4.091552 J-0.900134
G02 X52.440912 Y140.196950 Z-0.998000 I2.126069 J-0.866177
G02 X52.830039 Y140.548809 Z-0.998000 I0.934699 J-0.642598
G02 X54.472912 Y141.311730 Z-0.998000 I6.503998 J-11.855366
G02 X56.225830 Y141.823681 Z-0.998000 I3.691369 J-9.382273
G02 X57.930134 Y141.989060 Z-0.998000 I1.704304 J-8.699092
G02 X58.449696 Y141.961630 Z-0.998000 I0.000000 J-4.934399
G02 X59.129578 Y141.862060 Z-0.998000 I-0.906229 J-8.558827
G02 X59.802837 Y141.698100 Z-0.998000 I-1.094198 J-5.957295
G02 X59.962134 Y141.608060 Z-0.998000 I-0.123248 J-0.403980
G01 X59.962141 Y141.608020 Z-0.998000
G00 Z5.000000

(End cutting path id: path34)


(Start cutting path id: path34)
(Change tool to Cylindrical cutter)

G00 Z5.000000
G00 X59.962141 Y141.608020

G01 Z-1.000000 F100.0(Penetrate)
G02 X59.978855 Y141.575051 Z-1.000000 I-0.041966 J-0.041996 F100.000000
G02 X59.990361 Y141.424580 Z-1.000000 I-0.978118 J-0.150471
G02 X59.979579 Y141.213802 Z-1.000000 I-2.065686 J-0.000000
G02 X59.933911 Y140.874240 Z-1.000000 I-5.415422 J0.555476
G02 X59.860125 Y140.541220 Z-1.000000 I-3.181364 J0.530196
G02 X59.792800 Y140.366240 Z-1.000000 I-0.938870 J0.260797
G02 X59.681384 Y140.233904 Z-1.000000 I-0.265910 J0.110805
G02 X58.438134 Y139.505470 Z-1.000000 I-10.718860 J16.869170
G02 X57.190193 Y138.898019 Z-1.000000 I-7.284482 J13.379553
G02 X57.097578 Y138.926910 Z-1.000000 I-0.029495 J0.068341
G02 X57.104643 Y139.003127 Z-1.000000 I0.064875 J0.032422
G02 X57.450356 Y139.392580 Z-1.000000 I2.675810 J-2.027116
G03 X57.800804 Y139.785587 Z-1.000000 I-2.427313 J2.517212
G03 X57.817245 Y139.872350 Z-1.000000 I-0.078124 J0.059743
G03 X57.742746 Y139.938822 Z-1.000000 I-0.100542 J-0.037700
G03 X57.365689 Y139.985240 Z-1.000000 I-0.377057 J-1.508215
G03 X56.312697 Y139.873881 Z-1.000000 I-0.000000 J-5.034133
G03 X54.726912 Y139.420800 Z-1.000000 I2.554544 J-11.942581
G03 X53.419011 Y138.697869 Z-1.000000 I1.527211 J-4.307548
G03 X53.174689 Y138.193130 Z-1.000000 I0.399204 J-0.504739
G03 X53.319240 Y137.966393 Z-1.000000 I0.250101 J-0.000000
G03 X54.811578 Y137.431130 Z-1.000000 I3.669305 J7.882211
G02 X56.439600 Y136.957441 Z-1.000000 I-5.077793 J-20.486378
G02 X57.506800 Y136.528020 Z-1.000000 I-3.086757 J-9.212051
G02 X58.291104 Y135.871594 Z-1.000000 I-0.788039 J-1.738315
G02 X58.565134 Y134.989910 Z-1.000000 I-1.281378 J-0.881684
G02 X58.103564 Y133.753435 Z-1.000000 I-1.886948 J0.000000
G02 X56.533134 Y132.647470 Z-1.000000 I-3.018975 J2.618875
G02 X54.463171 Y132.077140 Z-1.000000 I-3.996532 J10.463527
G02 X52.088134 Y131.871350 Z-1.000000 I-2.375037 J13.602328
G02 X51.261000 Y131.915394 Z-1.000000 I-0.000000 J7.788638
G02 X50.634689 Y132.026580 Z-1.000000 I0.487810 J4.567449
G02 X50.118819 Y132.297612 Z-1.000000 I0.339228 J1.272132
G02 X49.957356 Y132.605130 Z-1.000000 I0.303779 J0.355647
G02 X49.978088 Y132.727839 Z-1.000000 I0.373520 J-0.000000
G02 X50.183134 Y133.254240 Z-1.000000 I7.269745 J-2.528614
G02 X50.451543 Y133.736329 Z-1.000000 I1.948804 J-0.769255
G02 X50.677023 Y133.917470 Z-1.000000 I0.461716 J-0.343827
G02 X50.962541 Y134.050962 Z-1.000000 I2.680359 J-5.360756
G02 X51.227356 Y134.157350 Z-1.000000 I1.963442 J-4.504530
G02 X51.499223 Y134.251642 Z-1.000000 I0.863848 J-2.051618
G02 X51.636578 Y134.270240 Z-1.000000 I0.137355 J-0.497907
G02 X51.806205 Y134.199978 Z-1.000000 I-0.000000 J-0.239888
G02 X51.876467 Y134.030350 Z-1.000000 I-0.169629 J-0.169628
G03 X51.917061 Y133.949164 Z-1.000000 I0.101482 J0.000000
G03 X52.102245 Y133.861020 Z-1.000000 I0.310852 J0.414478
G03 X52.330184 Y133.822189 Z-1.000000 I0.368763 J1.476214
G03 X52.709023 Y133.804620 Z-1.000000 I0.378839 J4.075728
G03 X54.007795 Y133.903940 Z-1.000000 I0.000000 J8.541444
G03 X55.644134 Y134.256170 Z-1.000000 I-2.144626 J13.940242
G03 X57.060465 Y134.875682 Z-1.000000 I-1.440710 J5.222524
G03 X57.281023 Y135.272170 Z-1.000000 I-0.246096 J0.396488
G03 X57.061261 Y135.673454 Z-1.000000 I-0.476253 J0.000000
G03 X55.912245 Y136.147060 Z-1.000000 I-1.892573 J-2.960958
G03 X54.556582 Y136.453026 Z-1.000000 I-46.962568 J-204.923952
G03 X53.245245 Y136.739730 Z-1.000000 I-42.545891 J-191.455432
G02 X52.096059 Y137.333500 Z-1.000000 I0.861202 J3.075730
G02 X51.834134 Y137.882730 Z-1.000000 I0.444876 J0.549230
G02 X51.862759 Y138.359619 Z-1.000000 I3.986798 J-0.000000
G02 X51.975245 Y139.053950 Z-1.000000 I8.579921 J-1.033727
G02 X52.187030 Y139.734463 Z-1.000000 I4.091552 J-0.900134
G02 X52.440912 Y140.196950 Z-1.000000 I2.126069 J-0.866177
G02 X52.830039 Y140.548809 Z-1.000000 I0.934699 J-0.642598
G02 X54.472912 Y141.311730 Z-1.000000 I6.503998 J-11.855366
G02 X56.225830 Y141.823681 Z-1.000000 I3.691369 J-9.382273
G02 X57.930134 Y141.989060 Z-1.000000 I1.704304 J-8.699092
G02 X58.449696 Y141.961630 Z-1.000000 I0.000000 J-4.934399
G02 X59.129578 Y141.862060 Z-1.000000 I-0.906229 J-8.558827
G02 X59.802837 Y141.698100 Z-1.000000 I-1.094198 J-5.957295
G02 X59.962134 Y141.608060 Z-1.000000 I-0.123248 J-0.403980
G01 X59.962141 Y141.608020 Z-1.000000
G00 Z5.000000

(End cutting path id: path34)


(Start cutting path id: path32)
(Change tool to Cylindrical cutter)

G00 Z5.000000
G00 X61.330918 Y159.105800

G01 Z-0.998000 F100.0(Penetrate)
G02 X61.225284 Y158.568597 Z-0.998000 I-1.418797 J-0.000000 F100.000000
G02 X60.441918 Y156.932690 Z-0.998000 I-14.412579 J5.896058
G03 X59.612518 Y155.308647 Z-0.998000 I24.417420 J-13.493809
G03 X59.552918 Y155.041800 Z-0.998000 I0.567580 J-0.266847
G03 X59.580275 Y154.934519 Z-0.998000 I0.224029 J-0.000000
G03 X59.637588 Y154.886580 Z-0.998000 I0.089576 J0.048862
G03 X59.737912 Y154.868141 Z-0.998000 I0.145577 J0.509934
G03 X60.131477 Y154.844280 Z-0.998000 I0.676145 J7.894579
G02 X60.427537 Y154.751888 Z-0.998000 I-0.020975 J-0.587754
G02 X60.484255 Y154.618500 Z-0.998000 I-0.069247 J-0.108197
G02 X60.277624 Y154.034150 Z-0.998000 I-1.869474 J0.332351
G02 X59.877477 Y153.517840 Z-0.998000 I-1.846944 J1.018193
G02 X59.353218 Y153.144504 Z-0.998000 I-1.786588 J1.954062
G02 X59.044921 Y153.066280 Z-0.998000 I-0.308297 J0.568418
G03 X58.718479 Y153.027148 Z-0.998000 I-0.000000 J-1.381172
G03 X58.522810 Y152.939280 Z-0.998000 I0.138938 J-0.571191
G03 X58.393377 Y152.794283 Z-0.998000 I0.214494 J-0.321738
G03 X58.000699 Y151.923280 Z-0.998000 I8.310624 J-4.270736
G03 X57.730662 Y151.063826 Z-0.998000 I5.714063 J-2.267487
G03 X57.774921 Y150.963730 Z-0.998000 I0.088320 J-0.020781
G03 X57.957459 Y150.948207 Z-0.998000 I0.104803 J0.151382
G03 X58.805033 Y151.443500 Z-0.998000 I-2.232150 J4.792640
G03 X59.660148 Y152.067287 Z-0.998000 I-57.877258 J80.238709
G01 X59.665810 Y152.078500 Z-0.998000
G01 X59.665810 Y151.683390 Z-0.998000
G01 X59.657016 Y151.658550 Z-0.998000
G02 X59.425921 Y151.387060 Z-0.998000 I-5.617090 J4.547221
G02 X59.181749 Y151.123001 Z-0.998000 I-8.178760 J7.317872
G02 X58.819144 Y150.752060 Z-0.998000 I-16.506325 J15.772691
G02 X58.447372 Y150.407295 Z-0.998000 I-3.192049 J3.069271
G02 X57.845477 Y149.947730 Z-0.998000 I-6.291377 J7.615912
G02 X57.199559 Y149.605528 Z-0.998000 I-1.854876 J2.720443
G02 X56.773033 Y149.524390 Z-0.998000 I-0.426526 J1.080515
G02 X56.559212 Y149.562061 Z-0.998000 I0.000000 J0.625657
G02 X56.307366 Y149.693730 Z-0.998000 I0.366341 J1.007400
G02 X56.153567 Y149.911431 Z-0.998000 I0.311210 J0.383037
G02 X56.081588 Y150.328730 Z-0.998000 I1.173653 J0.417299
G02 X56.129187 Y150.742992 Z-0.998000 I1.826488 J-0.000000
G02 X56.321477 Y151.358840 Z-0.998000 I4.258428 J-0.991690
G03 X56.573533 Y151.966420 Z-0.998000 I-94.927098 J39.736779
G03 X56.843588 Y152.628840 Z-0.998000 I-112.566888 J46.277489
G03 X56.793992 Y152.748574 Z-0.998000 I-0.169328 J-0.000000
G03 X56.674255 Y152.798170 Z-0.998000 I-0.119737 J-0.119739
G01 X54.176588 Y152.755870 Z-0.998000
G03 X54.106407 Y152.724800 Z-0.998000 I0.000000 J-0.094798
G03 X53.061810 Y151.528200 Z-0.998000 I30.058780 J-27.294686
G02 X52.022500 Y150.336180 Z-0.998000 I-30.253678 J25.328777
G02 X51.255588 Y149.538530 Z-0.998000 I-14.301849 J12.983215
G02 X50.411481 Y148.878399 Z-0.998000 I-3.120788 J3.120795
G02 X49.943255 Y148.748310 Z-0.998000 I-0.468226 J0.777592
G02 X49.814587 Y148.813138 Z-0.998000 I0.014521 J0.188922
G02 X49.759811 Y148.959980 Z-0.998000 I0.169437 J0.146842
G02 X49.846998 Y149.311404 Z-0.998000 I0.751839 J0.000000
G02 X50.408922 Y150.187650 Z-0.998000 I5.493446 J-2.904572
G02 X51.087862 Y150.988565 Z-0.998000 I7.352840 J-5.544814
G02 X51.227366 Y151.048420 Z-0.998000 I0.139504 J-0.132644
G03 X51.591288 Y151.181993 Z-0.998000 I-0.080944 J0.783074
G03 X52.257477 Y151.753980 Z-0.998000 I-2.282263 J3.332083
G03 X52.737764 Y152.425625 Z-0.998000 I-2.295731 J2.149203
G03 X52.723144 Y152.628870 Z-0.998000 I-0.169066 J0.089987
G03 X52.593254 Y152.718012 Z-0.998000 I-0.244977 J-0.217758
G03 X52.384477 Y152.755870 Z-0.998000 I-0.208777 J-0.556739
G02 X52.144516 Y152.744208 Z-0.998000 I-0.694514 J11.816055
G02 X52.017588 Y152.741770 Z-0.998000 I-0.126928 J3.302740
G02 X51.817134 Y152.771605 Z-0.998000 I0.000000 J0.688320
G02 X51.693033 Y152.840570 Z-0.998000 I0.098378 J0.323170
G02 X51.654815 Y153.010254 Z-0.998000 I0.093197 J0.110137
G02 X52.102255 Y153.743690 Z-0.998000 I3.206335 J-1.452855
G02 X52.756152 Y154.401201 Z-0.998000 I3.017211 J-2.346721
G02 X53.160588 Y154.576240 Z-0.998000 I0.533750 J-0.678500
G02 X53.627134 Y154.651200 Z-0.998000 I2.051142 J-11.276850
G02 X53.767366 Y154.660940 Z-0.998000 I0.140232 J-1.004604
G02 X53.963329 Y154.608307 Z-0.998000 I-0.000000 J-0.391119
G02 X54.035477 Y154.505720 Z-0.998000 I-0.074867 J-0.129317
G03 X54.098282 Y154.391929 Z-0.998000 I0.200539 J0.036457
G03 X54.204810 Y154.350490 Z-0.998000 I0.106528 J0.116206
G03 X54.657614 Y154.387973 Z-0.998000 I-0.000000 J2.753697
G03 X54.797477 Y154.449290 Z-0.998000 I-0.051154 J0.306855
G02 X55.526300 Y155.260612 Z-0.998000 I8.977362 J-7.331479
G02 X56.970588 Y156.650620 Z-0.998000 I27.865024 J-27.507820
G02 X58.479843 Y157.971731 Z-0.998000 I31.288317 J-34.221520
G02 X59.581144 Y158.837850 Z-0.998000 I14.530053 J-17.342262
G02 X60.737846 Y159.637750 Z-0.998000 I16.896447 J-23.196972
G02 X60.893477 Y159.698620 Z-0.998000 I0.222243 J-0.338833
G02 X61.024112 Y159.663193 Z-0.998000 I0.017594 J-0.193689
G02 X61.189810 Y159.486960 Z-0.998000 I-0.361038 J-0.505468
G02 X61.304460 Y159.253591 Z-0.998000 I-1.083294 J-0.677051
G02 X61.330921 Y159.105960 Z-0.998000 I-0.398605 J-0.147631
G01 X61.330918 Y159.105800 Z-0.998000
G00 Z5.000000

(End cutting path id: path32)


(Start cutting path id: path32)
(Change tool to Cylindrical cutter)

G00 Z5.000000
G00 X61.330918 Y159.105800

G01 Z-1.000000 F100.0(Penetrate)
G02 X61.225284 Y158.568597 Z-1.000000 I-1.418797 J-0.000000 F100.000000
G02 X60.441918 Y156.932690 Z-1.000000 I-14.412579 J5.896058
G03 X59.612518 Y155.308647 Z-1.000000 I24.417420 J-13.493809
G03 X59.552918 Y155.041800 Z-1.000000 I0.567580 J-0.266847
G03 X59.580275 Y154.934519 Z-1.000000 I0.224029 J-0.000000
G03 X59.637588 Y154.886580 Z-1.000000 I0.089576 J0.048862
G03 X59.737912 Y154.868141 Z-1.000000 I0.145577 J0.509934
G03 X60.131477 Y154.844280 Z-1.000000 I0.676145 J7.894579
G02 X60.427537 Y154.751888 Z-1.000000 I-0.020975 J-0.587754
G02 X60.484255 Y154.618500 Z-1.000000 I-0.069247 J-0.108197
G02 X60.277624 Y154.034150 Z-1.000000 I-1.869474 J0.332351
G02 X59.877477 Y153.517840 Z-1.000000 I-1.846944 J1.018193
G02 X59.353218 Y153.144504 Z-1.000000 I-1.786588 J1.954062
G02 X59.044921 Y153.066280 Z-1.000000 I-0.308297 J0.568418
G03 X58.718479 Y153.027148 Z-1.000000 I-0.000000 J-1.381172
G03 X58.522810 Y152.939280 Z-1.000000 I0.138938 J-0.571191
G03 X58.393377 Y152.794283 Z-1.000000 I0.214494 J-0.321738
G03 X58.000699 Y151.923280 Z-1.000000 I8.310624 J-4.270736
G03 X57.730662 Y151.063826 Z-1.000000 I5.714063 J-2.267487
G03 X57.774921 Y150.963730 Z-1.000000 I0.088320 J-0.020781
G03 X57.957459 Y150.948207 Z-1.000000 I0.104803 J0.151382
G03 X58.805033 Y151.443500 Z-1.000000 I-2.232150 J4.792640
G03 X59.660148 Y152.067287 Z-1.000000 I-57.877258 J80.238709
G01 X59.665810 Y152.078500 Z-1.000000
G01 X59.665810 Y151.683390 Z-1.000000
G01 X59.657016 Y151.658550 Z-1.000000
G02 X59.425921 Y151.387060 Z-1.000000 I-5.617090 J4.547221
G02 X59.181749 Y151.123001 Z-1.000000 I-8.178760 J7.317872
G02 X58.819144 Y150.752060 Z-1.000000 I-16.506325 J15.772691
G02 X58.447372 Y150.407295 Z-1.000000 I-3.192049 J3.069271
G02 X57.845477 Y149.947730 Z-1.000000 I-6.291377 J7.615912
G02 X57.199559 Y149.605528 Z-1.000000 I-1.854876 J2.720443
G02 X56.773033 Y149.524390 Z-1.000000 I-0.426526 J1.080515
G02 X56.559212 Y149.562061 Z-1.000000 I0.000000 J0.625657
G02 X56.307366 Y149.693730 Z-1.000000 I0.366341 J1.007400
G02 X56.153567 Y149.911431 Z-1.000000 I0.311210 J0.383037
G02 X56.081588 Y150.328730 Z-1.000000 I1.173653 J0.417299
G02 X56.129187 Y150.742992 Z-1.000000 I1.826488 J-0.000000
G02 X56.321477 Y151.358840 Z-1.000000 I4.258428 J-0.991690
G03 X56.573533 Y151.966420 Z-1.000000 I-94.927098 J39.736779
G03 X56.843588 Y152.628840 Z-1.000000 I-112.566888 J46.277489
G03 X56.793992 Y152.748574 Z-1.000000 I-0.169328 J-0.000000
G03 X56.674255 Y152.798170 Z-1.000000 I-0.119737 J-0.119739
G01 X54.176588 Y152.755870 Z-1.000000
G03 X54.106407 Y152.724800 Z-1.000000 I0.000000 J-0.094798
G03 X53.061810 Y151.528200 Z-1.000000 I30.058780 J-27.294686
G02 X52.022500 Y150.336180 Z-1.000000 I-30.253678 J25.328777
G02 X51.255588 Y149.538530 Z-1.000000 I-14.301849 J12.983215
G02 X50.411481 Y148.878399 Z-1.000000 I-3.120788 J3.120795
G02 X49.943255 Y148.748310 Z-1.000000 I-0.468226 J0.777592
G02 X49.814587 Y148.813138 Z-1.000000 I0.014521 J0.188922
G02 X49.759811 Y148.959980 Z-1.000000 I0.169437 J0.146842
G02 X49.846998 Y149.311404 Z-1.000000 I0.751839 J0.000000
G02 X50.408922 Y150.187650 Z-1.000000 I5.493446 J-2.904572
G02 X51.087862 Y150.988565 Z-1.000000 I7.352840 J-5.544814
G02 X51.227366 Y151.048420 Z-1.000000 I0.139504 J-0.132644
G03 X51.591288 Y151.181993 Z-1.000000 I-0.080944 J0.783074
G03 X52.257477 Y151.753980 Z-1.000000 I-2.282263 J3.332083
G03 X52.737764 Y152.425625 Z-1.000000 I-2.295731 J2.149203
G03 X52.723144 Y152.628870 Z-1.000000 I-0.169066 J0.089987
G03 X52.593254 Y152.718012 Z-1.000000 I-0.244977 J-0.217758
G03 X52.384477 Y152.755870 Z-1.000000 I-0.208777 J-0.556739
G02 X52.144516 Y152.744208 Z-1.000000 I-0.694514 J11.816055
G02 X52.017588 Y152.741770 Z-1.000000 I-0.126928 J3.302740
G02 X51.817134 Y152.771605 Z-1.000000 I0.000000 J0.688320
G02 X51.693033 Y152.840570 Z-1.000000 I0.098378 J0.323170
G02 X51.654815 Y153.010254 Z-1.000000 I0.093197 J0.110137
G02 X52.102255 Y153.743690 Z-1.000000 I3.206335 J-1.452855
G02 X52.756152 Y154.401201 Z-1.000000 I3.017211 J-2.346721
G02 X53.160588 Y154.576240 Z-1.000000 I0.533750 J-0.678500
G02 X53.627134 Y154.651200 Z-1.000000 I2.051142 J-11.276850
G02 X53.767366 Y154.660940 Z-1.000000 I0.140232 J-1.004604
G02 X53.963329 Y154.608307 Z-1.000000 I-0.000000 J-0.391119
G02 X54.035477 Y154.505720 Z-1.000000 I-0.074867 J-0.129317
G03 X54.098282 Y154.391929 Z-1.000000 I0.200539 J0.036457
G03 X54.204810 Y154.350490 Z-1.000000 I0.106528 J0.116206
G03 X54.657614 Y154.387973 Z-1.000000 I-0.000000 J2.753697
G03 X54.797477 Y154.449290 Z-1.000000 I-0.051154 J0.306855
G02 X55.526300 Y155.260612 Z-1.000000 I8.977362 J-7.331479
G02 X56.970588 Y156.650620 Z-1.000000 I27.865024 J-27.507820
G02 X58.479843 Y157.971731 Z-1.000000 I31.288317 J-34.221520
G02 X59.581144 Y158.837850 Z-1.000000 I14.530053 J-17.342262
G02 X60.737846 Y159.637750 Z-1.000000 I16.896447 J-23.196972
G02 X60.893477 Y159.698620 Z-1.000000 I0.222243 J-0.338833
G02 X61.024112 Y159.663193 Z-1.000000 I0.017594 J-0.193689
G02 X61.189810 Y159.486960 Z-1.000000 I-0.361038 J-0.505468
G02 X61.304460 Y159.253591 Z-1.000000 I-1.083294 J-0.677051
G02 X61.330921 Y159.105960 Z-1.000000 I-0.398605 J-0.147631
G01 X61.330918 Y159.105800 Z-1.000000
G00 Z5.000000

(End cutting path id: path32)


(Start cutting path id: path32)
(Change tool to Cylindrical cutter)

G00 Z5.000000
G00 X59.538807 Y157.680580

G01 Z-0.998000 F100.0(Penetrate)
G03 X59.613116 Y157.838442 Z-0.998000 I-1.289658 J0.703487 F100.000000
G03 X59.623477 Y157.892240 Z-0.998000 I-0.134485 J0.053798
G01 X58.917921 Y157.497130 Z-0.998000
G03 X58.585154 Y157.222026 Z-0.998000 I6.326605 J-7.991519
G03 X57.887810 Y156.608130 Z-0.998000 I30.834680 J-35.729070
G03 X57.208020 Y155.975262 Z-0.998000 I17.257339 J-19.218354
G03 X56.674255 Y155.436910 Z-0.998000 I11.950546 J-12.382512
G03 X56.204125 Y154.865845 Z-0.998000 I3.817990 J-3.622217
G03 X56.152144 Y154.703130 Z-0.998000 I0.228682 J-0.162715
G03 X56.185678 Y154.646160 Z-0.998000 I0.065160 J0.000000
G03 X56.279144 Y154.632630 Z-0.998000 I0.064542 J0.116268
G01 X57.944255 Y154.816070 Z-0.998000
G01 X59.538807 Y157.680580 Z-0.998000
G00 Z5.000000

(End cutting path id: path32)


(Start cutting path id: path32)
(Change tool to Cylindrical cutter)

G00 Z5.000000
G00 X59.538807 Y157.680580

G01 Z-1.000000 F100.0(Penetrate)
G03 X59.613116 Y157.838442 Z-1.000000 I-1.289658 J0.703487 F100.000000
G03 X59.623477 Y157.892240 Z-1.000000 I-0.134485 J0.053798
G01 X58.917921 Y157.497130 Z-1.000000
G03 X58.585154 Y157.222026 Z-1.000000 I6.326605 J-7.991519
G03 X57.887810 Y156.608130 Z-1.000000 I30.834680 J-35.729070
G03 X57.208020 Y155.975262 Z-1.000000 I17.257339 J-19.218354
G03 X56.674255 Y155.436910 Z-1.000000 I11.950546 J-12.382512
G03 X56.204125 Y154.865845 Z-1.000000 I3.817990 J-3.622217
G03 X56.152144 Y154.703130 Z-1.000000 I0.228682 J-0.162715
G03 X56.185678 Y154.646160 Z-1.000000 I0.065160 J0.000000
G03 X56.279144 Y154.632630 Z-1.000000 I0.064542 J0.116268
G01 X57.944255 Y154.816070 Z-1.000000
G01 X59.538807 Y157.680580 Z-1.000000
G00 Z5.000000

(End cutting path id: path32)


(Start cutting path id: path30)
(Change tool to Cylindrical cutter)

G00 Z5.000000
G00 X61.387363 Y175.319460

G01 Z-0.998000 F100.0(Penetrate)
G02 X61.327415 Y174.838120 Z-0.998000 I-1.962380 J0.000000 F100.000000
G02 X61.091029 Y174.148240 Z-0.998000 I-4.300100 J1.087982
G02 X60.742953 Y173.532935 Z-0.998000 I-2.897356 J1.232921
G02 X60.272585 Y173.019350 Z-0.998000 I-2.474088 J1.793711
G02 X59.689665 Y172.658875 Z-0.998000 I-1.516743 J1.801154
G02 X58.508696 Y172.257350 Z-0.998000 I-3.093103 J7.159961
G02 X57.290065 Y171.985587 Z-0.998000 I-7.375241 J30.203692
G02 X55.714696 Y171.692910 Z-0.998000 I-10.139573 J50.191282
G03 X54.194106 Y171.387908 Z-0.998000 I3.188235 J-19.837902
G03 X54.134252 Y171.311910 Z-0.998000 I0.018321 J-0.075998
G03 X54.191121 Y171.224548 Z-0.998000 I0.095537 J0.000000
G03 X55.855807 Y170.549910 Z-0.998000 I11.481168 J25.938927
G02 X57.569936 Y169.896513 Z-0.998000 I-29.362408 J-79.604772
G02 X58.508696 Y169.505690 Z-0.998000 I-9.548865 J-24.259331
G02 X59.397422 Y169.042493 Z-0.998000 I-2.768439 J-6.395930
G02 X59.538807 Y168.870690 Z-0.998000 I-0.180261 J-0.292423
G02 X59.605597 Y168.640634 Z-0.998000 I-1.472666 J-0.552266
G02 X59.665807 Y168.263910 Z-0.998000 I-3.904451 J-0.817208
G02 X59.699506 Y167.896524 Z-0.998000 I-7.832473 J-0.903673
G02 X59.708137 Y167.643020 Z-0.998000 I-3.718354 J-0.253504
G02 X59.668307 Y167.195670 Z-0.998000 I-2.532136 J-0.000000
G02 X59.609357 Y167.092690 Z-0.998000 I-0.173973 J0.031227
G02 X59.446405 Y167.071158 Z-0.998000 I-0.101304 J0.139291
G02 X57.916024 Y167.741800 Z-0.998000 I6.370489 J16.618691
G01 X54.868024 Y169.265800 Z-0.998000
G03 X53.361329 Y169.921158 Z-0.998000 I-6.887564 J-13.775127
G03 X53.202913 Y169.886690 Z-0.998000 I-0.052389 J-0.140497
G02 X52.432006 Y168.646070 Z-0.998000 I-33.219167 J19.782186
G02 X51.904690 Y167.882910 Z-0.998000 I-13.087323 J8.479106
G02 X51.318971 Y167.265476 Z-0.998000 I-2.531936 J1.815347
G02 X51.058024 Y167.205580 Z-0.998000 I-0.192611 J0.240764
G02 X50.969800 Y167.264890 Z-0.998000 I0.031588 J0.142259
G02 X50.931024 Y167.389020 Z-0.998000 I0.179294 J0.124130
G02 X50.997971 Y167.695533 Z-0.998000 I0.735145 J0.000000
G02 X51.636579 Y168.927130 Z-0.998000 I13.065343 J-5.993276
G03 X52.309289 Y170.167549 Z-0.998000 I-18.291162 J10.722381
G03 X52.356246 Y170.366460 Z-0.998000 I-0.397822 J0.198911
G03 X52.313881 Y170.447830 Z-0.998000 I-0.099325 J-0.000000
G03 X52.074024 Y170.564020 Z-0.998000 I-0.480758 J-0.686782
G02 X51.823890 Y170.675354 Z-0.998000 I0.720931 J1.956371
G01 X51.805913 Y170.705130 Z-0.998000
G02 X51.859005 Y171.039694 Z-0.998000 I1.080687 J0.000000
G02 X52.003468 Y171.311910 Z-0.998000 I0.850463 J-0.276893
G02 X52.221693 Y171.557812 Z-0.998000 I1.459375 J-1.075336
G02 X52.469135 Y171.749350 Z-0.998000 I1.124301 J-1.196849
G02 X52.749594 Y171.885685 Z-0.998000 I0.752615 J-1.191594
G02 X53.104135 Y171.975130 Z-0.998000 I0.649165 J-1.825758
G03 X53.444715 Y172.085152 Z-0.998000 I-0.171320 J1.112483
G03 X53.767357 Y172.313800 Z-0.998000 I-0.624899 J1.223748
G03 X54.049634 Y172.633708 Z-0.998000 I-1.721453 J1.803445
G03 X54.853913 Y173.781350 Z-0.998000 I-21.619575 J16.006868
G03 X55.534334 Y174.970796 Z-0.998000 I-9.543568 J6.248728
G03 X55.531246 Y175.150130 Z-0.998000 I-0.175161 J0.086677
G03 X55.474916 Y175.187442 Z-0.998000 I-0.051998 J-0.017324
G03 X54.642246 Y175.079630 Z-0.998000 I0.669060 J-8.436798
G03 X53.831080 Y174.879308 Z-0.998000 I1.240254 J-6.764683
G03 X53.739135 Y174.797400 Z-0.998000 I0.044556 J-0.142575
G03 X53.716114 Y174.685236 Z-0.998000 I0.198309 J-0.099146
G03 X53.753245 Y174.557510 Z-0.998000 I0.298681 J0.017568
G02 X53.814698 Y174.443986 Z-0.998000 I-0.351560 J-0.263701
G01 X53.809685 Y174.402290 Z-0.998000
G02 X53.718453 Y174.338595 Z-0.998000 I-0.135325 J0.096645
G02 X53.245241 Y174.247070 Z-0.998000 I-0.827368 J3.008653
G02 X52.764929 Y174.216917 Z-0.998000 I-0.837291 J9.496782
G02 X52.116352 Y174.204770 Z-0.998000 I-0.648577 J17.309006
G02 X51.735503 Y174.209300 Z-0.998000 I0.000000 J16.012814
G02 X51.523685 Y174.218870 Z-0.998000 I0.118031 J4.961206
G02 X51.321395 Y174.249177 Z-0.998000 I0.082792 J1.242855
G02 X51.283797 Y174.275270 Z-0.998000 I0.014271 J0.060699
G02 X51.273886 Y174.332187 Z-0.998000 I0.385581 J0.096464
G02 X51.269687 Y174.416380 Z-0.998000 I0.841987 J0.084193
G01 X51.269687 Y174.543380 Z-0.998000
G02 X51.302944 Y174.918807 Z-0.998000 I2.135656 J0.000000
G02 X51.410799 Y175.333610 Z-0.998000 I2.718720 J-0.485484
G02 X51.611824 Y175.727684 Z-0.998000 I1.730988 J-0.634700
G02 X51.961132 Y176.152050 Z-0.998000 I2.361752 J-1.588082
G02 X52.415439 Y176.458577 Z-0.998000 I0.948396 J-0.915698
G02 X53.950798 Y176.956380 Z-0.998000 I4.285503 J-10.601022
G02 X55.571543 Y177.251678 Z-0.998000 I3.242874 J-13.203169
G02 X57.238687 Y177.351490 Z-0.998000 I1.667144 J-13.873058
G02 X59.485946 Y177.160677 Z-0.998000 I0.000000 J-13.328714
G02 X60.456020 Y176.801160 Z-0.998000 I-0.472858 J-2.764418
G02 X61.156861 Y176.119303 Z-0.998000 I-1.055122 J-1.785603
G02 X61.387354 Y175.319490 Z-0.998000 I-1.272432 J-0.799813
G01 X61.387363 Y175.319460 Z-0.998000
G00 Z5.000000

(End cutting path id: path30)


(Start cutting path id: path30)
(Change tool to Cylindrical cutter)

G00 Z5.000000
G00 X61.387363 Y175.319460

G01 Z-1.000000 F100.0(Penetrate)
G02 X61.327415 Y174.838120 Z-1.000000 I-1.962380 J0.000000 F100.000000
G02 X61.091029 Y174.148240 Z-1.000000 I-4.300100 J1.087982
G02 X60.742953 Y173.532935 Z-1.000000 I-2.897356 J1.232921
G02 X60.272585 Y173.019350 Z-1.000000 I-2.474088 J1.793711
G02 X59.689665 Y172.658875 Z-1.000000 I-1.516743 J1.801154
G02 X58.508696 Y172.257350 Z-1.000000 I-3.093103 J7.159961
G02 X57.290065 Y171.985587 Z-1.000000 I-7.375241 J30.203692
G02 X55.714696 Y171.692910 Z-1.000000 I-10.139573 J50.191282
G03 X54.194106 Y171.387908 Z-1.000000 I3.188235 J-19.837902
G03 X54.134252 Y171.311910 Z-1.000000 I0.018321 J-0.075998
G03 X54.191121 Y171.224548 Z-1.000000 I0.095537 J0.000000
G03 X55.855807 Y170.549910 Z-1.000000 I11.481168 J25.938927
G02 X57.569936 Y169.896513 Z-1.000000 I-29.362408 J-79.604772
G02 X58.508696 Y169.505690 Z-1.000000 I-9.548865 J-24.259331
G02 X59.397422 Y169.042493 Z-1.000000 I-2.768439 J-6.395930
G02 X59.538807 Y168.870690 Z-1.000000 I-0.180261 J-0.292423
G02 X59.605597 Y168.640634 Z-1.000000 I-1.472666 J-0.552266
G02 X59.665807 Y168.263910 Z-1.000000 I-3.904451 J-0.817208
G02 X59.699506 Y167.896524 Z-1.000000 I-7.832473 J-0.903673
G02 X59.708137 Y167.643020 Z-1.000000 I-3.718354 J-0.253504
G02 X59.668307 Y167.195670 Z-1.000000 I-2.532136 J-0.000000
G02 X59.609357 Y167.092690 Z-1.000000 I-0.173973 J0.031227
G02 X59.446405 Y167.071158 Z-1.000000 I-0.101304 J0.139291
G02 X57.916024 Y167.741800 Z-1.000000 I6.370489 J16.618691
G01 X54.868024 Y169.265800 Z-1.000000
G03 X53.361329 Y169.921158 Z-1.000000 I-6.887564 J-13.775127
G03 X53.202913 Y169.886690 Z-1.000000 I-0.052389 J-0.140497
G02 X52.432006 Y168.646070 Z-1.000000 I-33.219167 J19.782186
G02 X51.904690 Y167.882910 Z-1.000000 I-13.087323 J8.479106
G02 X51.318971 Y167.265476 Z-1.000000 I-2.531936 J1.815347
G02 X51.058024 Y167.205580 Z-1.000000 I-0.192611 J0.240764
G02 X50.969800 Y167.264890 Z-1.000000 I0.031588 J0.142259
G02 X50.931024 Y167.389020 Z-1.000000 I0.179294 J0.124130
G02 X50.997971 Y167.695533 Z-1.000000 I0.735145 J0.000000
G02 X51.636579 Y168.927130 Z-1.000000 I13.065343 J-5.993276
G03 X52.309289 Y170.167549 Z-1.000000 I-18.291162 J10.722381
G03 X52.356246 Y170.366460 Z-1.000000 I-0.397822 J0.198911
G03 X52.313881 Y170.447830 Z-1.000000 I-0.099325 J-0.000000
G03 X52.074024 Y170.564020 Z-1.000000 I-0.480758 J-0.686782
G02 X51.823890 Y170.675354 Z-1.000000 I0.720931 J1.956371
G01 X51.805913 Y170.705130 Z-1.000000
G02 X51.859005 Y171.039694 Z-1.000000 I1.080687 J0.000000
G02 X52.003468 Y171.311910 Z-1.000000 I0.850463 J-0.276893
G02 X52.221693 Y171.557812 Z-1.000000 I1.459375 J-1.075336
G02 X52.469135 Y171.749350 Z-1.000000 I1.124301 J-1.196849
G02 X52.749594 Y171.885685 Z-1.000000 I0.752615 J-1.191594
G02 X53.104135 Y171.975130 Z-1.000000 I0.649165 J-1.825758
G03 X53.444715 Y172.085152 Z-1.000000 I-0.171320 J1.112483
G03 X53.767357 Y172.313800 Z-1.000000 I-0.624899 J1.223748
G03 X54.049634 Y172.633708 Z-1.000000 I-1.721453 J1.803445
G03 X54.853913 Y173.781350 Z-1.000000 I-21.619575 J16.006868
G03 X55.534334 Y174.970796 Z-1.000000 I-9.543568 J6.248728
G03 X55.531246 Y175.150130 Z-1.000000 I-0.175161 J0.086677
G03 X55.474916 Y175.187442 Z-1.000000 I-0.051998 J-0.017324
G03 X54.642246 Y175.079630 Z-1.000000 I0.669060 J-8.436798
G03 X53.831080 Y174.879308 Z-1.000000 I1.240254 J-6.764683
G03 X53.739135 Y174.797400 Z-1.000000 I0.044556 J-0.142575
G03 X53.716114 Y174.685236 Z-1.000000 I0.198309 J-0.099146
G03 X53.753245 Y174.557510 Z-1.000000 I0.298681 J0.017568
G02 X53.814698 Y174.443986 Z-1.000000 I-0.351560 J-0.263701
G01 X53.809685 Y174.402290 Z-1.000000
G02 X53.718453 Y174.338595 Z-1.000000 I-0.135325 J0.096645
G02 X53.245241 Y174.247070 Z-1.000000 I-0.827368 J3.008653
G02 X52.764929 Y174.216917 Z-1.000000 I-0.837291 J9.496782
G02 X52.116352 Y174.204770 Z-1.000000 I-0.648577 J17.309006
G02 X51.735503 Y174.209300 Z-1.000000 I0.000000 J16.012814
G02 X51.523685 Y174.218870 Z-1.000000 I0.118031 J4.961206
G02 X51.321395 Y174.249177 Z-1.000000 I0.082792 J1.242855
G02 X51.283797 Y174.275270 Z-1.000000 I0.014271 J0.060699
G02 X51.273886 Y174.332187 Z-1.000000 I0.385581 J0.096464
G02 X51.269687 Y174.416380 Z-1.000000 I0.841987 J0.084193
G01 X51.269687 Y174.543380 Z-1.000000
G02 X51.302944 Y174.918807 Z-1.000000 I2.135656 J0.000000
G02 X51.410799 Y175.333610 Z-1.000000 I2.718720 J-0.485484
G02 X51.611824 Y175.727684 Z-1.000000 I1.730988 J-0.634700
G02 X51.961132 Y176.152050 Z-1.000000 I2.361752 J-1.588082
G02 X52.415439 Y176.458577 Z-1.000000 I0.948396 J-0.915698
G02 X53.950798 Y176.956380 Z-1.000000 I4.285503 J-10.601022
G02 X55.571543 Y177.251678 Z-1.000000 I3.242874 J-13.203169
G02 X57.238687 Y177.351490 Z-1.000000 I1.667144 J-13.873058
G02 X59.485946 Y177.160677 Z-1.000000 I0.000000 J-13.328714
G02 X60.456020 Y176.801160 Z-1.000000 I-0.472858 J-2.764418
G02 X61.156861 Y176.119303 Z-1.000000 I-1.055122 J-1.785603
G02 X61.387354 Y175.319490 Z-1.000000 I-1.272432 J-0.799813
G01 X61.387363 Y175.319460 Z-1.000000
G00 Z5.000000

(End cutting path id: path30)


(Start cutting path id: path30)
(Change tool to Cylindrical cutter)

G00 Z5.000000
G00 X60.456029 Y174.882020

G01 Z-0.998000 F100.0(Penetrate)
G03 X60.335426 Y175.111060 Z-0.998000 I-0.277788 J0.000000 F100.000000
G03 X59.736363 Y175.375910 Z-0.998000 I-1.006435 J-1.466515
G03 X59.025120 Y175.497174 Z-0.998000 I-1.263741 J-5.265693
G03 X58.085363 Y175.545240 Z-0.998000 I-0.939757 J-9.162811
G03 X57.452194 Y175.523860 Z-0.998000 I0.000000 J-9.386384
G03 X57.041141 Y175.474640 Z-0.998000 I0.270373 J-3.998998
G03 X56.668260 Y175.379938 Z-0.998000 I0.254697 J-1.784286
G03 X56.547252 Y175.291190 Z-0.998000 I0.095484 J-0.257064
G03 X56.475771 Y175.171389 Z-0.998000 I0.529638 J-0.397240
G03 X56.377918 Y174.924300 Z-0.998000 I2.181522 J-1.006857
G02 X56.280677 Y174.690014 Z-0.998000 I-2.211441 J0.780536
G02 X56.039252 Y174.218750 Z-0.998000 I-9.212243 J4.421903
G02 X55.774919 Y173.759326 Z-0.998000 I-10.223789 J5.576572
G02 X55.474807 Y173.287410 Z-0.998000 I-11.087792 J6.719832
G03 X55.173765 Y172.830314 Z-0.998000 I11.334532 J-7.792575
G03 X55.065585 Y172.638300 Z-0.998000 I1.886630 J-1.189398
G03 X55.063121 Y172.598750 Z-0.998000 I0.073179 J-0.024410
G03 X55.079695 Y172.567800 Z-0.998000 I0.059378 J0.011884
G03 X55.122778 Y172.558344 Z-0.998000 I0.066197 J0.198731
G03 X55.206695 Y172.553700 Z-0.998000 I0.083917 J0.755847
G03 X56.032463 Y172.666258 Z-0.998000 I-0.000000 J3.085345
G03 X58.254695 Y173.400360 Z-0.998000 I-6.511897 J23.443013
G03 X60.213607 Y174.426642 Z-0.998000 I-3.673424 J9.394303
G03 X60.456028 Y174.882030 Z-0.998000 I-0.306512 J0.455388
G01 X60.456029 Y174.882020 Z-0.998000
G00 Z5.000000

(End cutting path id: path30)


(Start cutting path id: path30)
(Change tool to Cylindrical cutter)

G00 Z5.000000
G00 X60.456029 Y174.882020

G01 Z-1.000000 F100.0(Penetrate)
G03 X60.335426 Y175.111060 Z-1.000000 I-0.277788 J0.000000 F100.000000
G03 X59.736363 Y175.375910 Z-1.000000 I-1.006435 J-1.466515
G03 X59.025120 Y175.497174 Z-1.000000 I-1.263741 J-5.265693
G03 X58.085363 Y175.545240 Z-1.000000 I-0.939757 J-9.162811
G03 X57.452194 Y175.523860 Z-1.000000 I0.000000 J-9.386384
G03 X57.041141 Y175.474640 Z-1.000000 I0.270373 J-3.998998
G03 X56.668260 Y175.379938 Z-1.000000 I0.254697 J-1.784286
G03 X56.547252 Y175.291190 Z-1.000000 I0.095484 J-0.257064
G03 X56.475771 Y175.171389 Z-1.000000 I0.529638 J-0.397240
G03 X56.377918 Y174.924300 Z-1.000000 I2.181522 J-1.006857
G02 X56.280677 Y174.690014 Z-1.000000 I-2.211441 J0.780536
G02 X56.039252 Y174.218750 Z-1.000000 I-9.212243 J4.421903
G02 X55.774919 Y173.759326 Z-1.000000 I-10.223789 J5.576572
G02 X55.474807 Y173.287410 Z-1.000000 I-11.087792 J6.719832
G03 X55.173765 Y172.830314 Z-1.000000 I11.334532 J-7.792575
G03 X55.065585 Y172.638300 Z-1.000000 I1.886630 J-1.189398
G03 X55.063121 Y172.598750 Z-1.000000 I0.073179 J-0.024410
G03 X55.079695 Y172.567800 Z-1.000000 I0.059378 J0.011884
G03 X55.122778 Y172.558344 Z-1.000000 I0.066197 J0.198731
G03 X55.206695 Y172.553700 Z-1.000000 I0.083917 J0.755847
G03 X56.032463 Y172.666258 Z-1.000000 I-0.000000 J3.085345
G03 X58.254695 Y173.400360 Z-1.000000 I-6.511897 J23.443013
G03 X60.213607 Y174.426642 Z-1.000000 I-3.673424 J9.394303
G03 X60.456028 Y174.882030 Z-1.000000 I-0.306512 J0.455388
G01 X60.456029 Y174.882020 Z-1.000000
G00 Z5.000000

(End cutting path id: path30)


(Start cutting path id: path28)
(Change tool to Cylindrical cutter)

G00 Z5.000000
G00 X58.635696 Y194.538800

G01 Z-0.998000 F100.0(Penetrate)
G02 X58.655844 Y194.480103 Z-0.998000 I-0.208829 J-0.104488 F100.000000
G02 X58.678026 Y194.327130 Z-0.998000 I-1.420516 J-0.284076
G02 X58.697021 Y194.171078 Z-0.998000 I-1.317879 J-0.239599
G02 X58.706246 Y193.875570 Z-0.998000 I-4.728551 J-0.295508
G02 X58.697021 Y193.580072 Z-0.998000 I-4.737511 J-0.000000
G02 X58.678026 Y193.424020 Z-0.998000 I-1.336890 J0.083550
G02 X58.627848 Y193.303680 Z-0.998000 I-0.222826 J0.022281
G02 X58.409914 Y193.099460 Z-0.998000 I-0.905931 J0.748370
G02 X58.159549 Y192.948660 Z-0.998000 I-1.162915 J1.647489
G02 X57.464470 Y192.619690 Z-0.998000 I-6.317293 J12.448980
G02 X56.770084 Y192.316283 Z-0.998000 I-15.411797 J34.325640
G02 X56.335581 Y192.139910 Z-0.998000 I-5.636033 J13.261193
G01 X56.956470 Y192.887800 Z-0.998000
G03 X56.975342 Y192.971741 Z-0.998000 I-0.069749 J0.059773
G03 X56.914140 Y193.043020 Z-0.998000 I-0.105670 J-0.028817
G03 X56.796675 Y193.080020 Z-0.998000 I-0.174708 J-0.349692
G03 X56.533140 Y193.099420 Z-0.998000 I-0.263535 J-1.780260
G03 X55.672022 Y193.016477 Z-0.998000 I-0.000000 J-4.511564
G03 X54.501140 Y192.704310 Z-0.998000 I1.689563 J-8.689207
G03 X53.414409 Y192.219308 Z-0.998000 I2.122393 J-6.215595
G03 X53.090029 Y191.914090 Z-0.998000 I0.449529 J-0.802733
G03 X52.858354 Y191.512423 Z-0.998000 I4.050681 J-2.604016
G03 X52.836029 Y191.420200 Z-0.998000 I0.179323 J-0.092223
G03 X53.049506 Y191.145944 Z-0.998000 I0.282908 J0.000000
G03 X55.065584 Y190.855760 Z-0.998000 I2.384790 J9.419994
G02 X57.200957 Y190.680387 Z-0.998000 I-0.925158 J-24.352903
G02 X57.295140 Y190.573530 Z-0.998000 I-0.013527 J-0.106857
G02 X57.230826 Y190.301095 Z-0.998000 I-0.609179 J-0.000000
G02 X56.942362 Y189.867980 Z-0.998000 I-1.883041 J0.941529
G02 X56.572957 Y189.495046 Z-0.998000 I-2.875671 J2.479042
G02 X56.476695 Y189.458760 Z-0.998000 I-0.096262 J0.109540
G03 X54.608153 Y189.221426 Z-0.998000 I-0.000000 J-7.474226
G03 X53.033584 Y188.569760 Z-0.998000 I1.529444 J-5.923562
G03 X51.769861 Y187.561765 Z-0.998000 I2.842613 J-4.859945
G03 X51.537806 Y186.975200 Z-0.998000 I0.625302 J-0.586565
G03 X51.662522 Y186.715715 Z-0.998000 I0.332301 J0.000000
G03 X52.102251 Y186.523650 Z-0.998000 I0.576651 J0.720824
G03 X52.681636 Y186.466699 Z-0.998000 I1.503988 J12.324923
G03 X53.047695 Y186.453050 Z-0.998000 I0.366059 J4.902105
G03 X54.237349 Y186.606098 Z-0.998000 I0.000000 J4.700168
G03 X55.474806 Y187.088050 Z-0.998000 I-1.458295 J5.573927
G03 X56.683336 Y187.732215 Z-0.998000 I-41.601111 J79.504374
G03 X57.450362 Y188.160490 Z-0.998000 I-17.615776 J32.450255
G02 X57.518785 Y188.116024 Z-0.998000 I0.000000 J-0.074876
G02 X57.563251 Y187.906490 Z-0.998000 I-0.471451 J-0.209534
G02 X57.534234 Y187.629118 Z-0.998000 I-1.340217 J-0.000000
G02 X57.408029 Y187.172720 Z-0.998000 I-3.780115 J0.799647
G02 X57.226471 Y186.742562 Z-0.998000 I-2.312538 J0.722666
G02 X56.942362 Y186.311940 Z-0.998000 I-2.601703 J1.407476
G02 X56.574289 Y185.992265 Z-0.998000 I-1.016564 J0.798732
G02 X55.263140 Y185.338270 Z-0.998000 I-5.857674 J10.102329
G02 X53.868147 Y184.906167 Z-0.998000 I-3.071898 J7.449412
G02 X52.610251 Y184.773830 Z-0.998000 I-1.257896 J5.912158
G02 X51.707293 Y184.876976 Z-0.998000 I0.000000 J4.003899
G02 X51.086251 Y185.126610 Z-0.998000 I0.489768 J2.115784
G02 X50.581279 Y185.539141 Z-0.998000 I1.238906 J2.031852
G02 X50.352473 Y185.916830 Z-0.998000 I0.799798 J0.742672
G02 X50.214177 Y186.360068 Z-0.998000 I3.238842 J1.253755
G02 X50.183140 Y186.622380 Z-0.998000 I1.092962 J0.262312
G02 X50.323145 Y187.300111 Z-0.998000 I1.710364 J0.000000
G02 X50.761695 Y187.962940 Z-0.998000 I2.071211 J-0.893887
G02 X51.372210 Y188.529916 Z-0.998000 I4.964756 J-4.733823
G02 X51.947029 Y188.936610 Z-0.998000 I3.109957 J-3.786024
G02 X52.577553 Y189.268417 Z-0.998000 I2.486271 J-3.959611
G02 X54.035473 Y189.839720 Z-0.998000 I8.963021 J-20.727006
G03 X54.245735 Y189.941333 Z-0.998000 I-3.668915 J7.860206
G03 X54.458806 Y190.051380 Z-0.998000 I-4.090756 J8.181762
G02 X53.801740 Y190.111960 Z-0.998000 I0.099298 J4.670698
G02 X52.652584 Y190.347720 Z-0.998000 I2.390561 J14.570712
G02 X51.804545 Y190.872292 Z-0.998000 I0.423006 J1.631614
G02 X51.509584 Y191.660050 Z-0.998000 I0.904461 J0.787758
G02 X51.848064 Y192.728338 Z-0.998000 I1.855070 J0.000000
G02 X53.090029 Y193.903720 Z-0.998000 I3.531195 J-2.487380
G02 X54.759412 Y194.645869 Z-0.998000 I3.418172 J-5.440181
G02 X56.631917 Y194.905610 Z-0.998000 I1.872505 J-6.619692
G02 X57.277271 Y194.870637 Z-0.998000 I-0.000000 J-5.971862
G02 X57.930140 Y194.764490 Z-0.998000 I-0.675945 J-6.218303
G02 X58.555167 Y194.603927 Z-0.998000 I-1.064368 J-5.440101
G02 X58.635695 Y194.538720 Z-0.998000 I-0.043556 J-0.136117
G01 X58.635696 Y194.538800 Z-0.998000
G00 Z5.000000

(End cutting path id: path28)


(Start cutting path id: path28)
(Change tool to Cylindrical cutter)

G00 Z5.000000
G00 X58.635696 Y194.538800

G01 Z-1.000000 F100.0(Penetrate)
G02 X58.655844 Y194.480103 Z-1.000000 I-0.208829 J-0.104488 F100.000000
G02 X58.678026 Y194.327130 Z-1.000000 I-1.420516 J-0.284076
G02 X58.697021 Y194.171078 Z-1.000000 I-1.317879 J-0.239599
G02 X58.706246 Y193.875570 Z-1.000000 I-4.728551 J-0.295508
G02 X58.697021 Y193.580072 Z-1.000000 I-4.737511 J-0.000000
G02 X58.678026 Y193.424020 Z-1.000000 I-1.336890 J0.083550
G02 X58.627848 Y193.303680 Z-1.000000 I-0.222826 J0.022281
G02 X58.409914 Y193.099460 Z-1.000000 I-0.905931 J0.748370
G02 X58.159549 Y192.948660 Z-1.000000 I-1.162915 J1.647489
G02 X57.464470 Y192.619690 Z-1.000000 I-6.317293 J12.448980
G02 X56.770084 Y192.316283 Z-1.000000 I-15.411797 J34.325640
G02 X56.335581 Y192.139910 Z-1.000000 I-5.636033 J13.261193
G01 X56.956470 Y192.887800 Z-1.000000
G03 X56.975342 Y192.971741 Z-1.000000 I-0.069749 J0.059773
G03 X56.914140 Y193.043020 Z-1.000000 I-0.105670 J-0.028817
G03 X56.796675 Y193.080020 Z-1.000000 I-0.174708 J-0.349692
G03 X56.533140 Y193.099420 Z-1.000000 I-0.263535 J-1.780260
G03 X55.672022 Y193.016477 Z-1.000000 I-0.000000 J-4.511564
G03 X54.501140 Y192.704310 Z-1.000000 I1.689563 J-8.689207
G03 X53.414409 Y192.219308 Z-1.000000 I2.122393 J-6.215595
G03 X53.090029 Y191.914090 Z-1.000000 I0.449529 J-0.802733
G03 X52.858354 Y191.512423 Z-1.000000 I4.050681 J-2.604016
G03 X52.836029 Y191.420200 Z-1.000000 I0.179323 J-0.092223
G03 X53.049506 Y191.145944 Z-1.000000 I0.282908 J0.000000
G03 X55.065584 Y190.855760 Z-1.000000 I2.384790 J9.419994
G02 X57.200957 Y190.680387 Z-1.000000 I-0.925158 J-24.352903
G02 X57.295140 Y190.573530 Z-1.000000 I-0.013527 J-0.106857
G02 X57.230826 Y190.301095 Z-1.000000 I-0.609179 J-0.000000
G02 X56.942362 Y189.867980 Z-1.000000 I-1.883041 J0.941529
G02 X56.572957 Y189.495046 Z-1.000000 I-2.875671 J2.479042
G02 X56.476695 Y189.458760 Z-1.000000 I-0.096262 J0.109540
G03 X54.608153 Y189.221426 Z-1.000000 I-0.000000 J-7.474226
G03 X53.033584 Y188.569760 Z-1.000000 I1.529444 J-5.923562
G03 X51.769861 Y187.561765 Z-1.000000 I2.842613 J-4.859945
G03 X51.537806 Y186.975200 Z-1.000000 I0.625302 J-0.586565
G03 X51.662522 Y186.715715 Z-1.000000 I0.332301 J0.000000
G03 X52.102251 Y186.523650 Z-1.000000 I0.576651 J0.720824
G03 X52.681636 Y186.466699 Z-1.000000 I1.503988 J12.324923
G03 X53.047695 Y186.453050 Z-1.000000 I0.366059 J4.902105
G03 X54.237349 Y186.606098 Z-1.000000 I0.000000 J4.700168
G03 X55.474806 Y187.088050 Z-1.000000 I-1.458295 J5.573927
G03 X56.683336 Y187.732215 Z-1.000000 I-41.601111 J79.504374
G03 X57.450362 Y188.160490 Z-1.000000 I-17.615776 J32.450255
G02 X57.518785 Y188.116024 Z-1.000000 I0.000000 J-0.074876
G02 X57.563251 Y187.906490 Z-1.000000 I-0.471451 J-0.209534
G02 X57.534234 Y187.629118 Z-1.000000 I-1.340217 J-0.000000
G02 X57.408029 Y187.172720 Z-1.000000 I-3.780115 J0.799647
G02 X57.226471 Y186.742562 Z-1.000000 I-2.312538 J0.722666
G02 X56.942362 Y186.311940 Z-1.000000 I-2.601703 J1.407476
G02 X56.574289 Y185.992265 Z-1.000000 I-1.016564 J0.798732
G02 X55.263140 Y185.338270 Z-1.000000 I-5.857674 J10.102329
G02 X53.868147 Y184.906167 Z-1.000000 I-3.071898 J7.449412
G02 X52.610251 Y184.773830 Z-1.000000 I-1.257896 J5.912158
G02 X51.707293 Y184.876976 Z-1.000000 I0.000000 J4.003899
G02 X51.086251 Y185.126610 Z-1.000000 I0.489768 J2.115784
G02 X50.581279 Y185.539141 Z-1.000000 I1.238906 J2.031852
G02 X50.352473 Y185.916830 Z-1.000000 I0.799798 J0.742672
G02 X50.214177 Y186.360068 Z-1.000000 I3.238842 J1.253755
G02 X50.183140 Y186.622380 Z-1.000000 I1.092962 J0.262312
G02 X50.323145 Y187.300111 Z-1.000000 I1.710364 J0.000000
G02 X50.761695 Y187.962940 Z-1.000000 I2.071211 J-0.893887
G02 X51.372210 Y188.529916 Z-1.000000 I4.964756 J-4.733823
G02 X51.947029 Y188.936610 Z-1.000000 I3.109957 J-3.786024
G02 X52.577553 Y189.268417 Z-1.000000 I2.486271 J-3.959611
G02 X54.035473 Y189.839720 Z-1.000000 I8.963021 J-20.727006
G03 X54.245735 Y189.941333 Z-1.000000 I-3.668915 J7.860206
G03 X54.458806 Y190.051380 Z-1.000000 I-4.090756 J8.181762
G02 X53.801740 Y190.111960 Z-1.000000 I0.099298 J4.670698
G02 X52.652584 Y190.347720 Z-1.000000 I2.390561 J14.570712
G02 X51.804545 Y190.872292 Z-1.000000 I0.423006 J1.631614
G02 X51.509584 Y191.660050 Z-1.000000 I0.904461 J0.787758
G02 X51.848064 Y192.728338 Z-1.000000 I1.855070 J0.000000
G02 X53.090029 Y193.903720 Z-1.000000 I3.531195 J-2.487380
G02 X54.759412 Y194.645869 Z-1.000000 I3.418172 J-5.440181
G02 X56.631917 Y194.905610 Z-1.000000 I1.872505 J-6.619692
G02 X57.277271 Y194.870637 Z-1.000000 I-0.000000 J-5.971862
G02 X57.930140 Y194.764490 Z-1.000000 I-0.675945 J-6.218303
G02 X58.555167 Y194.603927 Z-1.000000 I-1.064368 J-5.440101
G02 X58.635695 Y194.538720 Z-1.000000 I-0.043556 J-0.136117
G01 X58.635696 Y194.538800 Z-1.000000
G00 Z5.000000

(End cutting path id: path28)


(Start cutting path id: path264)
(Change tool to Cylindrical cutter)

G00 Z5.000000
G00 X33.920413 Y221.440901

G01 Z-0.998000 F100.0(Penetrate)
G01 X159.390790 Y221.440901 Z-0.998000 F100.000000
G01 X159.390790 Y189.091450 Z-0.998000
G01 X80.842615 Y189.091450 Z-0.998000
G01 X80.842615 Y165.010240 Z-0.998000
G01 X153.706390 Y165.010240 Z-0.998000
G01 X153.706390 Y134.107730 Z-0.998000
G01 X80.842615 Y134.107730 Z-0.998000
G01 X80.842615 Y104.238750 Z-0.998000
G01 X161.664560 Y104.238750 Z-0.998000
G01 X161.664560 Y69.925600 Z-0.998000
G01 X33.920413 Y69.925600 Z-0.998000
G01 X33.920413 Y221.440901 Z-0.998000
G00 Z5.000000

(End cutting path id: path264)


(Start cutting path id: path264)
(Change tool to Cylindrical cutter)

G00 Z5.000000
G00 X33.920413 Y221.440901

G01 Z-1.000000 F100.0(Penetrate)
G01 X159.390790 Y221.440901 Z-1.000000 F100.000000
G01 X159.390790 Y189.091450 Z-1.000000
G01 X80.842615 Y189.091450 Z-1.000000
G01 X80.842615 Y165.010240 Z-1.000000
G01 X153.706390 Y165.010240 Z-1.000000
G01 X153.706390 Y134.107730 Z-1.000000
G01 X80.842615 Y134.107730 Z-1.000000
G01 X80.842615 Y104.238750 Z-1.000000
G01 X161.664560 Y104.238750 Z-1.000000
G01 X161.664560 Y69.925600 Z-1.000000
G01 X33.920413 Y69.925600 Z-1.000000
G01 X33.920413 Y221.440901 Z-1.000000
G00 Z5.000000

(End cutting path id: path264)


(Footer)
M5
G00 X0.0000 Y0.0000
M2
(Using default footer. To add your own footer create file "footer" in the output dir.)
(end)
%