%
(Header)
(Generated by gcodetools from Inkscape.)
(Using default header. To add your own header create file "header" in the output dir.)
M3
(Header end.)
G21 (All units in mm)

(Start cutting path id: path4899)
(Change tool to Cylindrical cutter)

G00 Z5.000000
G00 X25.226366 Y217.041000

G01 Z-0.998000 F100.0(Penetrate)
G01 X25.226366 Y196.626740 Z-0.998000 F100.000000
G03 X27.739625 Y196.841579 Z-0.998000 I-0.000000 J14.807908
G03 X29.691210 Y197.395688 Z-0.998000 I-1.625723 J9.439648
G03 X31.453228 Y198.340592 Z-0.998000 I-3.604500 J8.836842
G03 X32.791795 Y199.504086 Z-0.998000 I-4.222654 J6.209784
G03 X33.818997 Y200.890937 Z-0.998000 I-5.887107 J5.434252
G03 X34.577733 Y202.555063 Z-0.998000 I-7.765100 J4.545425
G03 X35.013904 Y204.366825 Z-0.998000 I-10.350929 J3.450308
G03 X35.173045 Y206.474203 Z-0.998000 I-13.873581 J2.107378
G03 X34.902805 Y209.250947 Z-0.998000 I-14.400784 J0.000000
G03 X34.056834 Y212.154477 Z-0.998000 I-16.604711 J-3.262934
G03 X32.754560 Y214.931926 Z-0.998000 I-23.423203 J-9.288509
G03 X31.824413 Y216.247250 Z-0.998000 I-6.100798 J-3.327707
G01 X31.824413 Y216.495297 Z-0.998000
G01 X36.909373 Y216.495297 Z-0.998000
G02 X37.821791 Y214.111316 Z-0.998000 I-35.658987 J-15.014320
G02 X38.571288 Y211.683188 Z-0.998000 I-36.244062 J-12.517287
G02 X39.067766 Y209.204323 Z-0.998000 I-17.795418 J-4.853292
G02 X39.241014 Y206.523813 Z-0.998000 I-20.649871 J-2.680510
G02 X38.156337 Y200.064991 Z-0.998000 I-19.772200 J0.000000
G02 X35.520311 Y195.758580 Z-0.998000 I-11.107108 J3.838863
G02 X31.296483 Y193.017734 Z-0.998000 I-8.069929 J7.811280
G02 X24.903905 Y191.889050 Z-0.998000 I-6.392578 J17.538616
G02 X18.523600 Y192.951471 Z-0.998000 I-0.000000 J19.689479
G02 X14.113866 Y195.584950 Z-0.998000 I4.023196 J11.745568
G02 X11.215576 Y199.782176 Z-0.998000 I8.096154 J8.689882
G02 X10.120311 Y205.357992 Z-0.998000 I13.645156 J5.575816
G02 X11.071510 Y210.547744 Z-0.998000 I14.633270 J0.000000
G02 X13.394530 Y213.990023 Z-0.998000 I8.475985 J-3.215029
G02 X17.025536 Y216.134749 Z-0.998000 I6.689006 J-7.178445
G02 X22.696288 Y217.041000 Z-0.998000 I5.670752 J-17.288877
G01 X25.226366 Y217.041000 Z-0.998000
G00 Z5.000000

(End cutting path id: path4899)


(Start cutting path id: path4899)
(Change tool to Cylindrical cutter)

G00 Z5.000000
G00 X25.226366 Y217.041000

G01 Z-1.000000 F100.0(Penetrate)
G01 X25.226366 Y196.626740 Z-1.000000 F100.000000
G03 X27.739625 Y196.841579 Z-1.000000 I-0.000000 J14.807908
G03 X29.691210 Y197.395688 Z-1.000000 I-1.625723 J9.439648
G03 X31.453228 Y198.340592 Z-1.000000 I-3.604500 J8.836842
G03 X32.791795 Y199.504086 Z-1.000000 I-4.222654 J6.209784
G03 X33.818997 Y200.890937 Z-1.000000 I-5.887107 J5.434252
G03 X34.577733 Y202.555063 Z-1.000000 I-7.765100 J4.545425
G03 X35.013904 Y204.366825 Z-1.000000 I-10.350929 J3.450308
G03 X35.173045 Y206.474203 Z-1.000000 I-13.873581 J2.107378
G03 X34.902805 Y209.250947 Z-1.000000 I-14.400784 J0.000000
G03 X34.056834 Y212.154477 Z-1.000000 I-16.604711 J-3.262934
G03 X32.754560 Y214.931926 Z-1.000000 I-23.423203 J-9.288509
G03 X31.824413 Y216.247250 Z-1.000000 I-6.100798 J-3.327707
G01 X31.824413 Y216.495297 Z-1.000000
G01 X36.909373 Y216.495297 Z-1.000000
G02 X37.821791 Y214.111316 Z-1.000000 I-35.658987 J-15.014320
G02 X38.571288 Y211.683188 Z-1.000000 I-36.244062 J-12.517287
G02 X39.067766 Y209.204323 Z-1.000000 I-17.795418 J-4.853292
G02 X39.241014 Y206.523813 Z-1.000000 I-20.649871 J-2.680510
G02 X38.156337 Y200.064991 Z-1.000000 I-19.772200 J0.000000
G02 X35.520311 Y195.758580 Z-1.000000 I-11.107108 J3.838863
G02 X31.296483 Y193.017734 Z-1.000000 I-8.069929 J7.811280
G02 X24.903905 Y191.889050 Z-1.000000 I-6.392578 J17.538616
G02 X18.523600 Y192.951471 Z-1.000000 I-0.000000 J19.689479
G02 X14.113866 Y195.584950 Z-1.000000 I4.023196 J11.745568
G02 X11.215576 Y199.782176 Z-1.000000 I8.096154 J8.689882
G02 X10.120311 Y205.357992 Z-1.000000 I13.645156 J5.575816
G02 X11.071510 Y210.547744 Z-1.000000 I14.633270 J0.000000
G02 X13.394530 Y213.990023 Z-1.000000 I8.475985 J-3.215029
G02 X17.025536 Y216.134749 Z-1.000000 I6.689006 J-7.178445
G02 X22.696288 Y217.041000 Z-1.000000 I5.670752 J-17.288877
G01 X25.226366 Y217.041000 Z-1.000000
G00 Z5.000000

(End cutting path id: path4899)


(Start cutting path id: path4899)
(Change tool to Cylindrical cutter)

G00 Z5.000000
G00 X21.654491 Y212.501742

G01 Z-0.998000 F100.0(Penetrate)
G03 X18.194758 Y211.937631 Z-0.998000 I0.076757 J-11.362197 F100.000000
G03 X15.974218 Y210.641391 Z-0.998000 I1.902662 J-5.809463
G03 X14.572290 Y208.560450 Z-0.998000 I3.470389 J-3.850707
G03 X13.965038 Y205.109945 Z-0.998000 I9.499537 J-3.450505
G03 X14.588725 Y201.620739 Z-0.998000 I10.071986 J0.000000
G03 X16.172655 Y199.132016 Z-0.998000 I6.544693 J2.416920
G03 X18.618612 Y197.433264 Z-0.998000 I5.934428 J5.934431
G03 X21.654491 Y196.626740 Z-0.998000 I3.881272 J8.492675
G01 X21.654491 Y212.501742 Z-0.998000
G00 Z5.000000

(End cutting path id: path4899)


(Start cutting path id: path4899)
(Change tool to Cylindrical cutter)

G00 Z5.000000
G00 X21.654491 Y212.501742

G01 Z-1.000000 F100.0(Penetrate)
G03 X18.194758 Y211.937631 Z-1.000000 I0.076757 J-11.362197 F100.000000
G03 X15.974218 Y210.641391 Z-1.000000 I1.902662 J-5.809463
G03 X14.572290 Y208.560450 Z-1.000000 I3.470389 J-3.850707
G03 X13.965038 Y205.109945 Z-1.000000 I9.499537 J-3.450505
G03 X14.588725 Y201.620739 Z-1.000000 I10.071986 J0.000000
G03 X16.172655 Y199.132016 Z-1.000000 I6.544693 J2.416920
G03 X18.618612 Y197.433264 Z-1.000000 I5.934428 J5.934431
G03 X21.654491 Y196.626740 Z-1.000000 I3.881272 J8.492675
G01 X21.654491 Y212.501742 Z-1.000000
G00 Z5.000000

(End cutting path id: path4899)


(Start cutting path id: path4897)
(Change tool to Cylindrical cutter)

G00 Z5.000000
G00 X24.531835 Y186.580850

G01 Z-0.998000 F100.0(Penetrate)
G02 X27.957689 Y186.310650 Z-0.998000 I-0.000000 J-21.853242 F100.000000
G02 X30.782616 Y185.588670 Z-0.998000 I-2.466220 J-15.537304
G02 X33.427869 Y184.393886 Z-0.998000 I-5.360051 J-15.392853
G02 X35.445897 Y182.959370 Z-0.998000 I-5.824979 J-10.331082
G02 X37.206917 Y181.050639 Z-0.998000 I-9.295443 J-10.342831
G02 X38.397655 Y179.089840 Z-0.998000 I-8.627186 J-6.580997
G02 X39.109768 Y176.925673 Z-0.998000 I-9.240852 J-4.239918
G02 X39.365038 Y174.451360 Z-0.998000 I-11.864020 J-2.474313
G02 X39.204317 Y172.120303 Z-0.998000 I-16.984875 J-0.000000
G02 X38.794530 Y170.333780 Z-0.998000 I-10.352707 J1.434411
G02 X38.160174 Y168.610335 Z-0.998000 I-16.807894 J5.208087
G02 X37.306248 Y166.861130 Z-0.998000 I-18.169582 J7.786982
G01 X38.596092 Y166.563470 Z-0.998000
G01 X38.596092 Y162.197850 Z-0.998000
G01 X-0.000001 Y162.197850 Z-0.998000
G01 X-0.000001 Y166.861130 Z-0.998000
G01 X13.791405 Y166.861130 Z-0.998000
G02 X12.314327 Y168.905497 Z-0.998000 I15.515356 J12.765803
G02 X11.162108 Y171.028310 Z-0.998000 I15.584000 J9.832780
G02 X10.399785 Y173.298561 Z-0.998000 I9.279304 J4.378992
G02 X10.120311 Y175.989250 Z-0.998000 I12.812808 J2.690689
G02 X11.135910 Y180.392780 Z-0.998000 I10.054420 J-0.000000
G02 X13.890624 Y183.728310 Z-0.998000 I8.282739 J-4.035182
G02 X17.951837 Y185.714214 Z-0.998000 I7.114221 J-9.403140
G02 X24.531835 Y186.580850 Z-0.998000 I6.579998 J-24.546246
G01 X24.531835 Y186.580850 Z-0.998000
G00 Z5.000000

(End cutting path id: path4897)


(Start cutting path id: path4897)
(Change tool to Cylindrical cutter)

G00 Z5.000000
G00 X24.531835 Y186.580850

G01 Z-1.000000 F100.0(Penetrate)
G02 X27.957689 Y186.310650 Z-1.000000 I-0.000000 J-21.853242 F100.000000
G02 X30.782616 Y185.588670 Z-1.000000 I-2.466220 J-15.537304
G02 X33.427869 Y184.393886 Z-1.000000 I-5.360051 J-15.392853
G02 X35.445897 Y182.959370 Z-1.000000 I-5.824979 J-10.331082
G02 X37.206917 Y181.050639 Z-1.000000 I-9.295443 J-10.342831
G02 X38.397655 Y179.089840 Z-1.000000 I-8.627186 J-6.580997
G02 X39.109768 Y176.925673 Z-1.000000 I-9.240852 J-4.239918
G02 X39.365038 Y174.451360 Z-1.000000 I-11.864020 J-2.474313
G02 X39.204317 Y172.120303 Z-1.000000 I-16.984875 J-0.000000
G02 X38.794530 Y170.333780 Z-1.000000 I-10.352707 J1.434411
G02 X38.160174 Y168.610335 Z-1.000000 I-16.807894 J5.208087
G02 X37.306248 Y166.861130 Z-1.000000 I-18.169582 J7.786982
G01 X38.596092 Y166.563470 Z-1.000000
G01 X38.596092 Y162.197850 Z-1.000000
G01 X-0.000001 Y162.197850 Z-1.000000
G01 X-0.000001 Y166.861130 Z-1.000000
G01 X13.791405 Y166.861130 Z-1.000000
G02 X12.314327 Y168.905497 Z-1.000000 I15.515356 J12.765803
G02 X11.162108 Y171.028310 Z-1.000000 I15.584000 J9.832780
G02 X10.399785 Y173.298561 Z-1.000000 I9.279304 J4.378992
G02 X10.120311 Y175.989250 Z-1.000000 I12.812808 J2.690689
G02 X11.135910 Y180.392780 Z-1.000000 I10.054420 J-0.000000
G02 X13.890624 Y183.728310 Z-1.000000 I8.282739 J-4.035182
G02 X17.951837 Y185.714214 Z-1.000000 I7.114221 J-9.403140
G02 X24.531835 Y186.580850 Z-1.000000 I6.579998 J-24.546246
G01 X24.531835 Y186.580850 Z-1.000000
G00 Z5.000000

(End cutting path id: path4897)


(Start cutting path id: path4897)
(Change tool to Cylindrical cutter)

G00 Z5.000000
G00 X24.655858 Y181.768740

G01 Z-0.998000 F100.0(Penetrate)
G03 X19.846561 Y181.251025 Z-0.998000 I-0.000000 J-22.596752 F100.000000
G03 X17.140038 Y180.131630 Z-0.998000 I1.763260 J-8.094962
G03 X15.307999 Y178.083495 Z-0.998000 I2.705904 J-4.263848
G03 X14.560350 Y174.848240 Z-0.998000 I6.626040 J-3.235255
G03 X14.773676 Y172.858037 Z-0.998000 I9.390375 J-0.000000
G03 X15.453319 Y170.730660 Z-0.998000 I11.424645 J2.477633
G03 X16.451622 Y168.722947 Z-0.998000 I15.540192 J6.475060
G03 X17.710546 Y166.861130 Z-0.998000 I14.610534 J8.522816
G01 X33.585545 Y166.861130 Z-0.998000
G03 X34.403418 Y168.871378 Z-0.998000 I-27.149742 J12.217418
G03 X34.825780 Y170.259370 Z-0.998000 I-12.498776 J4.561602
G03 X35.077170 Y171.709447 Z-0.998000 I-10.980255 J2.650405
G03 X35.173045 Y173.508780 Z-0.998000 I-16.836623 J1.799333
G03 X34.462114 Y177.052715 Z-0.998000 I-9.188588 J0.000000
G03 X32.642967 Y179.561130 Z-0.998000 I-6.230263 J-2.604452
G03 X29.826997 Y181.067248 Z-0.998000 I-4.752449 J-5.500041
G03 X24.655858 Y181.768740 Z-0.998000 I-5.171139 J-18.709125
G01 X24.655858 Y181.768740 Z-0.998000
G00 Z5.000000

(End cutting path id: path4897)


(Start cutting path id: path4897)
(Change tool to Cylindrical cutter)

G00 Z5.000000
G00 X24.655858 Y181.768740

G01 Z-1.000000 F100.0(Penetrate)
G03 X19.846561 Y181.251025 Z-1.000000 I-0.000000 J-22.596752 F100.000000
G03 X17.140038 Y180.131630 Z-1.000000 I1.763260 J-8.094962
G03 X15.307999 Y178.083495 Z-1.000000 I2.705904 J-4.263848
G03 X14.560350 Y174.848240 Z-1.000000 I6.626040 J-3.235255
G03 X14.773676 Y172.858037 Z-1.000000 I9.390375 J-0.000000
G03 X15.453319 Y170.730660 Z-1.000000 I11.424645 J2.477633
G03 X16.451622 Y168.722947 Z-1.000000 I15.540192 J6.475060
G03 X17.710546 Y166.861130 Z-1.000000 I14.610534 J8.522816
G01 X33.585545 Y166.861130 Z-1.000000
G03 X34.403418 Y168.871378 Z-1.000000 I-27.149742 J12.217418
G03 X34.825780 Y170.259370 Z-1.000000 I-12.498776 J4.561602
G03 X35.077170 Y171.709447 Z-1.000000 I-10.980255 J2.650405
G03 X35.173045 Y173.508780 Z-1.000000 I-16.836623 J1.799333
G03 X34.462114 Y177.052715 Z-1.000000 I-9.188588 J0.000000
G03 X32.642967 Y179.561130 Z-1.000000 I-6.230263 J-2.604452
G03 X29.826997 Y181.067248 Z-1.000000 I-4.752449 J-5.500041
G03 X24.655858 Y181.768740 Z-1.000000 I-5.171139 J-18.709125
G01 X24.655858 Y181.768740 Z-1.000000
G00 Z5.000000

(End cutting path id: path4897)


(Start cutting path id: path4895)
(Change tool to Cylindrical cutter)

G00 Z5.000000
G00 X38.596092 Y153.020100

G01 Z-0.998000 F100.0(Penetrate)
G01 X38.596092 Y148.356820 Z-0.998000 F100.000000
G01 X35.520311 Y148.356820 Z-0.998000
G02 X37.246321 Y145.918084 Z-0.998000 I-22.393325 J-17.678985
G02 X38.372850 Y143.842370 Z-0.998000 I-15.070721 J-9.522715
G02 X39.102540 Y141.626906 Z-0.998000 I-9.415828 J-4.329114
G02 X39.365038 Y139.079870 Z-0.998000 I-12.225768 J-2.547036
G02 X38.605797 Y135.048433 Z-0.998000 I-11.082725 J-0.000000
G02 X36.710936 Y132.283390 Z-0.998000 I-6.892552 J2.691619
G02 X33.746923 Y130.591002 Z-0.998000 I-5.300395 J5.841249
G02 X28.872655 Y129.852530 Z-0.998000 I-4.874268 J15.717024
G01 X10.889257 Y129.852530 Z-0.998000
G01 X10.889257 Y134.515810 Z-0.998000
G01 X26.665038 Y134.515810 Z-0.998000
G03 X28.769674 Y134.573429 Z-0.998000 I-0.000000 J38.466734
G03 X30.286522 Y134.714250 Z-0.998000 I-1.101816 J20.107884
G03 X31.728176 Y135.045255 Z-0.998000 I-1.050904 J7.882074
G03 X32.841405 Y135.557600 Z-0.998000 I-1.710868 J5.182982
G03 X33.797953 Y136.347503 Z-0.998000 I-2.326823 J3.791839
G03 X34.428905 Y137.293930 Z-0.998000 I-2.760426 J2.523815
G03 X34.766102 Y138.395675 Z-0.998000 I-3.787712 J1.761730
G03 X34.924999 Y140.394520 Z-0.998000 I-12.492791 J1.998845
G03 X34.716804 Y142.161313 Z-0.998000 I-7.600811 J0.000000
G03 X33.982420 Y144.338460 Z-0.998000 I-12.331428 J-2.947141
G03 X32.910637 Y146.419164 Z-0.998000 I-16.806904 J-7.340938
G03 X31.576366 Y148.356820 Z-0.998000 I-15.898102 J-9.519230
G01 X10.889257 Y148.356820 Z-0.998000
G01 X10.889257 Y153.020100 Z-0.998000
G01 X38.596092 Y153.020100 Z-0.998000
G00 Z5.000000

(End cutting path id: path4895)


(Start cutting path id: path4895)
(Change tool to Cylindrical cutter)

G00 Z5.000000
G00 X38.596092 Y153.020100

G01 Z-1.000000 F100.0(Penetrate)
G01 X38.596092 Y148.356820 Z-1.000000 F100.000000
G01 X35.520311 Y148.356820 Z-1.000000
G02 X37.246321 Y145.918084 Z-1.000000 I-22.393325 J-17.678985
G02 X38.372850 Y143.842370 Z-1.000000 I-15.070721 J-9.522715
G02 X39.102540 Y141.626906 Z-1.000000 I-9.415828 J-4.329114
G02 X39.365038 Y139.079870 Z-1.000000 I-12.225768 J-2.547036
G02 X38.605797 Y135.048433 Z-1.000000 I-11.082725 J-0.000000
G02 X36.710936 Y132.283390 Z-1.000000 I-6.892552 J2.691619
G02 X33.746923 Y130.591002 Z-1.000000 I-5.300395 J5.841249
G02 X28.872655 Y129.852530 Z-1.000000 I-4.874268 J15.717024
G01 X10.889257 Y129.852530 Z-1.000000
G01 X10.889257 Y134.515810 Z-1.000000
G01 X26.665038 Y134.515810 Z-1.000000
G03 X28.769674 Y134.573429 Z-1.000000 I-0.000000 J38.466734
G03 X30.286522 Y134.714250 Z-1.000000 I-1.101816 J20.107884
G03 X31.728176 Y135.045255 Z-1.000000 I-1.050904 J7.882074
G03 X32.841405 Y135.557600 Z-1.000000 I-1.710868 J5.182982
G03 X33.797953 Y136.347503 Z-1.000000 I-2.326823 J3.791839
G03 X34.428905 Y137.293930 Z-1.000000 I-2.760426 J2.523815
G03 X34.766102 Y138.395675 Z-1.000000 I-3.787712 J1.761730
G03 X34.924999 Y140.394520 Z-1.000000 I-12.492791 J1.998845
G03 X34.716804 Y142.161313 Z-1.000000 I-7.600811 J0.000000
G03 X33.982420 Y144.338460 Z-1.000000 I-12.331428 J-2.947141
G03 X32.910637 Y146.419164 Z-1.000000 I-16.806904 J-7.340938
G03 X31.576366 Y148.356820 Z-1.000000 I-15.898102 J-9.519230
G01 X10.889257 Y148.356820 Z-1.000000
G01 X10.889257 Y153.020100 Z-1.000000
G01 X38.596092 Y153.020100 Z-1.000000
G00 Z5.000000

(End cutting path id: path4895)


(Start cutting path id: path4893)
(Change tool to Cylindrical cutter)

G00 Z5.000000
G00 X6.027538 Y125.412490

G01 Z-0.998000 F100.0(Penetrate)
G01 X6.027538 Y112.216400 Z-0.998000 F100.000000
G01 X38.596092 Y112.216400 Z-0.998000
G01 X38.596092 Y107.305070 Z-0.998000
G01 X6.027538 Y107.305070 Z-0.998000
G01 X6.027538 Y94.108980 Z-0.998000
G01 X1.661913 Y94.108980 Z-0.998000
G01 X1.661913 Y125.412490 Z-0.998000
G01 X6.027538 Y125.412490 Z-0.998000
G00 Z5.000000

(End cutting path id: path4893)


(Start cutting path id: path4893)
(Change tool to Cylindrical cutter)

G00 Z5.000000
G00 X6.027538 Y125.412490

G01 Z-1.000000 F100.0(Penetrate)
G01 X6.027538 Y112.216400 Z-1.000000 F100.000000
G01 X38.596092 Y112.216400 Z-1.000000
G01 X38.596092 Y107.305070 Z-1.000000
G01 X6.027538 Y107.305070 Z-1.000000
G01 X6.027538 Y94.108980 Z-1.000000
G01 X1.661913 Y94.108980 Z-1.000000
G01 X1.661913 Y125.412490 Z-1.000000
G01 X6.027538 Y125.412490 Z-1.000000
G00 Z5.000000

(End cutting path id: path4893)


(Start cutting path id: path4891)
(Change tool to Cylindrical cutter)

G00 Z5.000000
G00 X38.596092 Y89.520110

G01 Z-0.998000 F100.0(Penetrate)
G01 X38.596092 Y84.856830 Z-0.998000 F100.000000
G01 X35.520311 Y84.856830 Z-0.998000
G02 X37.246321 Y82.418094 Z-0.998000 I-22.393325 J-17.678985
G02 X38.372850 Y80.342380 Z-0.998000 I-15.070721 J-9.522715
G02 X39.102540 Y78.126916 Z-0.998000 I-9.415828 J-4.329114
G02 X39.365038 Y75.579880 Z-0.998000 I-12.225768 J-2.547036
G02 X38.605796 Y71.548434 Z-0.998000 I-11.082766 J-0.000000
G02 X36.710936 Y68.783390 Z-0.998000 I-6.892546 J2.691613
G02 X33.746923 Y67.091002 Z-0.998000 I-5.300395 J5.841249
G02 X28.872655 Y66.352530 Z-0.998000 I-4.874268 J15.717024
G01 X10.889257 Y66.352530 Z-0.998000
G01 X10.889257 Y71.015820 Z-0.998000
G01 X26.665038 Y71.015820 Z-0.998000
G03 X28.769674 Y71.073436 Z-0.998000 I-0.000000 J38.468674
G03 X30.286522 Y71.214250 Z-0.998000 I-1.101814 J20.108868
G03 X31.728177 Y71.545263 Z-0.998000 I-1.050974 J7.882207
G03 X32.841405 Y72.057610 Z-0.998000 I-1.710914 J5.183060
G03 X33.797953 Y72.847513 Z-0.998000 I-2.326823 J3.791839
G03 X34.428905 Y73.793940 Z-0.998000 I-2.760426 J2.523815
G03 X34.766102 Y74.895685 Z-0.998000 I-3.787712 J1.761730
G03 X34.924999 Y76.894530 Z-0.998000 I-12.492791 J1.998845
G03 X34.716804 Y78.661323 Z-0.998000 I-7.600811 J0.000000
G03 X33.982420 Y80.838470 Z-0.998000 I-12.331428 J-2.947141
G03 X32.910637 Y82.919174 Z-0.998000 I-16.806904 J-7.340938
G03 X31.576366 Y84.856830 Z-0.998000 I-15.898102 J-9.519230
G01 X10.889257 Y84.856830 Z-0.998000
G01 X10.889257 Y89.520110 Z-0.998000
G01 X38.596092 Y89.520110 Z-0.998000
G00 Z5.000000

(End cutting path id: path4891)


(Start cutting path id: path4891)
(Change tool to Cylindrical cutter)

G00 Z5.000000
G00 X38.596092 Y89.520110

G01 Z-1.000000 F100.0(Penetrate)
G01 X38.596092 Y84.856830 Z-1.000000 F100.000000
G01 X35.520311 Y84.856830 Z-1.000000
G02 X37.246321 Y82.418094 Z-1.000000 I-22.393325 J-17.678985
G02 X38.372850 Y80.342380 Z-1.000000 I-15.070721 J-9.522715
G02 X39.102540 Y78.126916 Z-1.000000 I-9.415828 J-4.329114
G02 X39.365038 Y75.579880 Z-1.000000 I-12.225768 J-2.547036
G02 X38.605796 Y71.548434 Z-1.000000 I-11.082766 J-0.000000
G02 X36.710936 Y68.783390 Z-1.000000 I-6.892546 J2.691613
G02 X33.746923 Y67.091002 Z-1.000000 I-5.300395 J5.841249
G02 X28.872655 Y66.352530 Z-1.000000 I-4.874268 J15.717024
G01 X10.889257 Y66.352530 Z-1.000000
G01 X10.889257 Y71.015820 Z-1.000000
G01 X26.665038 Y71.015820 Z-1.000000
G03 X28.769674 Y71.073436 Z-1.000000 I-0.000000 J38.468674
G03 X30.286522 Y71.214250 Z-1.000000 I-1.101814 J20.108868
G03 X31.728177 Y71.545263 Z-1.000000 I-1.050974 J7.882207
G03 X32.841405 Y72.057610 Z-1.000000 I-1.710914 J5.183060
G03 X33.797953 Y72.847513 Z-1.000000 I-2.326823 J3.791839
G03 X34.428905 Y73.793940 Z-1.000000 I-2.760426 J2.523815
G03 X34.766102 Y74.895685 Z-1.000000 I-3.787712 J1.761730
G03 X34.924999 Y76.894530 Z-1.000000 I-12.492791 J1.998845
G03 X34.716804 Y78.661323 Z-1.000000 I-7.600811 J0.000000
G03 X33.982420 Y80.838470 Z-1.000000 I-12.331428 J-2.947141
G03 X32.910637 Y82.919174 Z-1.000000 I-16.806904 J-7.340938
G03 X31.576366 Y84.856830 Z-1.000000 I-15.898102 J-9.519230
G01 X10.889257 Y84.856830 Z-1.000000
G01 X10.889257 Y89.520110 Z-1.000000
G01 X38.596092 Y89.520110 Z-1.000000
G00 Z5.000000

(End cutting path id: path4891)


(Start cutting path id: path4889)
(Change tool to Cylindrical cutter)

G00 Z5.000000
G00 X24.755077 Y59.308000

G01 Z-0.998000 F100.0(Penetrate)
G02 X31.143101 Y58.296516 Z-0.998000 I0.000000 J-20.677509 F100.000000
G02 X35.445897 Y55.835350 Z-0.998000 I-3.752397 J-11.552043
G02 X38.285358 Y51.876821 Z-0.998000 I-7.288770 J-8.225889
G02 X39.365038 Y46.533590 Z-0.998000 I-12.681722 J-5.343231
G02 X38.281053 Y41.142686 Z-0.998000 I-13.947095 J0.000000
G02 X35.445897 Y37.182220 Z-0.998000 I-10.092204 J4.229623
G02 X31.147490 Y34.739671 Z-0.998000 I-8.029772 J9.127372
G02 X24.755077 Y33.734370 Z-0.998000 I-6.392413 J19.821088
G02 X18.362663 Y34.739671 Z-0.998000 I-0.000000 J20.826391
G02 X14.064257 Y37.182220 Z-0.998000 I3.731363 J11.569915
G02 X11.209711 Y41.147174 Z-0.998000 I7.239680 J8.222200
G02 X10.120311 Y46.533590 Z-0.998000 I12.771566 J5.386416
G02 X11.205376 Y51.872354 Z-0.998000 I13.676491 J-0.000000
G02 X14.064257 Y55.835350 Z-0.998000 I10.130293 J-4.295244
G02 X18.367052 Y58.296515 Z-0.998000 I8.055190 J-9.090872
G02 X24.755077 Y59.308000 Z-0.998000 I6.388025 J-19.666027
G01 X24.755077 Y59.308000 Z-0.998000
G00 Z5.000000

(End cutting path id: path4889)


(Start cutting path id: path4889)
(Change tool to Cylindrical cutter)

G00 Z5.000000
G00 X24.755077 Y59.308000

G01 Z-1.000000 F100.0(Penetrate)
G02 X31.143101 Y58.296516 Z-1.000000 I0.000000 J-20.677509 F100.000000
G02 X35.445897 Y55.835350 Z-1.000000 I-3.752397 J-11.552043
G02 X38.285358 Y51.876821 Z-1.000000 I-7.288770 J-8.225889
G02 X39.365038 Y46.533590 Z-1.000000 I-12.681722 J-5.343231
G02 X38.281053 Y41.142686 Z-1.000000 I-13.947095 J0.000000
G02 X35.445897 Y37.182220 Z-1.000000 I-10.092204 J4.229623
G02 X31.147490 Y34.739671 Z-1.000000 I-8.029772 J9.127372
G02 X24.755077 Y33.734370 Z-1.000000 I-6.392413 J19.821088
G02 X18.362663 Y34.739671 Z-1.000000 I-0.000000 J20.826391
G02 X14.064257 Y37.182220 Z-1.000000 I3.731363 J11.569915
G02 X11.209711 Y41.147174 Z-1.000000 I7.239680 J8.222200
G02 X10.120311 Y46.533590 Z-1.000000 I12.771566 J5.386416
G02 X11.205376 Y51.872354 Z-1.000000 I13.676491 J-0.000000
G02 X14.064257 Y55.835350 Z-1.000000 I10.130293 J-4.295244
G02 X18.367052 Y58.296515 Z-1.000000 I8.055190 J-9.090872
G02 X24.755077 Y59.308000 Z-1.000000 I6.388025 J-19.666027
G01 X24.755077 Y59.308000 Z-1.000000
G00 Z5.000000

(End cutting path id: path4889)


(Start cutting path id: path4889)
(Change tool to Cylindrical cutter)

G00 Z5.000000
G00 X24.755077 Y54.495890

G01 Z-0.998000 F100.0(Penetrate)
G03 X19.608880 Y53.828093 Z-0.998000 I-0.000000 J-20.162785 F100.000000
G03 X16.767968 Y52.387490 Z-0.998000 I1.938927 J-7.345106
G03 X14.866377 Y49.929860 Z-0.998000 I4.150508 J-5.175948
G03 X14.138671 Y46.533590 Z-0.998000 I7.561499 J-3.396270
G03 X14.870880 Y43.089870 Z-0.998000 I8.464341 J-0.000000
G03 X16.767968 Y40.630070 Z-0.998000 I6.019331 J2.680877
G03 X19.604252 Y39.207269 Z-0.998000 I4.759440 J5.949310
G03 X24.755077 Y38.546480 Z-0.998000 I5.150825 J19.744865
G03 X29.739651 Y39.199183 Z-0.998000 I0.000000 J19.359499
G03 X32.667772 Y40.654880 Z-0.998000 I-2.109046 J7.915119
G03 X34.606169 Y43.122810 Z-0.998000 I-4.112484 J5.225294
G03 X35.346678 Y46.533590 Z-0.998000 I-7.484767 J3.410780
G03 X34.616012 Y49.901571 Z-0.998000 I-8.127633 J0.000000
G03 X32.692577 Y52.362690 Z-0.998000 I-6.076370 J-2.766688
G03 X29.781708 Y53.832212 Z-0.998000 I-4.989892 J-6.266387
G03 X24.755077 Y54.495890 Z-0.998000 I-5.026631 J-18.703769
G01 X24.755077 Y54.495890 Z-0.998000
G00 Z5.000000

(End cutting path id: path4889)


(Start cutting path id: path4889)
(Change tool to Cylindrical cutter)

G00 Z5.000000
G00 X24.755077 Y54.495890

G01 Z-1.000000 F100.0(Penetrate)
G03 X19.608880 Y53.828093 Z-1.000000 I-0.000000 J-20.162785 F100.000000
G03 X16.767968 Y52.387490 Z-1.000000 I1.938927 J-7.345106
G03 X14.866377 Y49.929860 Z-1.000000 I4.150508 J-5.175948
G03 X14.138671 Y46.533590 Z-1.000000 I7.561499 J-3.396270
G03 X14.870880 Y43.089870 Z-1.000000 I8.464341 J-0.000000
G03 X16.767968 Y40.630070 Z-1.000000 I6.019331 J2.680877
G03 X19.604252 Y39.207269 Z-1.000000 I4.759440 J5.949310
G03 X24.755077 Y38.546480 Z-1.000000 I5.150825 J19.744865
G03 X29.739651 Y39.199183 Z-1.000000 I0.000000 J19.359499
G03 X32.667772 Y40.654880 Z-1.000000 I-2.109046 J7.915119
G03 X34.606169 Y43.122810 Z-1.000000 I-4.112484 J5.225294
G03 X35.346678 Y46.533590 Z-1.000000 I-7.484767 J3.410780
G03 X34.616012 Y49.901571 Z-1.000000 I-8.127633 J0.000000
G03 X32.692577 Y52.362690 Z-1.000000 I-6.076370 J-2.766688
G03 X29.781708 Y53.832212 Z-1.000000 I-4.989892 J-6.266387
G03 X24.755077 Y54.495890 Z-1.000000 I-5.026631 J-18.703769
G01 X24.755077 Y54.495890 Z-1.000000
G00 Z5.000000

(End cutting path id: path4889)


(Start cutting path id: path4887)
(Change tool to Cylindrical cutter)

G00 Z5.000000
G00 X1.661913 Y30.956240

G01 Z-0.998000 F100.0(Penetrate)
G01 X22.398632 Y17.958590 Z-0.998000 F100.000000
G01 X38.596092 Y17.958590 Z-0.998000
G01 X38.596092 Y13.047260 Z-0.998000
G01 X22.919530 Y13.047260 Z-0.998000
G01 X1.661913 Y-0.000010 Z-0.998000
G01 X1.661913 Y5.432220 Z-0.998000
G01 X18.181835 Y15.527730 Z-0.998000
G01 X1.661913 Y25.722450 Z-0.998000
G01 X1.661913 Y30.956240 Z-0.998000
G00 Z5.000000

(End cutting path id: path4887)


(Start cutting path id: path4887)
(Change tool to Cylindrical cutter)

G00 Z5.000000
G00 X1.661913 Y30.956240

G01 Z-1.000000 F100.0(Penetrate)
G01 X22.398632 Y17.958590 Z-1.000000 F100.000000
G01 X38.596092 Y17.958590 Z-1.000000
G01 X38.596092 Y13.047260 Z-1.000000
G01 X22.919530 Y13.047260 Z-1.000000
G01 X1.661913 Y-0.000010 Z-1.000000
G01 X1.661913 Y5.432220 Z-1.000000
G01 X18.181835 Y15.527730 Z-1.000000
G01 X1.661913 Y25.722450 Z-1.000000
G01 X1.661913 Y30.956240 Z-1.000000
G00 Z5.000000

(End cutting path id: path4887)


(Footer)
M5
G00 X0.0000 Y0.0000
M2
(Using default footer. To add your own footer create file "footer" in the output dir.)
(end)
%